(Block-name: Header)
(Block-expand: 0)
(Block-enable: 1)
%
(Header)
(Generated by gcodetools from Inkscape.)
(Using default header. To add your own header create file "header" in the output dir.)
M3
(Header end.)
G21 (All units in mm)

(Start cutting path id: path136-3)
(Change tool to Default tool)

(Block-name: path136-3)
(Block-expand: 0)
(Block-enable: 0)

(End cutting path id: path136-3)


(Start cutting path id: path136-3)
(Change tool to Default tool)

G0 Z5
G0 X210.973279 Y222.200716

G1 Z-0.125 F100
G3 X210.235779 Y222.003116 Z-0.125 I0 J-1.475 F400
G3 X209.695979 Y221.463216 Z-0.125 I0.7375 J-1.2774
G3 X209.498279 Y220.725716 Z-0.125 I1.2774 J-0.7375
G3 X209.695979 Y219.988216 Z-0.125 I1.475 J0
G3 X210.235779 Y219.448316 Z-0.125 I1.2774 J0.7375
G3 X210.973279 Y219.250716 Z-0.125 I0.7375 J1.2774
G3 X211.710779 Y219.448316 Z-0.125 I-0 J1.475
G3 X212.250679 Y219.988216 Z-0.125 I-0.7375 J1.2774
G3 X212.448279 Y220.725716 Z-0.125 I-1.2774 J0.7375
G3 X212.250679 Y221.463216 Z-0.125 I-1.475 J0
G3 X211.710779 Y222.003116 Z-0.125 I-1.2774 J-0.7375
G3 X210.973279 Y222.200716 Z-0.125 I-0.7375 J-1.2774
G1 X210.973279 Y222.200716 Z-0.125
G0 Z5
(Block-name: path136-3 [in,cut])
(Block-expand: 0)
(Block-enable: 1)
g0 x210.973279 y220.764276
g1 z-0.5 f100
g1 x210.95406 y220.759127 f250
g1 x210.939937 y220.745001
g1 x210.934767 y220.725716
g1 x210.939937 y220.706431
g1 x210.95406 y220.692305
g1 x210.973279 y220.687156
g1 x210.992564 y220.692323
g1 x211.006672 y220.706431
g1 x211.011839 y220.725716
g1 x211.006672 y220.745001
g1 x210.992564 y220.759109
g1 x210.973279 y220.764276
g1 z-1 f100
g1 x210.95406 y220.759127 f250
g1 x210.939937 y220.745001
g1 x210.934767 y220.725716
g1 x210.939937 y220.706431
g1 x210.95406 y220.692305
g1 x210.973279 y220.687156
g1 x210.992564 y220.692323
g1 x211.006672 y220.706431
g1 x211.011839 y220.725716
g1 x211.006672 y220.745001
g1 x210.992564 y220.759109
g1 x210.973279 y220.764276
g1 z-1.5 f100
g1 x210.95406 y220.759127 f250
g1 x210.939937 y220.745001
g1 x210.934767 y220.725716
g1 x210.939937 y220.706431
g1 x210.95406 y220.692305
g1 x210.973279 y220.687156
g1 x210.992564 y220.692323
g1 x211.006672 y220.706431
g1 x211.011839 y220.725716
g1 x211.006672 y220.745001
g1 x210.992564 y220.759109
g1 x210.973279 y220.764276
g1 z-2 f100
g1 x210.95406 y220.759127 f250
g1 x210.939937 y220.745001
g1 x210.934767 y220.725716
g1 x210.939937 y220.706431
g1 x210.95406 y220.692305
g1 x210.973279 y220.687156
g1 x210.992564 y220.692323
g1 x211.006672 y220.706431
g1 x211.011839 y220.725716
g1 x211.006672 y220.745001
g1 x210.992564 y220.759109
g1 x210.973279 y220.764276
g1 z-2.5 f100
g1 x210.95406 y220.759127 f250
g1 x210.939937 y220.745001
g1 x210.934767 y220.725716
g1 x210.939937 y220.706431
g1 x210.95406 y220.692305
g1 x210.973279 y220.687156
g1 x210.992564 y220.692323
g1 x211.006672 y220.706431
g1 x211.011839 y220.725716
g1 x211.006672 y220.745001
g1 x210.992564 y220.759109
g1 x210.973279 y220.764276
g1 z-3 f100
g1 x210.95406 y220.759127 f250
g1 x210.939937 y220.745001
g1 x210.934767 y220.725716
g1 x210.939937 y220.706431
g1 x210.95406 y220.692305
g1 x210.973279 y220.687156
g1 x210.992564 y220.692323
g1 x211.006672 y220.706431
g1 x211.011839 y220.725716
g1 x211.006672 y220.745001
g1 x210.992564 y220.759109
g1 x210.973279 y220.764276
g1 z-3.5 f100
g1 x210.95406 y220.759127 f250
g1 x210.939937 y220.745001
g1 x210.934767 y220.725716
g1 x210.939937 y220.706431
g1 x210.95406 y220.692305
g1 x210.973279 y220.687156
g1 x210.992564 y220.692323
g1 x211.006672 y220.706431
g1 x211.011839 y220.725716
g1 x211.006672 y220.745001
g1 x210.992564 y220.759109
g1 x210.973279 y220.764276
g1 z-4 f100
g1 x210.95406 y220.759127 f250
g1 x210.939937 y220.745001
g1 x210.934767 y220.725716
g1 x210.939937 y220.706431
g1 x210.95406 y220.692305
g1 x210.973279 y220.687156
g1 x210.992564 y220.692323
g1 x211.006672 y220.706431
g1 x211.011839 y220.725716
g1 x211.006672 y220.745001
g1 x210.992564 y220.759109
g1 x210.973279 y220.764276
g0 z5
(Block-name: path132-0)
(Block-expand: 0)
(Block-enable: 0)

(End cutting path id: path132-0)


(Start cutting path id: path132-0)
(Change tool to Default tool)

G0 Z5
G0 X212.423279 Y227.625716

G1 Z-0.125 F100
G1 X212.423279 Y234.825716 Z-0.125 F400
G3 X212.229079 Y235.550716 Z-0.125 I-1.45 J-0
G3 X211.698279 Y236.081416 Z-0.125 I-1.2557 J-0.725
G3 X210.973279 Y236.275716 Z-0.125 I-0.725 J-1.2557
G3 X210.248279 Y236.081416 Z-0.125 I-0 J-1.45
G3 X209.717579 Y235.550716 Z-0.125 I0.725 J-1.2557
G3 X209.523279 Y234.825716 Z-0.125 I1.2557 J-0.725
G1 X209.523279 Y227.625716 Z-0.125
G3 X209.717579 Y226.900716 Z-0.125 I1.45 J-0
G3 X210.248279 Y226.370016 Z-0.125 I1.2557 J0.725
G3 X210.973279 Y226.175716 Z-0.125 I0.725 J1.2557
G3 X211.698279 Y226.370016 Z-0.125 I0 J1.45
G3 X212.229079 Y226.900716 Z-0.125 I-0.725 J1.2557
G3 X212.423279 Y227.625716 Z-0.125 I-1.2557 J0.725
G1 X212.423279 Y227.625716 Z-0.125
G0 Z5
(Block-name: path132-0 [in,cut])
(Block-expand: 0)
(Block-enable: 1)
g0 x211.035779 y227.808326
g1 z-0.5 f100
g1 x211.035779 y234.643106 f250
g1 x210.985056 y234.832468
g1 x210.966527 y234.837442
g1 x210.910779 y234.643015
g1 x210.910779 y227.808417
g1 x210.961553 y227.618964
g1 x210.980099 y227.614008
g1 x211.035779 y227.808326
g1 z-1 f100
g1 x211.035779 y234.643106 f250
g1 x210.985056 y234.832468
g1 x210.966527 y234.837442
g1 x210.910779 y234.643015
g1 x210.910779 y227.808417
g1 x210.961553 y227.618964
g1 x210.980099 y227.614008
g1 x211.035779 y227.808326
g1 z-1.5 f100
g1 x211.035779 y234.643106 f250
g1 x210.985056 y234.832468
g1 x210.966527 y234.837442
g1 x210.910779 y234.643015
g1 x210.910779 y227.808417
g1 x210.961553 y227.618964
g1 x210.980099 y227.614008
g1 x211.035779 y227.808326
g1 z-2 f100
g1 x211.035779 y234.643106 f250
g1 x210.985056 y234.832468
g1 x210.966527 y234.837442
g1 x210.910779 y234.643015
g1 x210.910779 y227.808417
g1 x210.961553 y227.618964
g1 x210.980099 y227.614008
g1 x211.035779 y227.808326
g1 z-2.5 f100
g1 x211.035779 y234.643106 f250
g1 x210.985056 y234.832468
g1 x210.966527 y234.837442
g1 x210.910779 y234.643015
g1 x210.910779 y227.808417
g1 x210.961553 y227.618964
g1 x210.980099 y227.614008
g1 x211.035779 y227.808326
g1 z-3 f100
g1 x211.035779 y234.643106 f250
g1 x210.985056 y234.832468
g1 x210.966527 y234.837442
g1 x210.910779 y234.643015
g1 x210.910779 y227.808417
g1 x210.961553 y227.618964
g1 x210.980099 y227.614008
g1 x211.035779 y227.808326
g1 z-3.5 f100
g1 x211.035779 y234.643106 f250
g1 x210.985056 y234.832468
g1 x210.966527 y234.837442
g1 x210.910779 y234.643015
g1 x210.910779 y227.808417
g1 x210.961553 y227.618964
g1 x210.980099 y227.614008
g1 x211.035779 y227.808326
g1 z-4 f100
g1 x211.035779 y234.643106 f250
g1 x210.985056 y234.832468
g1 x210.966527 y234.837442
g1 x210.910779 y234.643015
g1 x210.910779 y227.808417
g1 x210.961553 y227.618964
g1 x210.980099 y227.614008
g1 x211.035779 y227.808326
g0 z5
(Block-name: path134-6)
(Block-expand: 0)
(Block-enable: 0)

(End cutting path id: path134-6)


(Start cutting path id: path134-6)
(Change tool to Default tool)

G0 Z5
G0 X210.973279 Y243.200716

G1 Z-0.125 F100
G3 X210.235779 Y243.003116 Z-0.125 I-0 J-1.475 F400
G3 X209.695979 Y242.463216 Z-0.125 I0.7375 J-1.2774
G3 X209.498279 Y241.725716 Z-0.125 I1.2774 J-0.7375
G3 X209.695979 Y240.988216 Z-0.125 I1.475 J0
G3 X210.235779 Y240.448316 Z-0.125 I1.2774 J0.7375
G3 X210.973279 Y240.250716 Z-0.125 I0.7375 J1.2774
G3 X211.710779 Y240.448316 Z-0.125 I0 J1.475
G3 X212.250679 Y240.988216 Z-0.125 I-0.7375 J1.2774
G3 X212.448279 Y241.725716 Z-0.125 I-1.2774 J0.7375
G3 X212.250679 Y242.463216 Z-0.125 I-1.475 J0
G3 X211.710779 Y243.003116 Z-0.125 I-1.2774 J-0.7375
G3 X210.973279 Y243.200716 Z-0.125 I-0.7375 J-1.2774
G1 X210.973279 Y243.200716 Z-0.125
G0 Z5
(Block-name: path134-6 [in,cut])
(Block-expand: 0)
(Block-enable: 1)
g0 x210.973279 y241.764276
g1 z-0.5 f100
g1 x210.95406 y241.759127 f250
g1 x210.939937 y241.745001
g1 x210.934767 y241.725716
g1 x210.939937 y241.706431
g1 x210.95406 y241.692305
g1 x210.973279 y241.687156
g1 x210.992564 y241.692323
g1 x211.006672 y241.706431
g1 x211.011839 y241.725716
g1 x211.006672 y241.745001
g1 x210.992564 y241.759109
g1 x210.973279 y241.764276
g1 z-1 f100
g1 x210.95406 y241.759127 f250
g1 x210.939937 y241.745001
g1 x210.934767 y241.725716
g1 x210.939937 y241.706431
g1 x210.95406 y241.692305
g1 x210.973279 y241.687156
g1 x210.992564 y241.692323
g1 x211.006672 y241.706431
g1 x211.011839 y241.725716
g1 x211.006672 y241.745001
g1 x210.992564 y241.759109
g1 x210.973279 y241.764276
g1 z-1.5 f100
g1 x210.95406 y241.759127 f250
g1 x210.939937 y241.745001
g1 x210.934767 y241.725716
g1 x210.939937 y241.706431
g1 x210.95406 y241.692305
g1 x210.973279 y241.687156
g1 x210.992564 y241.692323
g1 x211.006672 y241.706431
g1 x211.011839 y241.725716
g1 x211.006672 y241.745001
g1 x210.992564 y241.759109
g1 x210.973279 y241.764276
g1 z-2 f100
g1 x210.95406 y241.759127 f250
g1 x210.939937 y241.745001
g1 x210.934767 y241.725716
g1 x210.939937 y241.706431
g1 x210.95406 y241.692305
g1 x210.973279 y241.687156
g1 x210.992564 y241.692323
g1 x211.006672 y241.706431
g1 x211.011839 y241.725716
g1 x211.006672 y241.745001
g1 x210.992564 y241.759109
g1 x210.973279 y241.764276
g1 z-2.5 f100
g1 x210.95406 y241.759127 f250
g1 x210.939937 y241.745001
g1 x210.934767 y241.725716
g1 x210.939937 y241.706431
g1 x210.95406 y241.692305
g1 x210.973279 y241.687156
g1 x210.992564 y241.692323
g1 x211.006672 y241.706431
g1 x211.011839 y241.725716
g1 x211.006672 y241.745001
g1 x210.992564 y241.759109
g1 x210.973279 y241.764276
g1 z-3 f100
g1 x210.95406 y241.759127 f250
g1 x210.939937 y241.745001
g1 x210.934767 y241.725716
g1 x210.939937 y241.706431
g1 x210.95406 y241.692305
g1 x210.973279 y241.687156
g1 x210.992564 y241.692323
g1 x211.006672 y241.706431
g1 x211.011839 y241.725716
g1 x211.006672 y241.745001
g1 x210.992564 y241.759109
g1 x210.973279 y241.764276
g1 z-3.5 f100
g1 x210.95406 y241.759127 f250
g1 x210.939937 y241.745001
g1 x210.934767 y241.725716
g1 x210.939937 y241.706431
g1 x210.95406 y241.692305
g1 x210.973279 y241.687156
g1 x210.992564 y241.692323
g1 x211.006672 y241.706431
g1 x211.011839 y241.725716
g1 x211.006672 y241.745001
g1 x210.992564 y241.759109
g1 x210.973279 y241.764276
g1 z-4 f100
g1 x210.95406 y241.759127 f250
g1 x210.939937 y241.745001
g1 x210.934767 y241.725716
g1 x210.939937 y241.706431
g1 x210.95406 y241.692305
g1 x210.973279 y241.687156
g1 x210.992564 y241.692323
g1 x211.006672 y241.706431
g1 x211.011839 y241.725716
g1 x211.006672 y241.745001
g1 x210.992564 y241.759109
g1 x210.973279 y241.764276
g0 z5
(Block-name: path90-7)
(Block-expand: 0)
(Block-enable: 0)

(End cutting path id: path90-7)


(Start cutting path id: path90-7)
(Change tool to Default tool)

G0 Z5
G0 X216.269779 Y157.399916

G1 Z-0.125 F100
G2 X216.932079 Y158.132516 Z-0.125 I1.421 J-0.6191 F400
G2 X217.902379 Y158.316316 Z-0.125 I0.7587 J-1.3516
G2 X218.786779 Y157.876916 Z-0.125 I-0.2116 J-1.5355
G2 X219.226279 Y156.992516 Z-0.125 I-1.096 J-1.096
G2 X219.042479 Y156.022216 Z-0.125 I-1.5355 J-0.2116
G2 X218.309879 Y155.359816 Z-0.125 I-1.3516 J0.7587
G3 X218.155979 Y155.255016 Z-0.125 I0.1997 J-0.4584
G3 X218.051179 Y155.101116 Z-0.125 I0.3535 J-0.3536
G2 X217.388879 Y154.368616 Z-0.125 I-1.421 J0.619
G2 X216.418579 Y154.184716 Z-0.125 I-0.7587 J1.3516
G2 X215.534079 Y154.624216 Z-0.125 I0.2116 J1.5355
G2 X215.094679 Y155.508616 Z-0.125 I1.096 J1.096
G2 X215.278579 Y156.478916 Z-0.125 I1.5355 J0.2116
G2 X216.011079 Y157.141216 Z-0.125 I1.3516 J-0.7587
G3 X216.164979 Y157.246016 Z-0.125 I-0.1997 J0.4584
G3 X216.269779 Y157.399916 Z-0.125 I-0.3536 J0.3535
G1 X216.269779 Y157.399916 Z-0.125
G0 Z5
(Block-name: path90-7 [in,cut])
(Block-expand: 0)
(Block-enable: 1)
g0 x217.546395 y156.636432
g1 z-0.5 f100
g1 x217.633473 y156.805783 f250
g1 x217.660308 y156.835466
g1 x217.699099 y156.842772
g1 x217.735081 y156.824971
g1 x217.752718 y156.789356
g1 x217.745259 y156.750143
g1 x217.715661 y156.723473
g1 x217.546395 y156.636432
g1 x216.605278 y155.77755
g1 x216.575693 y155.750801
g1 x216.568253 y155.711682
g1 x216.5859 y155.676037
g1 x216.621645 y155.65829
g1 x216.660764 y155.66573
g1 x216.68745 y155.695168
g1 x216.774563 y155.8646
g0 z5
g0 x217.546395 y156.636432
g1 z-1 f100
g1 x217.633473 y156.805783 f250
g1 x217.660308 y156.835466
g1 x217.699099 y156.842772
g1 x217.735081 y156.824971
g1 x217.752718 y156.789356
g1 x217.745259 y156.750143
g1 x217.715661 y156.723473
g1 x217.546395 y156.636432
g1 x216.605278 y155.77755
g1 x216.575693 y155.750801
g1 x216.568253 y155.711682
g1 x216.5859 y155.676037
g1 x216.621645 y155.65829
g1 x216.660764 y155.66573
g1 x216.68745 y155.695168
g1 x216.774563 y155.8646
g0 z5
g0 x217.546395 y156.636432
g1 z-1.5 f100
g1 x217.633473 y156.805783 f250
g1 x217.660308 y156.835466
g1 x217.699099 y156.842772
g1 x217.735081 y156.824971
g1 x217.752718 y156.789356
g1 x217.745259 y156.750143
g1 x217.715661 y156.723473
g1 x217.546395 y156.636432
g1 x216.605278 y155.77755
g1 x216.575693 y155.750801
g1 x216.568253 y155.711682
g1 x216.5859 y155.676037
g1 x216.621645 y155.65829
g1 x216.660764 y155.66573
g1 x216.68745 y155.695168
g1 x216.774563 y155.8646
g0 z5
g0 x217.546395 y156.636432
g1 z-2 f100
g1 x217.633473 y156.805783 f250
g1 x217.660308 y156.835466
g1 x217.699099 y156.842772
g1 x217.735081 y156.824971
g1 x217.752718 y156.789356
g1 x217.745259 y156.750143
g1 x217.715661 y156.723473
g1 x217.546395 y156.636432
g1 x216.605278 y155.77755
g1 x216.575693 y155.750801
g1 x216.568253 y155.711682
g1 x216.5859 y155.676037
g1 x216.621645 y155.65829
g1 x216.660764 y155.66573
g1 x216.68745 y155.695168
g1 x216.774563 y155.8646
g0 z5
g0 x217.546395 y156.636432
g1 z-2.5 f100
g1 x217.633473 y156.805783 f250
g1 x217.660308 y156.835466
g1 x217.699099 y156.842772
g1 x217.735081 y156.824971
g1 x217.752718 y156.789356
g1 x217.745259 y156.750143
g1 x217.715661 y156.723473
g1 x217.546395 y156.636432
g1 x216.605278 y155.77755
g1 x216.575693 y155.750801
g1 x216.568253 y155.711682
g1 x216.5859 y155.676037
g1 x216.621645 y155.65829
g1 x216.660764 y155.66573
g1 x216.68745 y155.695168
g1 x216.774563 y155.8646
g0 z5
g0 x217.546395 y156.636432
g1 z-3 f100
g1 x217.633473 y156.805783 f250
g1 x217.660308 y156.835466
g1 x217.699099 y156.842772
g1 x217.735081 y156.824971
g1 x217.752718 y156.789356
g1 x217.745259 y156.750143
g1 x217.715661 y156.723473
g1 x217.546395 y156.636432
g1 x216.605278 y155.77755
g1 x216.575693 y155.750801
g1 x216.568253 y155.711682
g1 x216.5859 y155.676037
g1 x216.621645 y155.65829
g1 x216.660764 y155.66573
g1 x216.68745 y155.695168
g1 x216.774563 y155.8646
g0 z5
g0 x217.546395 y156.636432
g1 z-3.5 f100
g1 x217.633473 y156.805783 f250
g1 x217.660308 y156.835466
g1 x217.699099 y156.842772
g1 x217.735081 y156.824971
g1 x217.752718 y156.789356
g1 x217.745259 y156.750143
g1 x217.715661 y156.723473
g1 x217.546395 y156.636432
g1 x216.605278 y155.77755
g1 x216.575693 y155.750801
g1 x216.568253 y155.711682
g1 x216.5859 y155.676037
g1 x216.621645 y155.65829
g1 x216.660764 y155.66573
g1 x216.68745 y155.695168
g1 x216.774563 y155.8646
g0 z5
g0 x217.546395 y156.636432
g1 z-4 f100
g1 x217.633473 y156.805783 f250
g1 x217.660308 y156.835466
g1 x217.699099 y156.842772
g1 x217.735081 y156.824971
g1 x217.752718 y156.789356
g1 x217.745259 y156.750143
g1 x217.715661 y156.723473
g1 x217.546395 y156.636432
g1 x216.605278 y155.77755
g1 x216.575693 y155.750801
g1 x216.568253 y155.711682
g1 x216.5859 y155.676037
g1 x216.621645 y155.65829
g1 x216.660764 y155.66573
g1 x216.68745 y155.695168
g1 x216.774563 y155.8646
g0 z5
(Block-name: path106-6)
(Block-expand: 0)
(Block-enable: 0)

(End cutting path id: path106-6)


(Start cutting path id: path106-6)
(Change tool to Default tool)

G0 Z5
G0 X210.973279 Y153.563316

G1 Z-0.125 F100
G3 X209.222479 Y153.095116 Z-0.125 I-0.0019 J-3.5 F400
G3 X207.940679 Y151.813916 Z-0.125 I1.7489 J-3.0317
G3 X207.471379 Y150.063316 Z-0.125 I3.0308 J-1.7506
G3 X207.940679 Y148.312816 Z-0.125 I3.5 J-0
G3 X209.222479 Y147.031616 Z-0.125 I3.0308 J1.7506
G3 X210.973279 Y146.563416 Z-0.125 I1.7489 J3.0317
G3 X212.723879 Y147.031816 Z-0.125 I0.0014 J3.5
G3 X214.005579 Y148.313016 Z-0.125 I-1.7492 J3.0315
G3 X214.474679 Y150.063316 Z-0.125 I-3.0309 J1.7504
G3 X214.005579 Y151.813716 Z-0.125 I-3.5 J-0
G3 X212.723879 Y153.094916 Z-0.125 I-3.0309 J-1.7504
G3 X210.973279 Y153.563316 Z-0.125 I-1.7492 J-3.0315
G1 X210.973279 Y153.563316 Z-0.125
G0 Z5
(Block-name: path106-6 [in,cut])
(Block-expand: 0)
(Block-enable: 1)
g0 x210.972417 y151.975816
g1 z-0.5 f100
g1 x210.015619 y151.719949 f250
g1 x209.315408 y151.020017
g1 x209.058879 y150.063231
g1 x209.315279 y149.10694
g1 x210.015846 y148.406652
g1 x210.972284 y148.150916
g1 x211.930564 y148.406882
g1 x212.63087 y149.10695
g1 x212.887179 y150.0633
g1 x212.630833 y151.019846
g1 x211.930492 y151.719891
g1 x210.972417 y151.975816
g1 z-1 f100
g1 x210.015619 y151.719949 f250
g1 x209.315408 y151.020017
g1 x209.058879 y150.063231
g1 x209.315279 y149.10694
g1 x210.015846 y148.406652
g1 x210.972284 y148.150916
g1 x211.930564 y148.406882
g1 x212.63087 y149.10695
g1 x212.887179 y150.0633
g1 x212.630833 y151.019846
g1 x211.930492 y151.719891
g1 x210.972417 y151.975816
g1 z-1.5 f100
g1 x210.015619 y151.719949 f250
g1 x209.315408 y151.020017
g1 x209.058879 y150.063231
g1 x209.315279 y149.10694
g1 x210.015846 y148.406652
g1 x210.972284 y148.150916
g1 x211.930564 y148.406882
g1 x212.63087 y149.10695
g1 x212.887179 y150.0633
g1 x212.630833 y151.019846
g1 x211.930492 y151.719891
g1 x210.972417 y151.975816
g1 z-2 f100
g1 x210.015619 y151.719949 f250
g1 x209.315408 y151.020017
g1 x209.058879 y150.063231
g1 x209.315279 y149.10694
g1 x210.015846 y148.406652
g1 x210.972284 y148.150916
g1 x211.930564 y148.406882
g1 x212.63087 y149.10695
g1 x212.887179 y150.0633
g1 x212.630833 y151.019846
g1 x211.930492 y151.719891
g1 x210.972417 y151.975816
g1 z-2.5 f100
g1 x210.015619 y151.719949 f250
g1 x209.315408 y151.020017
g1 x209.058879 y150.063231
g1 x209.315279 y149.10694
g1 x210.015846 y148.406652
g1 x210.972284 y148.150916
g1 x211.930564 y148.406882
g1 x212.63087 y149.10695
g1 x212.887179 y150.0633
g1 x212.630833 y151.019846
g1 x211.930492 y151.719891
g1 x210.972417 y151.975816
g1 z-3 f100
g1 x210.015619 y151.719949 f250
g1 x209.315408 y151.020017
g1 x209.058879 y150.063231
g1 x209.315279 y149.10694
g1 x210.015846 y148.406652
g1 x210.972284 y148.150916
g1 x211.930564 y148.406882
g1 x212.63087 y149.10695
g1 x212.887179 y150.0633
g1 x212.630833 y151.019846
g1 x211.930492 y151.719891
g1 x210.972417 y151.975816
g1 z-3.5 f100
g1 x210.015619 y151.719949 f250
g1 x209.315408 y151.020017
g1 x209.058879 y150.063231
g1 x209.315279 y149.10694
g1 x210.015846 y148.406652
g1 x210.972284 y148.150916
g1 x211.930564 y148.406882
g1 x212.63087 y149.10695
g1 x212.887179 y150.0633
g1 x212.630833 y151.019846
g1 x211.930492 y151.719891
g1 x210.972417 y151.975816
g1 z-4 f100
g1 x210.015619 y151.719949 f250
g1 x209.315408 y151.020017
g1 x209.058879 y150.063231
g1 x209.315279 y149.10694
g1 x210.015846 y148.406652
g1 x210.972284 y148.150916
g1 x211.930564 y148.406882
g1 x212.63087 y149.10695
g1 x212.887179 y150.0633
g1 x212.630833 y151.019846
g1 x211.930492 y151.719891
g1 x210.972417 y151.975816
g0 z5
(Block-name: path92-8)
(Block-expand: 0)
(Block-enable: 0)

(End cutting path id: path92-8)


(Start cutting path id: path92-8)
(Change tool to Default tool)

G0 Z5
G0 X203.895479 Y155.101116

G1 Z-0.125 F100
G3 X203.790579 Y155.255016 Z-0.125 I-0.4584 J-0.1997 F400
G3 X203.636779 Y155.359816 Z-0.125 I-0.3535 J-0.3536
G2 X202.904179 Y156.022216 Z-0.125 I0.6191 J1.421
G2 X202.720379 Y156.992516 Z-0.125 I1.3516 J0.7587
G2 X203.159779 Y157.876916 Z-0.125 I1.5355 J-0.2116
G2 X204.044179 Y158.316316 Z-0.125 I1.096 J-1.096
G2 X205.014479 Y158.132516 Z-0.125 I0.2116 J-1.5355
G2 X205.676779 Y157.399916 Z-0.125 I-0.7587 J-1.3516
G3 X205.781679 Y157.246016 Z-0.125 I0.4584 J0.1997
G3 X205.935479 Y157.141216 Z-0.125 I0.3536 J0.3535
G2 X206.668079 Y156.478916 Z-0.125 I-0.619 J-1.421
G2 X206.851979 Y155.508616 Z-0.125 I-1.3516 J-0.7587
G2 X206.412479 Y154.624216 Z-0.125 I-1.5355 J0.2116
G2 X205.528079 Y154.184716 Z-0.125 I-1.096 J1.096
G2 X204.557779 Y154.368616 Z-0.125 I-0.2116 J1.5355
G2 X203.895479 Y155.101116 Z-0.125 I0.7587 J1.3516
G1 X203.895479 Y155.101116 Z-0.125
G0 Z5
(Block-name: path92-8 [in,cut])
(Block-expand: 0)
(Block-enable: 1)
g0 x205.259145 y155.695315
g1 z-0.5 f100
g1 x205.172151 y155.864507 f250
g1 x205.341427 y155.777487
g1 x205.370986 y155.750764
g1 x205.378394 y155.711603
g1 x205.360725 y155.676104
g1 x205.324919 y155.658277
g1 x205.285964 y155.665691
g1 x205.259145 y155.695315
g1 z-1 f100
g1 x205.172151 y155.864507 f250
g1 x205.341427 y155.777487
g1 x205.370986 y155.750764
g1 x205.378394 y155.711603
g1 x205.360725 y155.676104
g1 x205.324919 y155.658277
g1 x205.285964 y155.665691
g1 x205.259145 y155.695315
g1 z-1.5 f100
g1 x205.172151 y155.864507 f250
g1 x205.341427 y155.777487
g1 x205.370986 y155.750764
g1 x205.378394 y155.711603
g1 x205.360725 y155.676104
g1 x205.324919 y155.658277
g1 x205.285964 y155.665691
g1 x205.259145 y155.695315
g1 z-2 f100
g1 x205.172151 y155.864507 f250
g1 x205.341427 y155.777487
g1 x205.370986 y155.750764
g1 x205.378394 y155.711603
g1 x205.360725 y155.676104
g1 x205.324919 y155.658277
g1 x205.285964 y155.665691
g1 x205.259145 y155.695315
g1 z-2.5 f100
g1 x205.172151 y155.864507 f250
g1 x205.341427 y155.777487
g1 x205.370986 y155.750764
g1 x205.378394 y155.711603
g1 x205.360725 y155.676104
g1 x205.324919 y155.658277
g1 x205.285964 y155.665691
g1 x205.259145 y155.695315
g1 z-3 f100
g1 x205.172151 y155.864507 f250
g1 x205.341427 y155.777487
g1 x205.370986 y155.750764
g1 x205.378394 y155.711603
g1 x205.360725 y155.676104
g1 x205.324919 y155.658277
g1 x205.285964 y155.665691
g1 x205.259145 y155.695315
g1 z-3.5 f100
g1 x205.172151 y155.864507 f250
g1 x205.341427 y155.777487
g1 x205.370986 y155.750764
g1 x205.378394 y155.711603
g1 x205.360725 y155.676104
g1 x205.324919 y155.658277
g1 x205.285964 y155.665691
g1 x205.259145 y155.695315
g1 z-4 f100
g1 x205.172151 y155.864507 f250
g1 x205.341427 y155.777487
g1 x205.370986 y155.750764
g1 x205.378394 y155.711603
g1 x205.360725 y155.676104
g1 x205.324919 y155.658277
g1 x205.285964 y155.665691
g1 x205.259145 y155.695315
g0 z5
g0 x204.400107 y156.636525
g1 z-0.5 f100
g1 x204.230912 y156.72351 f250
g1 x204.201338 y156.75025
g1 x204.193923 y156.789236
g1 x204.211724 y156.825218
g1 x204.247072 y156.842718
g1 x204.286552 y156.835296
g1 x204.313033 y156.805903
g1 x204.400107 y156.636525
g1 z-1 f100
g1 x204.230912 y156.72351 f250
g1 x204.201338 y156.75025
g1 x204.193923 y156.789236
g1 x204.211724 y156.825218
g1 x204.247072 y156.842718
g1 x204.286552 y156.835296
g1 x204.313033 y156.805903
g1 x204.400107 y156.636525
g1 z-1.5 f100
g1 x204.230912 y156.72351 f250
g1 x204.201338 y156.75025
g1 x204.193923 y156.789236
g1 x204.211724 y156.825218
g1 x204.247072 y156.842718
g1 x204.286552 y156.835296
g1 x204.313033 y156.805903
g1 x204.400107 y156.636525
g1 z-2 f100
g1 x204.230912 y156.72351 f250
g1 x204.201338 y156.75025
g1 x204.193923 y156.789236
g1 x204.211724 y156.825218
g1 x204.247072 y156.842718
g1 x204.286552 y156.835296
g1 x204.313033 y156.805903
g1 x204.400107 y156.636525
g1 z-2.5 f100
g1 x204.230912 y156.72351 f250
g1 x204.201338 y156.75025
g1 x204.193923 y156.789236
g1 x204.211724 y156.825218
g1 x204.247072 y156.842718
g1 x204.286552 y156.835296
g1 x204.313033 y156.805903
g1 x204.400107 y156.636525
g1 z-3 f100
g1 x204.230912 y156.72351 f250
g1 x204.201338 y156.75025
g1 x204.193923 y156.789236
g1 x204.211724 y156.825218
g1 x204.247072 y156.842718
g1 x204.286552 y156.835296
g1 x204.313033 y156.805903
g1 x204.400107 y156.636525
g1 z-3.5 f100
g1 x204.230912 y156.72351 f250
g1 x204.201338 y156.75025
g1 x204.193923 y156.789236
g1 x204.211724 y156.825218
g1 x204.247072 y156.842718
g1 x204.286552 y156.835296
g1 x204.313033 y156.805903
g1 x204.400107 y156.636525
g1 z-4 f100
g1 x204.230912 y156.72351 f250
g1 x204.201338 y156.75025
g1 x204.193923 y156.789236
g1 x204.211724 y156.825218
g1 x204.247072 y156.842718
g1 x204.286552 y156.835296
g1 x204.313033 y156.805903
g1 x204.400107 y156.636525
g0 z5
(Block-name: path94-4)
(Block-expand: 0)
(Block-enable: 0)

(End cutting path id: path94-4)


(Start cutting path id: path94-4)
(Change tool to Default tool)

G0 Z5
G0 X205.935479 Y142.985516

G1 Z-0.125 F100
G3 X205.781679 Y142.880616 Z-0.125 I0.1997 J-0.4584 F400
G3 X205.676779 Y142.726816 Z-0.125 I0.3536 J-0.3535
G2 X205.014479 Y141.994216 Z-0.125 I-1.421 J0.6191
G2 X204.044179 Y141.810416 Z-0.125 I-0.7587 J1.3516
G2 X203.159779 Y142.249816 Z-0.125 I0.2116 J1.5355
G2 X202.720379 Y143.134216 Z-0.125 I1.096 J1.096
G2 X202.904179 Y144.104516 Z-0.125 I1.5355 J0.2116
G2 X203.636779 Y144.766916 Z-0.125 I1.3516 J-0.7587
G3 X203.790579 Y144.871716 Z-0.125 I-0.1997 J0.4584
G3 X203.895479 Y145.025516 Z-0.125 I-0.3535 J0.3536
G2 X204.557779 Y145.758116 Z-0.125 I1.421 J-0.619
G2 X205.528079 Y145.942016 Z-0.125 I0.7587 J-1.3516
G2 X206.412479 Y145.502516 Z-0.125 I-0.2116 J-1.5355
G2 X206.851979 Y144.618116 Z-0.125 I-1.096 J-1.096
G2 X206.668079 Y143.647816 Z-0.125 I-1.5355 J-0.2116
G2 X205.935479 Y142.985516 Z-0.125 I-1.3516 J0.7587
G1 X205.935479 Y142.985516 Z-0.125
G0 Z5
(Block-name: path94-4 [in,cut])
(Block-expand: 0)
(Block-enable: 1)
g0 x205.341466 y144.349262
g1 z-0.5 f100
g1 x205.172244 y144.262281 f250
g1 x205.259208 y144.431464
g1 x205.285931 y144.461023
g1 x205.325092 y144.468431
g1 x205.360591 y144.450762
g1 x205.378418 y144.414956
g1 x205.371004 y144.376001
g1 x205.341466 y144.349262
g1 z-1 f100
g1 x205.172244 y144.262281 f250
g1 x205.259208 y144.431464
g1 x205.285931 y144.461023
g1 x205.325092 y144.468431
g1 x205.360591 y144.450762
g1 x205.378418 y144.414956
g1 x205.371004 y144.376001
g1 x205.341466 y144.349262
g1 z-1.5 f100
g1 x205.172244 y144.262281 f250
g1 x205.259208 y144.431464
g1 x205.285931 y144.461023
g1 x205.325092 y144.468431
g1 x205.360591 y144.450762
g1 x205.378418 y144.414956
g1 x205.371004 y144.376001
g1 x205.341466 y144.349262
g1 z-2 f100
g1 x205.172244 y144.262281 f250
g1 x205.259208 y144.431464
g1 x205.285931 y144.461023
g1 x205.325092 y144.468431
g1 x205.360591 y144.450762
g1 x205.378418 y144.414956
g1 x205.371004 y144.376001
g1 x205.341466 y144.349262
g1 z-2.5 f100
g1 x205.172244 y144.262281 f250
g1 x205.259208 y144.431464
g1 x205.285931 y144.461023
g1 x205.325092 y144.468431
g1 x205.360591 y144.450762
g1 x205.378418 y144.414956
g1 x205.371004 y144.376001
g1 x205.341466 y144.349262
g1 z-3 f100
g1 x205.172244 y144.262281 f250
g1 x205.259208 y144.431464
g1 x205.285931 y144.461023
g1 x205.325092 y144.468431
g1 x205.360591 y144.450762
g1 x205.378418 y144.414956
g1 x205.371004 y144.376001
g1 x205.341466 y144.349262
g1 z-3.5 f100
g1 x205.172244 y144.262281 f250
g1 x205.259208 y144.431464
g1 x205.285931 y144.461023
g1 x205.325092 y144.468431
g1 x205.360591 y144.450762
g1 x205.378418 y144.414956
g1 x205.371004 y144.376001
g1 x205.341466 y144.349262
g1 z-4 f100
g1 x205.172244 y144.262281 f250
g1 x205.259208 y144.431464
g1 x205.285931 y144.461023
g1 x205.325092 y144.468431
g1 x205.360591 y144.450762
g1 x205.378418 y144.414956
g1 x205.371004 y144.376001
g1 x205.341466 y144.349262
g0 z5
g0 x204.400107 y143.490207
g1 z-0.5 f100
g1 x204.313085 y143.320949 f250
g1 x204.28625 y143.291266
g1 x204.247459 y143.28396
g1 x204.211477 y143.301761
g1 x204.193977 y143.337109
g1 x204.201399 y143.376589
g1 x204.230997 y143.403259
g1 x204.400107 y143.490207
g1 z-1 f100
g1 x204.313085 y143.320949 f250
g1 x204.28625 y143.291266
g1 x204.247459 y143.28396
g1 x204.211477 y143.301761
g1 x204.193977 y143.337109
g1 x204.201399 y143.376589
g1 x204.230997 y143.403259
g1 x204.400107 y143.490207
g1 z-1.5 f100
g1 x204.313085 y143.320949 f250
g1 x204.28625 y143.291266
g1 x204.247459 y143.28396
g1 x204.211477 y143.301761
g1 x204.193977 y143.337109
g1 x204.201399 y143.376589
g1 x204.230997 y143.403259
g1 x204.400107 y143.490207
g1 z-2 f100
g1 x204.313085 y143.320949 f250
g1 x204.28625 y143.291266
g1 x204.247459 y143.28396
g1 x204.211477 y143.301761
g1 x204.193977 y143.337109
g1 x204.201399 y143.376589
g1 x204.230997 y143.403259
g1 x204.400107 y143.490207
g1 z-2.5 f100
g1 x204.313085 y143.320949 f250
g1 x204.28625 y143.291266
g1 x204.247459 y143.28396
g1 x204.211477 y143.301761
g1 x204.193977 y143.337109
g1 x204.201399 y143.376589
g1 x204.230997 y143.403259
g1 x204.400107 y143.490207
g1 z-3 f100
g1 x204.313085 y143.320949 f250
g1 x204.28625 y143.291266
g1 x204.247459 y143.28396
g1 x204.211477 y143.301761
g1 x204.193977 y143.337109
g1 x204.201399 y143.376589
g1 x204.230997 y143.403259
g1 x204.400107 y143.490207
g1 z-3.5 f100
g1 x204.313085 y143.320949 f250
g1 x204.28625 y143.291266
g1 x204.247459 y143.28396
g1 x204.211477 y143.301761
g1 x204.193977 y143.337109
g1 x204.201399 y143.376589
g1 x204.230997 y143.403259
g1 x204.400107 y143.490207
g1 z-4 f100
g1 x204.313085 y143.320949 f250
g1 x204.28625 y143.291266
g1 x204.247459 y143.28396
g1 x204.211477 y143.301761
g1 x204.193977 y143.337109
g1 x204.201399 y143.376589
g1 x204.230997 y143.403259
g1 x204.400107 y143.490207
g0 z5
(Block-name: path104-3)
(Block-expand: 0)
(Block-enable: 0)

(End cutting path id: path104-3)


(Start cutting path id: path104-3)
(Change tool to Default tool)

G0 Z5
G0 X216.269779 Y142.726816

G1 Z-0.125 F100
G3 X216.164979 Y142.880616 Z-0.125 I-0.4584 J-0.1997 F400
G3 X216.011079 Y142.985516 Z-0.125 I-0.3536 J-0.3535
G2 X215.278579 Y143.647816 Z-0.125 I0.619 J1.421
G2 X215.094679 Y144.618116 Z-0.125 I1.3516 J0.7587
G2 X215.534079 Y145.502516 Z-0.125 I1.5355 J-0.2116
G2 X216.418579 Y145.942016 Z-0.125 I1.096 J-1.096
G2 X217.388879 Y145.758116 Z-0.125 I0.2116 J-1.5355
G2 X218.051179 Y145.025516 Z-0.125 I-0.7587 J-1.3516
G3 X218.155979 Y144.871716 Z-0.125 I0.4584 J0.1997
G3 X218.309879 Y144.766916 Z-0.125 I0.3535 J0.3536
G2 X219.042479 Y144.104516 Z-0.125 I-0.6191 J-1.421
G2 X219.226279 Y143.134216 Z-0.125 I-1.3516 J-0.7587
G2 X218.786779 Y142.249816 Z-0.125 I-1.5355 J0.2116
G2 X217.902379 Y141.810416 Z-0.125 I-1.096 J1.096
G2 X216.932079 Y141.994216 Z-0.125 I-0.2116 J1.5355
G2 X216.269779 Y142.726816 Z-0.125 I0.7587 J1.3516
G1 X216.269779 Y142.726816 Z-0.125
G0 Z5
(Block-name: path104-3 [in,cut])
(Block-expand: 0)
(Block-enable: 1)
g0 x217.633525 y143.320829
g1 z-0.5 f100
g1 x217.546395 y143.4903 f250
g1 x217.715746 y143.403222
g1 x217.74532 y143.376482
g1 x217.752735 y143.337496
g1 x217.735025 y143.301704
g1 x217.699486 y143.284014
g1 x217.660006 y143.291436
g1 x217.633525 y143.320829
g1 z-1 f100
g1 x217.546395 y143.4903 f250
g1 x217.715746 y143.403222
g1 x217.74532 y143.376482
g1 x217.752735 y143.337496
g1 x217.735025 y143.301704
g1 x217.699486 y143.284014
g1 x217.660006 y143.291436
g1 x217.633525 y143.320829
g1 z-1.5 f100
g1 x217.546395 y143.4903 f250
g1 x217.715746 y143.403222
g1 x217.74532 y143.376482
g1 x217.752735 y143.337496
g1 x217.735025 y143.301704
g1 x217.699486 y143.284014
g1 x217.660006 y143.291436
g1 x217.633525 y143.320829
g1 z-2 f100
g1 x217.546395 y143.4903 f250
g1 x217.715746 y143.403222
g1 x217.74532 y143.376482
g1 x217.752735 y143.337496
g1 x217.735025 y143.301704
g1 x217.699486 y143.284014
g1 x217.660006 y143.291436
g1 x217.633525 y143.320829
g1 z-2.5 f100
g1 x217.546395 y143.4903 f250
g1 x217.715746 y143.403222
g1 x217.74532 y143.376482
g1 x217.752735 y143.337496
g1 x217.735025 y143.301704
g1 x217.699486 y143.284014
g1 x217.660006 y143.291436
g1 x217.633525 y143.320829
g1 z-3 f100
g1 x217.546395 y143.4903 f250
g1 x217.715746 y143.403222
g1 x217.74532 y143.376482
g1 x217.752735 y143.337496
g1 x217.735025 y143.301704
g1 x217.699486 y143.284014
g1 x217.660006 y143.291436
g1 x217.633525 y143.320829
g1 z-3.5 f100
g1 x217.546395 y143.4903 f250
g1 x217.715746 y143.403222
g1 x217.74532 y143.376482
g1 x217.752735 y143.337496
g1 x217.735025 y143.301704
g1 x217.699486 y143.284014
g1 x217.660006 y143.291436
g1 x217.633525 y143.320829
g1 z-4 f100
g1 x217.546395 y143.4903 f250
g1 x217.715746 y143.403222
g1 x217.74532 y143.376482
g1 x217.752735 y143.337496
g1 x217.735025 y143.301704
g1 x217.699486 y143.284014
g1 x217.660006 y143.291436
g1 x217.633525 y143.320829
g0 z5
g0 x216.77447 y144.262188
g1 z-0.5 f100
g1 x216.605131 y144.349245 f250
g1 x216.575771 y144.375792
g1 x216.568264 y144.415129
g1 x216.586024 y144.450818
g1 x216.621606 y144.468437
g1 x216.660694 y144.461041
g1 x216.687433 y144.431503
g1 x216.77447 y144.262188
g1 z-1 f100
g1 x216.605131 y144.349245 f250
g1 x216.575771 y144.375792
g1 x216.568264 y144.415129
g1 x216.586024 y144.450818
g1 x216.621606 y144.468437
g1 x216.660694 y144.461041
g1 x216.687433 y144.431503
g1 x216.77447 y144.262188
g1 z-1.5 f100
g1 x216.605131 y144.349245 f250
g1 x216.575771 y144.375792
g1 x216.568264 y144.415129
g1 x216.586024 y144.450818
g1 x216.621606 y144.468437
g1 x216.660694 y144.461041
g1 x216.687433 y144.431503
g1 x216.77447 y144.262188
g1 z-2 f100
g1 x216.605131 y144.349245 f250
g1 x216.575771 y144.375792
g1 x216.568264 y144.415129
g1 x216.586024 y144.450818
g1 x216.621606 y144.468437
g1 x216.660694 y144.461041
g1 x216.687433 y144.431503
g1 x216.77447 y144.262188
g1 z-2.5 f100
g1 x216.605131 y144.349245 f250
g1 x216.575771 y144.375792
g1 x216.568264 y144.415129
g1 x216.586024 y144.450818
g1 x216.621606 y144.468437
g1 x216.660694 y144.461041
g1 x216.687433 y144.431503
g1 x216.77447 y144.262188
g1 z-3 f100
g1 x216.605131 y144.349245 f250
g1 x216.575771 y144.375792
g1 x216.568264 y144.415129
g1 x216.586024 y144.450818
g1 x216.621606 y144.468437
g1 x216.660694 y144.461041
g1 x216.687433 y144.431503
g1 x216.77447 y144.262188
g1 z-3.5 f100
g1 x216.605131 y144.349245 f250
g1 x216.575771 y144.375792
g1 x216.568264 y144.415129
g1 x216.586024 y144.450818
g1 x216.621606 y144.468437
g1 x216.660694 y144.461041
g1 x216.687433 y144.431503
g1 x216.77447 y144.262188
g1 z-4 f100
g1 x216.605131 y144.349245 f250
g1 x216.575771 y144.375792
g1 x216.568264 y144.415129
g1 x216.586024 y144.450818
g1 x216.621606 y144.468437
g1 x216.660694 y144.461041
g1 x216.687433 y144.431503
g1 x216.77447 y144.262188
g0 z5
(Block-name: path76-9)
(Block-expand: 0)
(Block-enable: 0)

(End cutting path id: path76-9)


(Start cutting path id: path76-9)
(Change tool to Default tool)

G0 Z5
G0 X163.173579 Y145.025516

G1 Z-0.125 F100
G3 X162.511279 Y145.758116 Z-0.125 I-1.421 J-0.6191 F400
G3 X161.540979 Y145.942016 Z-0.125 I-0.7587 J-1.3516
G3 X160.656579 Y145.502516 Z-0.125 I0.2116 J-1.5355
G3 X160.217079 Y144.618116 Z-0.125 I1.096 J-1.096
G3 X160.400879 Y143.647816 Z-0.125 I1.5355 J-0.2116
G3 X161.133479 Y142.985516 Z-0.125 I1.3516 J0.7587
G2 X161.287379 Y142.880716 Z-0.125 I-0.1997 J-0.4584
G2 X161.392179 Y142.726816 Z-0.125 I-0.3535 J-0.3536
G3 X162.054479 Y141.994216 Z-0.125 I1.421 J0.6191
G3 X163.024779 Y141.810416 Z-0.125 I0.7587 J1.3516
G3 X163.909179 Y142.249816 Z-0.125 I-0.2116 J1.5355
G3 X164.348679 Y143.134216 Z-0.125 I-1.096 J1.096
G3 X164.164779 Y144.104516 Z-0.125 I-1.5355 J0.2116
G3 X163.432279 Y144.766916 Z-0.125 I-1.3516 J-0.7587
G2 X163.278379 Y144.871716 Z-0.125 I0.1997 J0.4584
G2 X163.173579 Y145.025516 Z-0.125 I0.3535 J0.3536
G1 X163.173579 Y145.025516 Z-0.125
G0 Z5
(Block-name: path76-9 [in,cut])
(Block-expand: 0)
(Block-enable: 1)
g0 x161.89687 y144.262188
g1 z-0.5 f100
g1 x161.809885 y144.431383 f250
g1 x161.78305 y144.461066
g1 x161.743966 y144.468431
g1 x161.708467 y144.450762
g1 x161.69064 y144.414956
g1 x161.698099 y144.375743
g1 x161.727492 y144.349262
g1 x161.89687 y144.262188
g1 x162.837876 y143.40334
g1 x162.867665 y143.376401
g1 x162.875105 y143.337282
g1 x162.857358 y143.301637
g1 x162.821713 y143.28399
g1 x162.782594 y143.29133
g1 x162.755873 y143.320949
g1 x162.668795 y143.4903
g0 z5
g0 x161.89687 y144.262188
g1 z-1 f100
g1 x161.809885 y144.431383 f250
g1 x161.78305 y144.461066
g1 x161.743966 y144.468431
g1 x161.708467 y144.450762
g1 x161.69064 y144.414956
g1 x161.698099 y144.375743
g1 x161.727492 y144.349262
g1 x161.89687 y144.262188
g1 x162.837876 y143.40334
g1 x162.867665 y143.376401
g1 x162.875105 y143.337282
g1 x162.857358 y143.301637
g1 x162.821713 y143.28399
g1 x162.782594 y143.29133
g1 x162.755873 y143.320949
g1 x162.668795 y143.4903
g0 z5
g0 x161.89687 y144.262188
g1 z-1.5 f100
g1 x161.809885 y144.431383 f250
g1 x161.78305 y144.461066
g1 x161.743966 y144.468431
g1 x161.708467 y144.450762
g1 x161.69064 y144.414956
g1 x161.698099 y144.375743
g1 x161.727492 y144.349262
g1 x161.89687 y144.262188
g1 x162.837876 y143.40334
g1 x162.867665 y143.376401
g1 x162.875105 y143.337282
g1 x162.857358 y143.301637
g1 x162.821713 y143.28399
g1 x162.782594 y143.29133
g1 x162.755873 y143.320949
g1 x162.668795 y143.4903
g0 z5
g0 x161.89687 y144.262188
g1 z-2 f100
g1 x161.809885 y144.431383 f250
g1 x161.78305 y144.461066
g1 x161.743966 y144.468431
g1 x161.708467 y144.450762
g1 x161.69064 y144.414956
g1 x161.698099 y144.375743
g1 x161.727492 y144.349262
g1 x161.89687 y144.262188
g1 x162.837876 y143.40334
g1 x162.867665 y143.376401
g1 x162.875105 y143.337282
g1 x162.857358 y143.301637
g1 x162.821713 y143.28399
g1 x162.782594 y143.29133
g1 x162.755873 y143.320949
g1 x162.668795 y143.4903
g0 z5
g0 x161.89687 y144.262188
g1 z-2.5 f100
g1 x161.809885 y144.431383 f250
g1 x161.78305 y144.461066
g1 x161.743966 y144.468431
g1 x161.708467 y144.450762
g1 x161.69064 y144.414956
g1 x161.698099 y144.375743
g1 x161.727492 y144.349262
g1 x161.89687 y144.262188
g1 x162.837876 y143.40334
g1 x162.867665 y143.376401
g1 x162.875105 y143.337282
g1 x162.857358 y143.301637
g1 x162.821713 y143.28399
g1 x162.782594 y143.29133
g1 x162.755873 y143.320949
g1 x162.668795 y143.4903
g0 z5
g0 x161.89687 y144.262188
g1 z-3 f100
g1 x161.809885 y144.431383 f250
g1 x161.78305 y144.461066
g1 x161.743966 y144.468431
g1 x161.708467 y144.450762
g1 x161.69064 y144.414956
g1 x161.698099 y144.375743
g1 x161.727492 y144.349262
g1 x161.89687 y144.262188
g1 x162.837876 y143.40334
g1 x162.867665 y143.376401
g1 x162.875105 y143.337282
g1 x162.857358 y143.301637
g1 x162.821713 y143.28399
g1 x162.782594 y143.29133
g1 x162.755873 y143.320949
g1 x162.668795 y143.4903
g0 z5
g0 x161.89687 y144.262188
g1 z-3.5 f100
g1 x161.809885 y144.431383 f250
g1 x161.78305 y144.461066
g1 x161.743966 y144.468431
g1 x161.708467 y144.450762
g1 x161.69064 y144.414956
g1 x161.698099 y144.375743
g1 x161.727492 y144.349262
g1 x161.89687 y144.262188
g1 x162.837876 y143.40334
g1 x162.867665 y143.376401
g1 x162.875105 y143.337282
g1 x162.857358 y143.301637
g1 x162.821713 y143.28399
g1 x162.782594 y143.29133
g1 x162.755873 y143.320949
g1 x162.668795 y143.4903
g0 z5
g0 x161.89687 y144.262188
g1 z-4 f100
g1 x161.809885 y144.431383 f250
g1 x161.78305 y144.461066
g1 x161.743966 y144.468431
g1 x161.708467 y144.450762
g1 x161.69064 y144.414956
g1 x161.698099 y144.375743
g1 x161.727492 y144.349262
g1 x161.89687 y144.262188
g1 x162.837876 y143.40334
g1 x162.867665 y143.376401
g1 x162.875105 y143.337282
g1 x162.857358 y143.301637
g1 x162.821713 y143.28399
g1 x162.782594 y143.29133
g1 x162.755873 y143.320949
g1 x162.668795 y143.4903
g0 z5
(Block-name: path74-2)
(Block-expand: 0)
(Block-enable: 0)

(End cutting path id: path74-2)


(Start cutting path id: path74-2)
(Change tool to Default tool)

G0 Z5
G0 X163.173579 Y155.101116

G1 Z-0.125 F100
G2 X163.278379 Y155.255016 Z-0.125 I0.4584 J-0.1997 F400
G2 X163.432279 Y155.359816 Z-0.125 I0.3535 J-0.3536
G3 X164.164779 Y156.022216 Z-0.125 I-0.6191 J1.421
G3 X164.348679 Y156.992516 Z-0.125 I-1.3516 J0.7587
G3 X163.909179 Y157.876916 Z-0.125 I-1.5355 J-0.2116
G3 X163.024779 Y158.316316 Z-0.125 I-1.096 J-1.096
G3 X162.054479 Y158.132516 Z-0.125 I-0.2116 J-1.5355
G3 X161.392179 Y157.399916 Z-0.125 I0.7587 J-1.3516
G2 X161.287379 Y157.246016 Z-0.125 I-0.4584 J0.1997
G2 X161.133479 Y157.141216 Z-0.125 I-0.3535 J0.3536
G3 X160.400879 Y156.478916 Z-0.125 I0.6191 J-1.421
G3 X160.217079 Y155.508616 Z-0.125 I1.3516 J-0.7587
G3 X160.656579 Y154.624216 Z-0.125 I1.5355 J0.2116
G3 X161.540979 Y154.184716 Z-0.125 I1.096 J1.096
G3 X162.511279 Y154.368616 Z-0.125 I0.2116 J1.5355
G3 X163.173579 Y155.101116 Z-0.125 I-0.7587 J1.3516
G1 X163.173579 Y155.101116 Z-0.125
G0 Z5
(Block-name: path74-2 [in,cut])
(Block-expand: 0)
(Block-enable: 1)
g0 x161.809913 y155.695315
g1 z-0.5 f100
g1 x161.896963 y155.8646 f250
g1 x161.727612 y155.777522
g1 x161.697929 y155.750687
g1 x161.690623 y155.711896
g1 x161.708333 y155.676104
g1 x161.744139 y155.658277
g1 x161.783094 y155.665691
g1 x161.809913 y155.695315
g1 z-1 f100
g1 x161.896963 y155.8646 f250
g1 x161.727612 y155.777522
g1 x161.697929 y155.750687
g1 x161.690623 y155.711896
g1 x161.708333 y155.676104
g1 x161.744139 y155.658277
g1 x161.783094 y155.665691
g1 x161.809913 y155.695315
g1 z-1.5 f100
g1 x161.896963 y155.8646 f250
g1 x161.727612 y155.777522
g1 x161.697929 y155.750687
g1 x161.690623 y155.711896
g1 x161.708333 y155.676104
g1 x161.744139 y155.658277
g1 x161.783094 y155.665691
g1 x161.809913 y155.695315
g1 z-2 f100
g1 x161.896963 y155.8646 f250
g1 x161.727612 y155.777522
g1 x161.697929 y155.750687
g1 x161.690623 y155.711896
g1 x161.708333 y155.676104
g1 x161.744139 y155.658277
g1 x161.783094 y155.665691
g1 x161.809913 y155.695315
g1 z-2.5 f100
g1 x161.896963 y155.8646 f250
g1 x161.727612 y155.777522
g1 x161.697929 y155.750687
g1 x161.690623 y155.711896
g1 x161.708333 y155.676104
g1 x161.744139 y155.658277
g1 x161.783094 y155.665691
g1 x161.809913 y155.695315
g1 z-3 f100
g1 x161.896963 y155.8646 f250
g1 x161.727612 y155.777522
g1 x161.697929 y155.750687
g1 x161.690623 y155.711896
g1 x161.708333 y155.676104
g1 x161.744139 y155.658277
g1 x161.783094 y155.665691
g1 x161.809913 y155.695315
g1 z-3.5 f100
g1 x161.896963 y155.8646 f250
g1 x161.727612 y155.777522
g1 x161.697929 y155.750687
g1 x161.690623 y155.711896
g1 x161.708333 y155.676104
g1 x161.744139 y155.658277
g1 x161.783094 y155.665691
g1 x161.809913 y155.695315
g1 z-4 f100
g1 x161.896963 y155.8646 f250
g1 x161.727612 y155.777522
g1 x161.697929 y155.750687
g1 x161.690623 y155.711896
g1 x161.708333 y155.676104
g1 x161.744139 y155.658277
g1 x161.783094 y155.665691
g1 x161.809913 y155.695315
g0 z5
g0 x162.668795 y156.636432
g1 z-0.5 f100
g1 x162.838146 y156.72351 f250
g1 x162.867521 y156.750074
g1 x162.875094 y156.789529
g1 x162.857425 y156.825028
g1 x162.821886 y156.842718
g1 x162.782406 y156.835296
g1 x162.755925 y156.805903
g1 x162.668795 y156.636432
g1 z-1 f100
g1 x162.838146 y156.72351 f250
g1 x162.867521 y156.750074
g1 x162.875094 y156.789529
g1 x162.857425 y156.825028
g1 x162.821886 y156.842718
g1 x162.782406 y156.835296
g1 x162.755925 y156.805903
g1 x162.668795 y156.636432
g1 z-1.5 f100
g1 x162.838146 y156.72351 f250
g1 x162.867521 y156.750074
g1 x162.875094 y156.789529
g1 x162.857425 y156.825028
g1 x162.821886 y156.842718
g1 x162.782406 y156.835296
g1 x162.755925 y156.805903
g1 x162.668795 y156.636432
g1 z-2 f100
g1 x162.838146 y156.72351 f250
g1 x162.867521 y156.750074
g1 x162.875094 y156.789529
g1 x162.857425 y156.825028
g1 x162.821886 y156.842718
g1 x162.782406 y156.835296
g1 x162.755925 y156.805903
g1 x162.668795 y156.636432
g1 z-2.5 f100
g1 x162.838146 y156.72351 f250
g1 x162.867521 y156.750074
g1 x162.875094 y156.789529
g1 x162.857425 y156.825028
g1 x162.821886 y156.842718
g1 x162.782406 y156.835296
g1 x162.755925 y156.805903
g1 x162.668795 y156.636432
g1 z-3 f100
g1 x162.838146 y156.72351 f250
g1 x162.867521 y156.750074
g1 x162.875094 y156.789529
g1 x162.857425 y156.825028
g1 x162.821886 y156.842718
g1 x162.782406 y156.835296
g1 x162.755925 y156.805903
g1 x162.668795 y156.636432
g1 z-3.5 f100
g1 x162.838146 y156.72351 f250
g1 x162.867521 y156.750074
g1 x162.875094 y156.789529
g1 x162.857425 y156.825028
g1 x162.821886 y156.842718
g1 x162.782406 y156.835296
g1 x162.755925 y156.805903
g1 x162.668795 y156.636432
g1 z-4 f100
g1 x162.838146 y156.72351 f250
g1 x162.867521 y156.750074
g1 x162.875094 y156.789529
g1 x162.857425 y156.825028
g1 x162.821886 y156.842718
g1 x162.782406 y156.835296
g1 x162.755925 y156.805903
g1 x162.668795 y156.636432
g0 z5
(Block-name: path82-9)
(Block-expand: 0)
(Block-enable: 0)

(End cutting path id: path82-9)


(Start cutting path id: path82-9)
(Change tool to Default tool)

G0 Z5
G0 X156.095679 Y153.563316

G1 Z-0.125 F100
G3 X154.344879 Y153.095116 Z-0.125 I-0.0019 J-3.5 F400
G3 X153.062979 Y151.813916 Z-0.125 I1.7489 J-3.0317
G3 X152.593779 Y150.063316 Z-0.125 I3.0308 J-1.7506
G3 X153.062979 Y148.312816 Z-0.125 I3.5 J-0
G3 X154.344879 Y147.031616 Z-0.125 I3.0308 J1.7506
G3 X156.095679 Y146.563416 Z-0.125 I1.7489 J3.0317
G3 X157.846279 Y147.031816 Z-0.125 I0.0014 J3.5
G3 X159.127879 Y148.313016 Z-0.125 I-1.7492 J3.0315
G3 X159.597079 Y150.063316 Z-0.125 I-3.0309 J1.7504
G3 X159.127879 Y151.813716 Z-0.125 I-3.5 J-0
G3 X157.846279 Y153.094916 Z-0.125 I-3.0309 J-1.7504
G3 X156.095679 Y153.563316 Z-0.125 I-1.7492 J-3.0315
G1 X156.095679 Y153.563316 Z-0.125
G0 Z5
(Block-name: path82-9 [in,cut])
(Block-expand: 0)
(Block-enable: 1)
g0 x156.094817 y151.975816
g1 z-0.5 f100
g1 x155.138019 y151.719949 f250
g1 x154.437646 y151.019909
g1 x154.181279 y150.0634
g1 x154.437663 y149.106793
g1 x155.138139 y148.406714
g1 x156.094684 y148.150916
g1 x157.052964 y148.406882
g1 x157.753108 y149.106842
g1 x158.009579 y150.063469
g1 x157.753217 y151.0197
g1 x157.052785 y151.719953
g1 x156.094817 y151.975816
g1 z-1 f100
g1 x155.138019 y151.719949 f250
g1 x154.437646 y151.019909
g1 x154.181279 y150.0634
g1 x154.437663 y149.106793
g1 x155.138139 y148.406714
g1 x156.094684 y148.150916
g1 x157.052964 y148.406882
g1 x157.753108 y149.106842
g1 x158.009579 y150.063469
g1 x157.753217 y151.0197
g1 x157.052785 y151.719953
g1 x156.094817 y151.975816
g1 z-1.5 f100
g1 x155.138019 y151.719949 f250
g1 x154.437646 y151.019909
g1 x154.181279 y150.0634
g1 x154.437663 y149.106793
g1 x155.138139 y148.406714
g1 x156.094684 y148.150916
g1 x157.052964 y148.406882
g1 x157.753108 y149.106842
g1 x158.009579 y150.063469
g1 x157.753217 y151.0197
g1 x157.052785 y151.719953
g1 x156.094817 y151.975816
g1 z-2 f100
g1 x155.138019 y151.719949 f250
g1 x154.437646 y151.019909
g1 x154.181279 y150.0634
g1 x154.437663 y149.106793
g1 x155.138139 y148.406714
g1 x156.094684 y148.150916
g1 x157.052964 y148.406882
g1 x157.753108 y149.106842
g1 x158.009579 y150.063469
g1 x157.753217 y151.0197
g1 x157.052785 y151.719953
g1 x156.094817 y151.975816
g1 z-2.5 f100
g1 x155.138019 y151.719949 f250
g1 x154.437646 y151.019909
g1 x154.181279 y150.0634
g1 x154.437663 y149.106793
g1 x155.138139 y148.406714
g1 x156.094684 y148.150916
g1 x157.052964 y148.406882
g1 x157.753108 y149.106842
g1 x158.009579 y150.063469
g1 x157.753217 y151.0197
g1 x157.052785 y151.719953
g1 x156.094817 y151.975816
g1 z-3 f100
g1 x155.138019 y151.719949 f250
g1 x154.437646 y151.019909
g1 x154.181279 y150.0634
g1 x154.437663 y149.106793
g1 x155.138139 y148.406714
g1 x156.094684 y148.150916
g1 x157.052964 y148.406882
g1 x157.753108 y149.106842
g1 x158.009579 y150.063469
g1 x157.753217 y151.0197
g1 x157.052785 y151.719953
g1 x156.094817 y151.975816
g1 z-3.5 f100
g1 x155.138019 y151.719949 f250
g1 x154.437646 y151.019909
g1 x154.181279 y150.0634
g1 x154.437663 y149.106793
g1 x155.138139 y148.406714
g1 x156.094684 y148.150916
g1 x157.052964 y148.406882
g1 x157.753108 y149.106842
g1 x158.009579 y150.063469
g1 x157.753217 y151.0197
g1 x157.052785 y151.719953
g1 x156.094817 y151.975816
g1 z-4 f100
g1 x155.138019 y151.719949 f250
g1 x154.437646 y151.019909
g1 x154.181279 y150.0634
g1 x154.437663 y149.106793
g1 x155.138139 y148.406714
g1 x156.094684 y148.150916
g1 x157.052964 y148.406882
g1 x157.753108 y149.106842
g1 x158.009579 y150.063469
g1 x157.753217 y151.0197
g1 x157.052785 y151.719953
g1 x156.094817 y151.975816
g0 z5
(Block-name: path84-4)
(Block-expand: 0)
(Block-enable: 0)

(End cutting path id: path84-4)


(Start cutting path id: path84-4)
(Change tool to Default tool)

G0 Z5
G0 X151.057879 Y157.141216

G1 Z-0.125 F100
G2 X150.904079 Y157.246016 Z-0.125 I0.1997 J0.4584 F400
G2 X150.799179 Y157.399916 Z-0.125 I0.3536 J0.3536
G3 X150.136879 Y158.132516 Z-0.125 I-1.421 J-0.619
G3 X149.166579 Y158.316316 Z-0.125 I-0.7587 J-1.3516
G3 X148.282179 Y157.876916 Z-0.125 I0.2116 J-1.5355
G3 X147.842679 Y156.992516 Z-0.125 I1.096 J-1.096
G3 X148.026579 Y156.022216 Z-0.125 I1.5355 J-0.2116
G3 X148.759179 Y155.359816 Z-0.125 I1.3516 J0.7587
G2 X148.912979 Y155.255016 Z-0.125 I-0.1997 J-0.4584
G2 X149.017879 Y155.101116 Z-0.125 I-0.3536 J-0.3536
G3 X149.680179 Y154.368616 Z-0.125 I1.421 J0.619
G3 X150.650479 Y154.184716 Z-0.125 I0.7587 J1.3516
G3 X151.534879 Y154.624216 Z-0.125 I-0.2116 J1.5355
G3 X151.974379 Y155.508616 Z-0.125 I-1.096 J1.096
G3 X151.790479 Y156.478916 Z-0.125 I-1.5355 J0.2116
G3 X151.057879 Y157.141216 Z-0.125 I-1.3516 J-0.7587
G1 X151.057879 Y157.141216 Z-0.125
G0 Z5
(Block-name: path84-4 [in,cut])
(Block-expand: 0)
(Block-enable: 1)
g0 x150.463866 y155.77747
g1 z-0.5 f100
g1 x150.294551 y155.864507 f250
g1 x150.381608 y155.695168
g1 x150.408155 y155.665808
g1 x150.447492 y155.658301
g1 x150.482991 y155.67597
g1 x150.500818 y155.711776
g1 x150.493404 y155.750731
g1 x150.463866 y155.77747
g1 z-1 f100
g1 x150.294551 y155.864507 f250
g1 x150.381608 y155.695168
g1 x150.408155 y155.665808
g1 x150.447492 y155.658301
g1 x150.482991 y155.67597
g1 x150.500818 y155.711776
g1 x150.493404 y155.750731
g1 x150.463866 y155.77747
g1 z-1.5 f100
g1 x150.294551 y155.864507 f250
g1 x150.381608 y155.695168
g1 x150.408155 y155.665808
g1 x150.447492 y155.658301
g1 x150.482991 y155.67597
g1 x150.500818 y155.711776
g1 x150.493404 y155.750731
g1 x150.463866 y155.77747
g1 z-2 f100
g1 x150.294551 y155.864507 f250
g1 x150.381608 y155.695168
g1 x150.408155 y155.665808
g1 x150.447492 y155.658301
g1 x150.482991 y155.67597
g1 x150.500818 y155.711776
g1 x150.493404 y155.750731
g1 x150.463866 y155.77747
g1 z-2.5 f100
g1 x150.294551 y155.864507 f250
g1 x150.381608 y155.695168
g1 x150.408155 y155.665808
g1 x150.447492 y155.658301
g1 x150.482991 y155.67597
g1 x150.500818 y155.711776
g1 x150.493404 y155.750731
g1 x150.463866 y155.77747
g1 z-3 f100
g1 x150.294551 y155.864507 f250
g1 x150.381608 y155.695168
g1 x150.408155 y155.665808
g1 x150.447492 y155.658301
g1 x150.482991 y155.67597
g1 x150.500818 y155.711776
g1 x150.493404 y155.750731
g1 x150.463866 y155.77747
g1 z-3.5 f100
g1 x150.294551 y155.864507 f250
g1 x150.381608 y155.695168
g1 x150.408155 y155.665808
g1 x150.447492 y155.658301
g1 x150.482991 y155.67597
g1 x150.500818 y155.711776
g1 x150.493404 y155.750731
g1 x150.463866 y155.77747
g1 z-4 f100
g1 x150.294551 y155.864507 f250
g1 x150.381608 y155.695168
g1 x150.408155 y155.665808
g1 x150.447492 y155.658301
g1 x150.482991 y155.67597
g1 x150.500818 y155.711776
g1 x150.493404 y155.750731
g1 x150.463866 y155.77747
g0 z5
g0 x149.522507 y156.636525
g1 z-0.5 f100
g1 x149.43545 y156.805864 f250
g1 x149.408727 y156.835423
g1 x149.369859 y156.842772
g1 x149.333877 y156.824971
g1 x149.31624 y156.789356
g1 x149.323654 y156.750401
g1 x149.353397 y156.723473
g1 x149.522507 y156.636525
g1 z-1 f100
g1 x149.43545 y156.805864 f250
g1 x149.408727 y156.835423
g1 x149.369859 y156.842772
g1 x149.333877 y156.824971
g1 x149.31624 y156.789356
g1 x149.323654 y156.750401
g1 x149.353397 y156.723473
g1 x149.522507 y156.636525
g1 z-1.5 f100
g1 x149.43545 y156.805864 f250
g1 x149.408727 y156.835423
g1 x149.369859 y156.842772
g1 x149.333877 y156.824971
g1 x149.31624 y156.789356
g1 x149.323654 y156.750401
g1 x149.353397 y156.723473
g1 x149.522507 y156.636525
g1 z-2 f100
g1 x149.43545 y156.805864 f250
g1 x149.408727 y156.835423
g1 x149.369859 y156.842772
g1 x149.333877 y156.824971
g1 x149.31624 y156.789356
g1 x149.323654 y156.750401
g1 x149.353397 y156.723473
g1 x149.522507 y156.636525
g1 z-2.5 f100
g1 x149.43545 y156.805864 f250
g1 x149.408727 y156.835423
g1 x149.369859 y156.842772
g1 x149.333877 y156.824971
g1 x149.31624 y156.789356
g1 x149.323654 y156.750401
g1 x149.353397 y156.723473
g1 x149.522507 y156.636525
g1 z-3 f100
g1 x149.43545 y156.805864 f250
g1 x149.408727 y156.835423
g1 x149.369859 y156.842772
g1 x149.333877 y156.824971
g1 x149.31624 y156.789356
g1 x149.323654 y156.750401
g1 x149.353397 y156.723473
g1 x149.522507 y156.636525
g1 z-3.5 f100
g1 x149.43545 y156.805864 f250
g1 x149.408727 y156.835423
g1 x149.369859 y156.842772
g1 x149.333877 y156.824971
g1 x149.31624 y156.789356
g1 x149.323654 y156.750401
g1 x149.353397 y156.723473
g1 x149.522507 y156.636525
g1 z-4 f100
g1 x149.43545 y156.805864 f250
g1 x149.408727 y156.835423
g1 x149.369859 y156.842772
g1 x149.333877 y156.824971
g1 x149.31624 y156.789356
g1 x149.323654 y156.750401
g1 x149.353397 y156.723473
g1 x149.522507 y156.636525
g0 z5
(Block-name: path78-3)
(Block-expand: 0)
(Block-enable: 0)

(End cutting path id: path78-3)


(Start cutting path id: path78-3)
(Change tool to Default tool)

G0 Z5
G0 X150.799179 Y142.726816

G1 Z-0.125 F100
G2 X150.904079 Y142.880716 Z-0.125 I0.4584 J-0.1997 F400
G2 X151.057879 Y142.985516 Z-0.125 I0.3536 J-0.3536
G3 X151.790479 Y143.647816 Z-0.125 I-0.6191 J1.421
G3 X151.974379 Y144.618116 Z-0.125 I-1.3516 J0.7587
G3 X151.534879 Y145.502516 Z-0.125 I-1.5355 J-0.2116
G3 X150.650479 Y145.942016 Z-0.125 I-1.096 J-1.096
G3 X149.680179 Y145.758116 Z-0.125 I-0.2116 J-1.5355
G3 X149.017879 Y145.025516 Z-0.125 I0.7587 J-1.3516
G2 X148.912979 Y144.871716 Z-0.125 I-0.4584 J0.1997
G2 X148.759179 Y144.766916 Z-0.125 I-0.3536 J0.3536
G3 X148.026579 Y144.104516 Z-0.125 I0.619 J-1.421
G3 X147.842679 Y143.134216 Z-0.125 I1.3516 J-0.7587
G3 X148.282179 Y142.249816 Z-0.125 I1.5355 J0.2116
G3 X149.166579 Y141.810416 Z-0.125 I1.096 J1.096
G3 X150.136879 Y141.994216 Z-0.125 I0.2116 J1.5355
G3 X150.799179 Y142.726816 Z-0.125 I-0.7587 J1.3516
G1 X150.799179 Y142.726816 Z-0.125
G0 Z5
(Block-name: path78-3 [in,cut])
(Block-expand: 0)
(Block-enable: 1)
g0 x149.435433 y143.320829
g1 z-0.5 f100
g1 x149.522507 y143.490207 f250
g1 x149.353231 y143.403187
g1 x149.323781 y143.376559
g1 x149.316264 y143.337203
g1 x149.333933 y143.301704
g1 x149.369472 y143.284014
g1 x149.408952 y143.291436
g1 x149.435433 y143.320829
g1 z-1 f100
g1 x149.522507 y143.490207 f250
g1 x149.353231 y143.403187
g1 x149.323781 y143.376559
g1 x149.316264 y143.337203
g1 x149.333933 y143.301704
g1 x149.369472 y143.284014
g1 x149.408952 y143.291436
g1 x149.435433 y143.320829
g1 z-1.5 f100
g1 x149.522507 y143.490207 f250
g1 x149.353231 y143.403187
g1 x149.323781 y143.376559
g1 x149.316264 y143.337203
g1 x149.333933 y143.301704
g1 x149.369472 y143.284014
g1 x149.408952 y143.291436
g1 x149.435433 y143.320829
g1 z-2 f100
g1 x149.522507 y143.490207 f250
g1 x149.353231 y143.403187
g1 x149.323781 y143.376559
g1 x149.316264 y143.337203
g1 x149.333933 y143.301704
g1 x149.369472 y143.284014
g1 x149.408952 y143.291436
g1 x149.435433 y143.320829
g1 z-2.5 f100
g1 x149.522507 y143.490207 f250
g1 x149.353231 y143.403187
g1 x149.323781 y143.376559
g1 x149.316264 y143.337203
g1 x149.333933 y143.301704
g1 x149.369472 y143.284014
g1 x149.408952 y143.291436
g1 x149.435433 y143.320829
g1 z-3 f100
g1 x149.522507 y143.490207 f250
g1 x149.353231 y143.403187
g1 x149.323781 y143.376559
g1 x149.316264 y143.337203
g1 x149.333933 y143.301704
g1 x149.369472 y143.284014
g1 x149.408952 y143.291436
g1 x149.435433 y143.320829
g1 z-3.5 f100
g1 x149.522507 y143.490207 f250
g1 x149.353231 y143.403187
g1 x149.323781 y143.376559
g1 x149.316264 y143.337203
g1 x149.333933 y143.301704
g1 x149.369472 y143.284014
g1 x149.408952 y143.291436
g1 x149.435433 y143.320829
g1 z-4 f100
g1 x149.522507 y143.490207 f250
g1 x149.353231 y143.403187
g1 x149.323781 y143.376559
g1 x149.316264 y143.337203
g1 x149.333933 y143.301704
g1 x149.369472 y143.284014
g1 x149.408952 y143.291436
g1 x149.435433 y143.320829
g0 z5
g0 x150.294644 y144.262281
g1 z-0.5 f100
g1 x150.463746 y144.34921 f250
g1 x150.493429 y144.376045
g1 x150.500794 y144.415129
g1 x150.483125 y144.450628
g1 x150.447319 y144.468455
g1 x150.408364 y144.461041
g1 x150.381625 y144.431503
g1 x150.294644 y144.262281
g1 z-1 f100
g1 x150.463746 y144.34921 f250
g1 x150.493429 y144.376045
g1 x150.500794 y144.415129
g1 x150.483125 y144.450628
g1 x150.447319 y144.468455
g1 x150.408364 y144.461041
g1 x150.381625 y144.431503
g1 x150.294644 y144.262281
g1 z-1.5 f100
g1 x150.463746 y144.34921 f250
g1 x150.493429 y144.376045
g1 x150.500794 y144.415129
g1 x150.483125 y144.450628
g1 x150.447319 y144.468455
g1 x150.408364 y144.461041
g1 x150.381625 y144.431503
g1 x150.294644 y144.262281
g1 z-2 f100
g1 x150.463746 y144.34921 f250
g1 x150.493429 y144.376045
g1 x150.500794 y144.415129
g1 x150.483125 y144.450628
g1 x150.447319 y144.468455
g1 x150.408364 y144.461041
g1 x150.381625 y144.431503
g1 x150.294644 y144.262281
g1 z-2.5 f100
g1 x150.463746 y144.34921 f250
g1 x150.493429 y144.376045
g1 x150.500794 y144.415129
g1 x150.483125 y144.450628
g1 x150.447319 y144.468455
g1 x150.408364 y144.461041
g1 x150.381625 y144.431503
g1 x150.294644 y144.262281
g1 z-3 f100
g1 x150.463746 y144.34921 f250
g1 x150.493429 y144.376045
g1 x150.500794 y144.415129
g1 x150.483125 y144.450628
g1 x150.447319 y144.468455
g1 x150.408364 y144.461041
g1 x150.381625 y144.431503
g1 x150.294644 y144.262281
g1 z-3.5 f100
g1 x150.463746 y144.34921 f250
g1 x150.493429 y144.376045
g1 x150.500794 y144.415129
g1 x150.483125 y144.450628
g1 x150.447319 y144.468455
g1 x150.408364 y144.461041
g1 x150.381625 y144.431503
g1 x150.294644 y144.262281
g1 z-4 f100
g1 x150.463746 y144.34921 f250
g1 x150.493429 y144.376045
g1 x150.500794 y144.415129
g1 x150.483125 y144.450628
g1 x150.447319 y144.468455
g1 x150.408364 y144.461041
g1 x150.381625 y144.431503
g1 x150.294644 y144.262281
g0 z5
(Block-name: path100)
(Block-expand: 0)
(Block-enable: 0)

(End cutting path id: path100)


(Start cutting path id: path100)
(Change tool to Default tool)

G0 Z5
G0 X112.151079 Y134.152416

G1 Z-0.125 F100
G3 X112.888579 Y134.350016 Z-0.125 I0 J1.475 F400
G3 X113.428479 Y134.889916 Z-0.125 I-0.7375 J1.2774
G3 X113.626079 Y135.627416 Z-0.125 I-1.2774 J0.7375
G3 X113.428479 Y136.364916 Z-0.125 I-1.475 J-0
G3 X112.888579 Y136.904816 Z-0.125 I-1.2774 J-0.7375
G3 X112.151079 Y137.102416 Z-0.125 I-0.7375 J-1.2774
G3 X111.413579 Y136.904816 Z-0.125 I-0 J-1.475
G3 X110.873679 Y136.364916 Z-0.125 I0.7375 J-1.2774
G3 X110.676079 Y135.627416 Z-0.125 I1.2774 J-0.7375
G3 X110.873679 Y134.889916 Z-0.125 I1.475 J0
G3 X111.413579 Y134.350016 Z-0.125 I1.2774 J0.7375
G3 X112.151079 Y134.152416 Z-0.125 I0.7375 J1.2774
G1 X112.151079 Y134.152416 Z-0.125
G0 Z5
(Block-name: path100 [in,cut])
(Block-expand: 0)
(Block-enable: 1)
g0 x112.151079 y135.588856
g1 z-0.5 f100
g1 x112.170364 y135.594023 f250
g1 x112.184472 y135.608131
g1 x112.189639 y135.627416
g1 x112.184472 y135.646701
g1 x112.170364 y135.660809
g1 x112.151079 y135.665976
g1 x112.131794 y135.660809
g1 x112.117686 y135.646701
g1 x112.112519 y135.627416
g1 x112.117686 y135.608131
g1 x112.131794 y135.594023
g1 x112.151079 y135.588856
g1 z-1 f100
g1 x112.170364 y135.594023 f250
g1 x112.184472 y135.608131
g1 x112.189639 y135.627416
g1 x112.184472 y135.646701
g1 x112.170364 y135.660809
g1 x112.151079 y135.665976
g1 x112.131794 y135.660809
g1 x112.117686 y135.646701
g1 x112.112519 y135.627416
g1 x112.117686 y135.608131
g1 x112.131794 y135.594023
g1 x112.151079 y135.588856
g1 z-1.5 f100
g1 x112.170364 y135.594023 f250
g1 x112.184472 y135.608131
g1 x112.189639 y135.627416
g1 x112.184472 y135.646701
g1 x112.170364 y135.660809
g1 x112.151079 y135.665976
g1 x112.131794 y135.660809
g1 x112.117686 y135.646701
g1 x112.112519 y135.627416
g1 x112.117686 y135.608131
g1 x112.131794 y135.594023
g1 x112.151079 y135.588856
g1 z-2 f100
g1 x112.170364 y135.594023 f250
g1 x112.184472 y135.608131
g1 x112.189639 y135.627416
g1 x112.184472 y135.646701
g1 x112.170364 y135.660809
g1 x112.151079 y135.665976
g1 x112.131794 y135.660809
g1 x112.117686 y135.646701
g1 x112.112519 y135.627416
g1 x112.117686 y135.608131
g1 x112.131794 y135.594023
g1 x112.151079 y135.588856
g1 z-2.5 f100
g1 x112.170364 y135.594023 f250
g1 x112.184472 y135.608131
g1 x112.189639 y135.627416
g1 x112.184472 y135.646701
g1 x112.170364 y135.660809
g1 x112.151079 y135.665976
g1 x112.131794 y135.660809
g1 x112.117686 y135.646701
g1 x112.112519 y135.627416
g1 x112.117686 y135.608131
g1 x112.131794 y135.594023
g1 x112.151079 y135.588856
g1 z-3 f100
g1 x112.170364 y135.594023 f250
g1 x112.184472 y135.608131
g1 x112.189639 y135.627416
g1 x112.184472 y135.646701
g1 x112.170364 y135.660809
g1 x112.151079 y135.665976
g1 x112.131794 y135.660809
g1 x112.117686 y135.646701
g1 x112.112519 y135.627416
g1 x112.117686 y135.608131
g1 x112.131794 y135.594023
g1 x112.151079 y135.588856
g1 z-3.5 f100
g1 x112.170364 y135.594023 f250
g1 x112.184472 y135.608131
g1 x112.189639 y135.627416
g1 x112.184472 y135.646701
g1 x112.170364 y135.660809
g1 x112.151079 y135.665976
g1 x112.131794 y135.660809
g1 x112.117686 y135.646701
g1 x112.112519 y135.627416
g1 x112.117686 y135.608131
g1 x112.131794 y135.594023
g1 x112.151079 y135.588856
g1 z-4 f100
g1 x112.170364 y135.594023 f250
g1 x112.184472 y135.608131
g1 x112.189639 y135.627416
g1 x112.184472 y135.646701
g1 x112.170364 y135.660809
g1 x112.151079 y135.665976
g1 x112.131794 y135.660809
g1 x112.117686 y135.646701
g1 x112.112519 y135.627416
g1 x112.117686 y135.608131
g1 x112.131794 y135.594023
g1 x112.151079 y135.588856
g0 z5
(Block-name: path102)
(Block-expand: 0)
(Block-enable: 0)

(End cutting path id: path102)


(Start cutting path id: path102)
(Change tool to Default tool)

G0 Z5
G0 X110.701079 Y149.727416

G1 Z-0.125 F100
G2 X111.126979 Y150.750516 Z-0.125 I1.45 J-0.0034 F400
G2 X112.151079 Y151.174016 Z-0.125 I1.0241 J-1.0265
G2 X113.175179 Y150.750516 Z-0.125 I-0 J-1.45
G2 X113.601079 Y149.727416 Z-0.125 I-1.0241 J-1.0265
G1 X113.601079 Y142.527416 Z-0.125
G2 X113.175179 Y141.504316 Z-0.125 I-1.45 J0.0034
G2 X112.151079 Y141.080816 Z-0.125 I-1.0241 J1.0265
G2 X111.126979 Y141.504316 Z-0.125 I-0 J1.45
G2 X110.701079 Y142.527416 Z-0.125 I1.0241 J1.0265
G1 X110.701079 Y149.727416 Z-0.125
G0 Z5
(Block-name: path102 [in,cut])
(Block-expand: 0)
(Block-enable: 1)
g0 x112.088579 y149.724722
g1 z-0.5 f100
g1 x112.106925 y149.768242 f250
g1 x112.151093 y149.786516
g1 x112.195208 y149.768267
g1 x112.213583 y149.72414
g1 x112.213579 y142.53011
g1 x112.195233 y142.48659
g1 x112.151065 y142.468316
g1 x112.10695 y142.486565
g1 x112.088579 y142.530129
g1 x112.088579 y149.724722
g1 z-1 f100
g1 x112.106925 y149.768242 f250
g1 x112.151093 y149.786516
g1 x112.195208 y149.768267
g1 x112.213583 y149.72414
g1 x112.213579 y142.53011
g1 x112.195233 y142.48659
g1 x112.151065 y142.468316
g1 x112.10695 y142.486565
g1 x112.088579 y142.530129
g1 x112.088579 y149.724722
g1 z-1.5 f100
g1 x112.106925 y149.768242 f250
g1 x112.151093 y149.786516
g1 x112.195208 y149.768267
g1 x112.213583 y149.72414
g1 x112.213579 y142.53011
g1 x112.195233 y142.48659
g1 x112.151065 y142.468316
g1 x112.10695 y142.486565
g1 x112.088579 y142.530129
g1 x112.088579 y149.724722
g1 z-2 f100
g1 x112.106925 y149.768242 f250
g1 x112.151093 y149.786516
g1 x112.195208 y149.768267
g1 x112.213583 y149.72414
g1 x112.213579 y142.53011
g1 x112.195233 y142.48659
g1 x112.151065 y142.468316
g1 x112.10695 y142.486565
g1 x112.088579 y142.530129
g1 x112.088579 y149.724722
g1 z-2.5 f100
g1 x112.106925 y149.768242 f250
g1 x112.151093 y149.786516
g1 x112.195208 y149.768267
g1 x112.213583 y149.72414
g1 x112.213579 y142.53011
g1 x112.195233 y142.48659
g1 x112.151065 y142.468316
g1 x112.10695 y142.486565
g1 x112.088579 y142.530129
g1 x112.088579 y149.724722
g1 z-3 f100
g1 x112.106925 y149.768242 f250
g1 x112.151093 y149.786516
g1 x112.195208 y149.768267
g1 x112.213583 y149.72414
g1 x112.213579 y142.53011
g1 x112.195233 y142.48659
g1 x112.151065 y142.468316
g1 x112.10695 y142.486565
g1 x112.088579 y142.530129
g1 x112.088579 y149.724722
g1 z-3.5 f100
g1 x112.106925 y149.768242 f250
g1 x112.151093 y149.786516
g1 x112.195208 y149.768267
g1 x112.213583 y149.72414
g1 x112.213579 y142.53011
g1 x112.195233 y142.48659
g1 x112.151065 y142.468316
g1 x112.10695 y142.486565
g1 x112.088579 y142.530129
g1 x112.088579 y149.724722
g1 z-4 f100
g1 x112.106925 y149.768242 f250
g1 x112.151093 y149.786516
g1 x112.195208 y149.768267
g1 x112.213583 y149.72414
g1 x112.213579 y142.53011
g1 x112.195233 y142.48659
g1 x112.151065 y142.468316
g1 x112.10695 y142.486565
g1 x112.088579 y142.530129
g1 x112.088579 y149.724722
g0 z5
(Block-name: path130)
(Block-expand: 0)
(Block-enable: 0)

(End cutting path id: path130)


(Start cutting path id: path130)
(Change tool to Default tool)

G0 Z5
G0 X112.151079 Y155.152416

G1 Z-0.125 F100
G3 X112.888579 Y155.350016 Z-0.125 I0 J1.475 F400
G3 X113.428479 Y155.889916 Z-0.125 I-0.7375 J1.2774
G3 X113.626079 Y156.627416 Z-0.125 I-1.2774 J0.7375
G3 X113.428479 Y157.364916 Z-0.125 I-1.475 J0
G3 X112.888579 Y157.904816 Z-0.125 I-1.2774 J-0.7375
G3 X112.151079 Y158.102416 Z-0.125 I-0.7375 J-1.2774
G3 X111.413579 Y157.904816 Z-0.125 I0 J-1.475
G3 X110.873679 Y157.364916 Z-0.125 I0.7375 J-1.2774
G3 X110.676079 Y156.627416 Z-0.125 I1.2774 J-0.7375
G3 X110.873679 Y155.889916 Z-0.125 I1.475 J-0
G3 X111.413579 Y155.350016 Z-0.125 I1.2774 J0.7375
G3 X112.151079 Y155.152416 Z-0.125 I0.7375 J1.2774
G1 X112.151079 Y155.152416 Z-0.125
G0 Z5
(Block-name: path130 [in,cut])
(Block-expand: 0)
(Block-enable: 1)
g0 x112.151079 y156.588856
g1 z-0.5 f100
g1 x112.170364 y156.594023 f250
g1 x112.184472 y156.608131
g1 x112.189639 y156.627416
g1 x112.184472 y156.646701
g1 x112.170364 y156.660809
g1 x112.151079 y156.665976
g1 x112.131794 y156.660809
g1 x112.117686 y156.646701
g1 x112.112519 y156.627416
g1 x112.117686 y156.608131
g1 x112.131794 y156.594023
g1 x112.151079 y156.588856
g1 z-1 f100
g1 x112.170364 y156.594023 f250
g1 x112.184472 y156.608131
g1 x112.189639 y156.627416
g1 x112.184472 y156.646701
g1 x112.170364 y156.660809
g1 x112.151079 y156.665976
g1 x112.131794 y156.660809
g1 x112.117686 y156.646701
g1 x112.112519 y156.627416
g1 x112.117686 y156.608131
g1 x112.131794 y156.594023
g1 x112.151079 y156.588856
g1 z-1.5 f100
g1 x112.170364 y156.594023 f250
g1 x112.184472 y156.608131
g1 x112.189639 y156.627416
g1 x112.184472 y156.646701
g1 x112.170364 y156.660809
g1 x112.151079 y156.665976
g1 x112.131794 y156.660809
g1 x112.117686 y156.646701
g1 x112.112519 y156.627416
g1 x112.117686 y156.608131
g1 x112.131794 y156.594023
g1 x112.151079 y156.588856
g1 z-2 f100
g1 x112.170364 y156.594023 f250
g1 x112.184472 y156.608131
g1 x112.189639 y156.627416
g1 x112.184472 y156.646701
g1 x112.170364 y156.660809
g1 x112.151079 y156.665976
g1 x112.131794 y156.660809
g1 x112.117686 y156.646701
g1 x112.112519 y156.627416
g1 x112.117686 y156.608131
g1 x112.131794 y156.594023
g1 x112.151079 y156.588856
g1 z-2.5 f100
g1 x112.170364 y156.594023 f250
g1 x112.184472 y156.608131
g1 x112.189639 y156.627416
g1 x112.184472 y156.646701
g1 x112.170364 y156.660809
g1 x112.151079 y156.665976
g1 x112.131794 y156.660809
g1 x112.117686 y156.646701
g1 x112.112519 y156.627416
g1 x112.117686 y156.608131
g1 x112.131794 y156.594023
g1 x112.151079 y156.588856
g1 z-3 f100
g1 x112.170364 y156.594023 f250
g1 x112.184472 y156.608131
g1 x112.189639 y156.627416
g1 x112.184472 y156.646701
g1 x112.170364 y156.660809
g1 x112.151079 y156.665976
g1 x112.131794 y156.660809
g1 x112.117686 y156.646701
g1 x112.112519 y156.627416
g1 x112.117686 y156.608131
g1 x112.131794 y156.594023
g1 x112.151079 y156.588856
g1 z-3.5 f100
g1 x112.170364 y156.594023 f250
g1 x112.184472 y156.608131
g1 x112.189639 y156.627416
g1 x112.184472 y156.646701
g1 x112.170364 y156.660809
g1 x112.151079 y156.665976
g1 x112.131794 y156.660809
g1 x112.117686 y156.646701
g1 x112.112519 y156.627416
g1 x112.117686 y156.608131
g1 x112.131794 y156.594023
g1 x112.151079 y156.588856
g1 z-4 f100
g1 x112.170364 y156.594023 f250
g1 x112.184472 y156.608131
g1 x112.189639 y156.627416
g1 x112.184472 y156.646701
g1 x112.170364 y156.660809
g1 x112.151079 y156.665976
g1 x112.131794 y156.660809
g1 x112.117686 y156.646701
g1 x112.112519 y156.627416
g1 x112.117686 y156.608131
g1 x112.131794 y156.594023
g1 x112.151079 y156.588856
g0 z5
(Block-name: path136)
(Block-expand: 0)
(Block-enable: 0)

(End cutting path id: path136)


(Start cutting path id: path136)
(Change tool to Default tool)

G0 Z5
G0 X57.273479 Y155.152416

G1 Z-0.125 F100
G3 X58.010979 Y155.350016 Z-0.125 I0 J1.475 F400
G3 X58.550779 Y155.889916 Z-0.125 I-0.7375 J1.2774
G3 X58.748479 Y156.627416 Z-0.125 I-1.2774 J0.7375
G3 X58.550779 Y157.364916 Z-0.125 I-1.475 J0
G3 X58.010979 Y157.904816 Z-0.125 I-1.2774 J-0.7375
G3 X57.273479 Y158.102416 Z-0.125 I-0.7375 J-1.2774
G3 X56.535979 Y157.904816 Z-0.125 I-0 J-1.475
G3 X55.996079 Y157.364916 Z-0.125 I0.7375 J-1.2774
G3 X55.798479 Y156.627416 Z-0.125 I1.2774 J-0.7375
G3 X55.996079 Y155.889916 Z-0.125 I1.475 J-0
G3 X56.535979 Y155.350016 Z-0.125 I1.2774 J0.7375
G3 X57.273479 Y155.152416 Z-0.125 I0.7375 J1.2774
G1 X57.273479 Y155.152416 Z-0.125
G0 Z5
(Block-name: path136 [in,cut])
(Block-expand: 0)
(Block-enable: 1)
g0 x57.273479 y156.588856
g1 z-0.5 f100
g1 x57.292698 y156.594005 f250
g1 x57.306821 y156.608131
g1 x57.311991 y156.627416
g1 x57.306821 y156.646701
g1 x57.292698 y156.660827
g1 x57.273479 y156.665976
g1 x57.254194 y156.660809
g1 x57.240086 y156.646701
g1 x57.234919 y156.627416
g1 x57.240086 y156.608131
g1 x57.254194 y156.594023
g1 x57.273479 y156.588856
g1 z-1 f100
g1 x57.292698 y156.594005 f250
g1 x57.306821 y156.608131
g1 x57.311991 y156.627416
g1 x57.306821 y156.646701
g1 x57.292698 y156.660827
g1 x57.273479 y156.665976
g1 x57.254194 y156.660809
g1 x57.240086 y156.646701
g1 x57.234919 y156.627416
g1 x57.240086 y156.608131
g1 x57.254194 y156.594023
g1 x57.273479 y156.588856
g1 z-1.5 f100
g1 x57.292698 y156.594005 f250
g1 x57.306821 y156.608131
g1 x57.311991 y156.627416
g1 x57.306821 y156.646701
g1 x57.292698 y156.660827
g1 x57.273479 y156.665976
g1 x57.254194 y156.660809
g1 x57.240086 y156.646701
g1 x57.234919 y156.627416
g1 x57.240086 y156.608131
g1 x57.254194 y156.594023
g1 x57.273479 y156.588856
g1 z-2 f100
g1 x57.292698 y156.594005 f250
g1 x57.306821 y156.608131
g1 x57.311991 y156.627416
g1 x57.306821 y156.646701
g1 x57.292698 y156.660827
g1 x57.273479 y156.665976
g1 x57.254194 y156.660809
g1 x57.240086 y156.646701
g1 x57.234919 y156.627416
g1 x57.240086 y156.608131
g1 x57.254194 y156.594023
g1 x57.273479 y156.588856
g1 z-2.5 f100
g1 x57.292698 y156.594005 f250
g1 x57.306821 y156.608131
g1 x57.311991 y156.627416
g1 x57.306821 y156.646701
g1 x57.292698 y156.660827
g1 x57.273479 y156.665976
g1 x57.254194 y156.660809
g1 x57.240086 y156.646701
g1 x57.234919 y156.627416
g1 x57.240086 y156.608131
g1 x57.254194 y156.594023
g1 x57.273479 y156.588856
g1 z-3 f100
g1 x57.292698 y156.594005 f250
g1 x57.306821 y156.608131
g1 x57.311991 y156.627416
g1 x57.306821 y156.646701
g1 x57.292698 y156.660827
g1 x57.273479 y156.665976
g1 x57.254194 y156.660809
g1 x57.240086 y156.646701
g1 x57.234919 y156.627416
g1 x57.240086 y156.608131
g1 x57.254194 y156.594023
g1 x57.273479 y156.588856
g1 z-3.5 f100
g1 x57.292698 y156.594005 f250
g1 x57.306821 y156.608131
g1 x57.311991 y156.627416
g1 x57.306821 y156.646701
g1 x57.292698 y156.660827
g1 x57.273479 y156.665976
g1 x57.254194 y156.660809
g1 x57.240086 y156.646701
g1 x57.234919 y156.627416
g1 x57.240086 y156.608131
g1 x57.254194 y156.594023
g1 x57.273479 y156.588856
g1 z-4 f100
g1 x57.292698 y156.594005 f250
g1 x57.306821 y156.608131
g1 x57.311991 y156.627416
g1 x57.306821 y156.646701
g1 x57.292698 y156.660827
g1 x57.273479 y156.665976
g1 x57.254194 y156.660809
g1 x57.240086 y156.646701
g1 x57.234919 y156.627416
g1 x57.240086 y156.608131
g1 x57.254194 y156.594023
g1 x57.273479 y156.588856
g0 z5
(Block-name: path132)
(Block-expand: 0)
(Block-enable: 0)

(End cutting path id: path132)


(Start cutting path id: path132)
(Change tool to Default tool)

G0 Z5
G0 X55.823479 Y149.727416

G1 Z-0.125 F100
G1 X55.823479 Y142.527416 Z-0.125 F400
G3 X56.017679 Y141.802416 Z-0.125 I1.45 J-0
G3 X56.548479 Y141.271716 Z-0.125 I1.2557 J0.725
G3 X57.273479 Y141.077416 Z-0.125 I0.725 J1.2557
G3 X57.998479 Y141.271716 Z-0.125 I0 J1.45
G3 X58.529179 Y141.802416 Z-0.125 I-0.725 J1.2557
G3 X58.723479 Y142.527416 Z-0.125 I-1.2557 J0.725
G1 X58.723479 Y149.727416 Z-0.125
G3 X58.529179 Y150.452416 Z-0.125 I-1.45 J0
G3 X57.998479 Y150.983216 Z-0.125 I-1.2557 J-0.725
G3 X57.273479 Y151.177416 Z-0.125 I-0.725 J-1.2557
G3 X56.548479 Y150.983216 Z-0.125 I0 J-1.45
G3 X56.017679 Y150.452416 Z-0.125 I0.725 J-1.2557
G3 X55.823479 Y149.727416 Z-0.125 I1.2557 J-0.725
G1 X55.823479 Y149.727416 Z-0.125
G0 Z5
(Block-name: path132 [in,cut])
(Block-expand: 0)
(Block-enable: 1)
g0 x57.210979 y149.544806
g1 z-0.5 f100
g1 x57.210979 y142.710026 f250
g1 x57.261702 y142.520664
g1 x57.280231 y142.51569
g1 x57.335979 y142.710117
g1 x57.335979 y149.544715
g1 x57.285187 y149.734236
g1 x57.266659 y149.739175
g1 x57.210979 y149.544806
g1 z-1 f100
g1 x57.210979 y142.710026 f250
g1 x57.261702 y142.520664
g1 x57.280231 y142.51569
g1 x57.335979 y142.710117
g1 x57.335979 y149.544715
g1 x57.285187 y149.734236
g1 x57.266659 y149.739175
g1 x57.210979 y149.544806
g1 z-1.5 f100
g1 x57.210979 y142.710026 f250
g1 x57.261702 y142.520664
g1 x57.280231 y142.51569
g1 x57.335979 y142.710117
g1 x57.335979 y149.544715
g1 x57.285187 y149.734236
g1 x57.266659 y149.739175
g1 x57.210979 y149.544806
g1 z-2 f100
g1 x57.210979 y142.710026 f250
g1 x57.261702 y142.520664
g1 x57.280231 y142.51569
g1 x57.335979 y142.710117
g1 x57.335979 y149.544715
g1 x57.285187 y149.734236
g1 x57.266659 y149.739175
g1 x57.210979 y149.544806
g1 z-2.5 f100
g1 x57.210979 y142.710026 f250
g1 x57.261702 y142.520664
g1 x57.280231 y142.51569
g1 x57.335979 y142.710117
g1 x57.335979 y149.544715
g1 x57.285187 y149.734236
g1 x57.266659 y149.739175
g1 x57.210979 y149.544806
g1 z-3 f100
g1 x57.210979 y142.710026 f250
g1 x57.261702 y142.520664
g1 x57.280231 y142.51569
g1 x57.335979 y142.710117
g1 x57.335979 y149.544715
g1 x57.285187 y149.734236
g1 x57.266659 y149.739175
g1 x57.210979 y149.544806
g1 z-3.5 f100
g1 x57.210979 y142.710026 f250
g1 x57.261702 y142.520664
g1 x57.280231 y142.51569
g1 x57.335979 y142.710117
g1 x57.335979 y149.544715
g1 x57.285187 y149.734236
g1 x57.266659 y149.739175
g1 x57.210979 y149.544806
g1 z-4 f100
g1 x57.210979 y142.710026 f250
g1 x57.261702 y142.520664
g1 x57.280231 y142.51569
g1 x57.335979 y142.710117
g1 x57.335979 y149.544715
g1 x57.285187 y149.734236
g1 x57.266659 y149.739175
g1 x57.210979 y149.544806
g0 z5
(Block-name: path134)
(Block-expand: 0)
(Block-enable: 0)

(End cutting path id: path134)


(Start cutting path id: path134)
(Change tool to Default tool)

G0 Z5
G0 X57.273479 Y134.152416

G1 Z-0.125 F100
G3 X58.010979 Y134.350016 Z-0.125 I0 J1.475 F400
G3 X58.550779 Y134.889916 Z-0.125 I-0.7375 J1.2774
G3 X58.748379 Y135.627416 Z-0.125 I-1.2774 J0.7375
G3 X58.550779 Y136.364916 Z-0.125 I-1.475 J-0
G3 X58.010979 Y136.904816 Z-0.125 I-1.2774 J-0.7375
G3 X57.273479 Y137.102416 Z-0.125 I-0.7375 J-1.2774
G3 X56.535979 Y136.904816 Z-0.125 I-0 J-1.475
G3 X55.996079 Y136.364916 Z-0.125 I0.7375 J-1.2774
G3 X55.798479 Y135.627416 Z-0.125 I1.2774 J-0.7375
G3 X55.996079 Y134.889916 Z-0.125 I1.475 J-0
G3 X56.535979 Y134.350016 Z-0.125 I1.2774 J0.7375
G3 X57.273479 Y134.152416 Z-0.125 I0.7375 J1.2774
G1 X57.273479 Y134.152416 Z-0.125
G0 Z5
(Block-name: path134 [in,cut])
(Block-expand: 0)
(Block-enable: 1)
g0 x57.273479 y135.588856
g1 z-0.5 f100
g1 x57.292698 y135.594005 f250
g1 x57.306754 y135.608064
g1 x57.311939 y135.627416
g1 x57.306754 y135.646768
g1 x57.292698 y135.660827
g1 x57.273479 y135.665976
g1 x57.254194 y135.660809
g1 x57.240086 y135.646701
g1 x57.234919 y135.627416
g1 x57.240086 y135.608131
g1 x57.254194 y135.594023
g1 x57.273479 y135.588856
g1 z-1 f100
g1 x57.292698 y135.594005 f250
g1 x57.306754 y135.608064
g1 x57.311939 y135.627416
g1 x57.306754 y135.646768
g1 x57.292698 y135.660827
g1 x57.273479 y135.665976
g1 x57.254194 y135.660809
g1 x57.240086 y135.646701
g1 x57.234919 y135.627416
g1 x57.240086 y135.608131
g1 x57.254194 y135.594023
g1 x57.273479 y135.588856
g1 z-1.5 f100
g1 x57.292698 y135.594005 f250
g1 x57.306754 y135.608064
g1 x57.311939 y135.627416
g1 x57.306754 y135.646768
g1 x57.292698 y135.660827
g1 x57.273479 y135.665976
g1 x57.254194 y135.660809
g1 x57.240086 y135.646701
g1 x57.234919 y135.627416
g1 x57.240086 y135.608131
g1 x57.254194 y135.594023
g1 x57.273479 y135.588856
g1 z-2 f100
g1 x57.292698 y135.594005 f250
g1 x57.306754 y135.608064
g1 x57.311939 y135.627416
g1 x57.306754 y135.646768
g1 x57.292698 y135.660827
g1 x57.273479 y135.665976
g1 x57.254194 y135.660809
g1 x57.240086 y135.646701
g1 x57.234919 y135.627416
g1 x57.240086 y135.608131
g1 x57.254194 y135.594023
g1 x57.273479 y135.588856
g1 z-2.5 f100
g1 x57.292698 y135.594005 f250
g1 x57.306754 y135.608064
g1 x57.311939 y135.627416
g1 x57.306754 y135.646768
g1 x57.292698 y135.660827
g1 x57.273479 y135.665976
g1 x57.254194 y135.660809
g1 x57.240086 y135.646701
g1 x57.234919 y135.627416
g1 x57.240086 y135.608131
g1 x57.254194 y135.594023
g1 x57.273479 y135.588856
g1 z-3 f100
g1 x57.292698 y135.594005 f250
g1 x57.306754 y135.608064
g1 x57.311939 y135.627416
g1 x57.306754 y135.646768
g1 x57.292698 y135.660827
g1 x57.273479 y135.665976
g1 x57.254194 y135.660809
g1 x57.240086 y135.646701
g1 x57.234919 y135.627416
g1 x57.240086 y135.608131
g1 x57.254194 y135.594023
g1 x57.273479 y135.588856
g1 z-3.5 f100
g1 x57.292698 y135.594005 f250
g1 x57.306754 y135.608064
g1 x57.311939 y135.627416
g1 x57.306754 y135.646768
g1 x57.292698 y135.660827
g1 x57.273479 y135.665976
g1 x57.254194 y135.660809
g1 x57.240086 y135.646701
g1 x57.234919 y135.627416
g1 x57.240086 y135.608131
g1 x57.254194 y135.594023
g1 x57.273479 y135.588856
g1 z-4 f100
g1 x57.292698 y135.594005 f250
g1 x57.306754 y135.608064
g1 x57.311939 y135.627416
g1 x57.306754 y135.646768
g1 x57.292698 y135.660827
g1 x57.273479 y135.665976
g1 x57.254194 y135.660809
g1 x57.240086 y135.646701
g1 x57.234919 y135.627416
g1 x57.240086 y135.608131
g1 x57.254194 y135.594023
g1 x57.273479 y135.588856
g0 z5
(Block-name: path90)
(Block-expand: 0)
(Block-enable: 0)

(End cutting path id: path90)


(Start cutting path id: path90)
(Change tool to Default tool)

G0 Z5
G0 X51.976979 Y219.953216

G1 Z-0.125 F100
G2 X51.314679 Y219.220616 Z-0.125 I-1.421 J0.6191 F400
G2 X50.344379 Y219.036816 Z-0.125 I-0.7587 J1.3516
G2 X49.459979 Y219.476216 Z-0.125 I0.2116 J1.5355
G2 X49.020479 Y220.360616 Z-0.125 I1.096 J1.096
G2 X49.204279 Y221.330916 Z-0.125 I1.5355 J0.2116
G2 X49.936879 Y221.993316 Z-0.125 I1.3516 J-0.7587
G3 X50.090779 Y222.098116 Z-0.125 I-0.1997 J0.4584
G3 X50.195579 Y222.252016 Z-0.125 I-0.3535 J0.3536
G2 X50.857879 Y222.984516 Z-0.125 I1.421 J-0.619
G2 X51.828179 Y223.168416 Z-0.125 I0.7587 J-1.3516
G2 X52.712679 Y222.728916 Z-0.125 I-0.2116 J-1.5355
G2 X53.152079 Y221.844516 Z-0.125 I-1.096 J-1.096
G2 X52.968179 Y220.874216 Z-0.125 I-1.5355 J-0.2116
G2 X52.235679 Y220.211916 Z-0.125 I-1.3516 J0.7587
G3 X52.081779 Y220.107116 Z-0.125 I0.1997 J-0.4584
G3 X51.976979 Y219.953216 Z-0.125 I0.3536 J-0.3535
G1 X51.976979 Y219.953216 Z-0.125
G0 Z5
(Block-name: path90 [in,cut])
(Block-expand: 0)
(Block-enable: 1)
g0 x50.700363 y220.7167
g1 z-0.5 f100
g1 x50.613285 y220.547349 f250
g1 x50.58645 y220.517666
g1 x50.547659 y220.51036
g1 x50.511677 y220.528161
g1 x50.49404 y220.563776
g1 x50.501499 y220.602989
g1 x50.531097 y220.629659
g1 x50.700363 y220.7167
g1 x51.64148 y221.575582
g1 x51.671065 y221.602331
g1 x51.678505 y221.64145
g1 x51.660858 y221.677095
g1 x51.625113 y221.694842
g1 x51.585994 y221.687402
g1 x51.559308 y221.657964
g1 x51.472195 y221.488532
g0 z5
g0 x50.700363 y220.7167
g1 z-1 f100
g1 x50.613285 y220.547349 f250
g1 x50.58645 y220.517666
g1 x50.547659 y220.51036
g1 x50.511677 y220.528161
g1 x50.49404 y220.563776
g1 x50.501499 y220.602989
g1 x50.531097 y220.629659
g1 x50.700363 y220.7167
g1 x51.64148 y221.575582
g1 x51.671065 y221.602331
g1 x51.678505 y221.64145
g1 x51.660858 y221.677095
g1 x51.625113 y221.694842
g1 x51.585994 y221.687402
g1 x51.559308 y221.657964
g1 x51.472195 y221.488532
g0 z5
g0 x50.700363 y220.7167
g1 z-1.5 f100
g1 x50.613285 y220.547349 f250
g1 x50.58645 y220.517666
g1 x50.547659 y220.51036
g1 x50.511677 y220.528161
g1 x50.49404 y220.563776
g1 x50.501499 y220.602989
g1 x50.531097 y220.629659
g1 x50.700363 y220.7167
g1 x51.64148 y221.575582
g1 x51.671065 y221.602331
g1 x51.678505 y221.64145
g1 x51.660858 y221.677095
g1 x51.625113 y221.694842
g1 x51.585994 y221.687402
g1 x51.559308 y221.657964
g1 x51.472195 y221.488532
g0 z5
g0 x50.700363 y220.7167
g1 z-2 f100
g1 x50.613285 y220.547349 f250
g1 x50.58645 y220.517666
g1 x50.547659 y220.51036
g1 x50.511677 y220.528161
g1 x50.49404 y220.563776
g1 x50.501499 y220.602989
g1 x50.531097 y220.629659
g1 x50.700363 y220.7167
g1 x51.64148 y221.575582
g1 x51.671065 y221.602331
g1 x51.678505 y221.64145
g1 x51.660858 y221.677095
g1 x51.625113 y221.694842
g1 x51.585994 y221.687402
g1 x51.559308 y221.657964
g1 x51.472195 y221.488532
g0 z5
g0 x50.700363 y220.7167
g1 z-2.5 f100
g1 x50.613285 y220.547349 f250
g1 x50.58645 y220.517666
g1 x50.547659 y220.51036
g1 x50.511677 y220.528161
g1 x50.49404 y220.563776
g1 x50.501499 y220.602989
g1 x50.531097 y220.629659
g1 x50.700363 y220.7167
g1 x51.64148 y221.575582
g1 x51.671065 y221.602331
g1 x51.678505 y221.64145
g1 x51.660858 y221.677095
g1 x51.625113 y221.694842
g1 x51.585994 y221.687402
g1 x51.559308 y221.657964
g1 x51.472195 y221.488532
g0 z5
g0 x50.700363 y220.7167
g1 z-3 f100
g1 x50.613285 y220.547349 f250
g1 x50.58645 y220.517666
g1 x50.547659 y220.51036
g1 x50.511677 y220.528161
g1 x50.49404 y220.563776
g1 x50.501499 y220.602989
g1 x50.531097 y220.629659
g1 x50.700363 y220.7167
g1 x51.64148 y221.575582
g1 x51.671065 y221.602331
g1 x51.678505 y221.64145
g1 x51.660858 y221.677095
g1 x51.625113 y221.694842
g1 x51.585994 y221.687402
g1 x51.559308 y221.657964
g1 x51.472195 y221.488532
g0 z5
g0 x50.700363 y220.7167
g1 z-3.5 f100
g1 x50.613285 y220.547349 f250
g1 x50.58645 y220.517666
g1 x50.547659 y220.51036
g1 x50.511677 y220.528161
g1 x50.49404 y220.563776
g1 x50.501499 y220.602989
g1 x50.531097 y220.629659
g1 x50.700363 y220.7167
g1 x51.64148 y221.575582
g1 x51.671065 y221.602331
g1 x51.678505 y221.64145
g1 x51.660858 y221.677095
g1 x51.625113 y221.694842
g1 x51.585994 y221.687402
g1 x51.559308 y221.657964
g1 x51.472195 y221.488532
g0 z5
g0 x50.700363 y220.7167
g1 z-4 f100
g1 x50.613285 y220.547349 f250
g1 x50.58645 y220.517666
g1 x50.547659 y220.51036
g1 x50.511677 y220.528161
g1 x50.49404 y220.563776
g1 x50.501499 y220.602989
g1 x50.531097 y220.629659
g1 x50.700363 y220.7167
g1 x51.64148 y221.575582
g1 x51.671065 y221.602331
g1 x51.678505 y221.64145
g1 x51.660858 y221.677095
g1 x51.625113 y221.694842
g1 x51.585994 y221.687402
g1 x51.559308 y221.657964
g1 x51.472195 y221.488532
g0 z5
(Block-name: path106)
(Block-expand: 0)
(Block-enable: 0)

(End cutting path id: path106)


(Start cutting path id: path106)
(Change tool to Default tool)

G0 Z5
G0 X57.273479 Y223.789816

G1 Z-0.125 F100
G3 X59.024279 Y224.258016 Z-0.125 I0.0019 J3.5 F400
G3 X60.306079 Y225.539216 Z-0.125 I-1.7489 J3.0317
G3 X60.775379 Y227.289816 Z-0.125 I-3.0308 J1.7506
G3 X60.306079 Y229.040316 Z-0.125 I-3.5 J0
G3 X59.024279 Y230.321516 Z-0.125 I-3.0308 J-1.7506
G3 X57.273479 Y230.789716 Z-0.125 I-1.7489 J-3.0317
G3 X55.522879 Y230.321316 Z-0.125 I-0.0014 J-3.5
G3 X54.241179 Y229.040116 Z-0.125 I1.7492 J-3.0315
G3 X53.772079 Y227.289816 Z-0.125 I3.0309 J-1.7504
G3 X54.241179 Y225.539416 Z-0.125 I3.5 J-0
G3 X55.522879 Y224.258216 Z-0.125 I3.0309 J1.7504
G3 X57.273479 Y223.789816 Z-0.125 I1.7492 J3.0315
G1 X57.273479 Y223.789816 Z-0.125
G0 Z5
(Block-name: path106 [in,cut])
(Block-expand: 0)
(Block-enable: 1)
g0 x57.274341 y225.377316
g1 z-0.5 f100
g1 x58.231139 y225.633183 f250
g1 x58.93135 y226.333115
g1 x59.187879 y227.289901
g1 x58.931479 y228.246192
g1 x58.230912 y228.94648
g1 x57.274474 y229.202216
g1 x56.316194 y228.94625
g1 x55.615888 y228.246182
g1 x55.359579 y227.289832
g1 x55.615925 y226.333286
g1 x56.316266 y225.633241
g1 x57.274341 y225.377316
g1 z-1 f100
g1 x58.231139 y225.633183 f250
g1 x58.93135 y226.333115
g1 x59.187879 y227.289901
g1 x58.931479 y228.246192
g1 x58.230912 y228.94648
g1 x57.274474 y229.202216
g1 x56.316194 y228.94625
g1 x55.615888 y228.246182
g1 x55.359579 y227.289832
g1 x55.615925 y226.333286
g1 x56.316266 y225.633241
g1 x57.274341 y225.377316
g1 z-1.5 f100
g1 x58.231139 y225.633183 f250
g1 x58.93135 y226.333115
g1 x59.187879 y227.289901
g1 x58.931479 y228.246192
g1 x58.230912 y228.94648
g1 x57.274474 y229.202216
g1 x56.316194 y228.94625
g1 x55.615888 y228.246182
g1 x55.359579 y227.289832
g1 x55.615925 y226.333286
g1 x56.316266 y225.633241
g1 x57.274341 y225.377316
g1 z-2 f100
g1 x58.231139 y225.633183 f250
g1 x58.93135 y226.333115
g1 x59.187879 y227.289901
g1 x58.931479 y228.246192
g1 x58.230912 y228.94648
g1 x57.274474 y229.202216
g1 x56.316194 y228.94625
g1 x55.615888 y228.246182
g1 x55.359579 y227.289832
g1 x55.615925 y226.333286
g1 x56.316266 y225.633241
g1 x57.274341 y225.377316
g1 z-2.5 f100
g1 x58.231139 y225.633183 f250
g1 x58.93135 y226.333115
g1 x59.187879 y227.289901
g1 x58.931479 y228.246192
g1 x58.230912 y228.94648
g1 x57.274474 y229.202216
g1 x56.316194 y228.94625
g1 x55.615888 y228.246182
g1 x55.359579 y227.289832
g1 x55.615925 y226.333286
g1 x56.316266 y225.633241
g1 x57.274341 y225.377316
g1 z-3 f100
g1 x58.231139 y225.633183 f250
g1 x58.93135 y226.333115
g1 x59.187879 y227.289901
g1 x58.931479 y228.246192
g1 x58.230912 y228.94648
g1 x57.274474 y229.202216
g1 x56.316194 y228.94625
g1 x55.615888 y228.246182
g1 x55.359579 y227.289832
g1 x55.615925 y226.333286
g1 x56.316266 y225.633241
g1 x57.274341 y225.377316
g1 z-3.5 f100
g1 x58.231139 y225.633183 f250
g1 x58.93135 y226.333115
g1 x59.187879 y227.289901
g1 x58.931479 y228.246192
g1 x58.230912 y228.94648
g1 x57.274474 y229.202216
g1 x56.316194 y228.94625
g1 x55.615888 y228.246182
g1 x55.359579 y227.289832
g1 x55.615925 y226.333286
g1 x56.316266 y225.633241
g1 x57.274341 y225.377316
g1 z-4 f100
g1 x58.231139 y225.633183 f250
g1 x58.93135 y226.333115
g1 x59.187879 y227.289901
g1 x58.931479 y228.246192
g1 x58.230912 y228.94648
g1 x57.274474 y229.202216
g1 x56.316194 y228.94625
g1 x55.615888 y228.246182
g1 x55.359579 y227.289832
g1 x55.615925 y226.333286
g1 x56.316266 y225.633241
g1 x57.274341 y225.377316
g0 z5
(Block-name: path92)
(Block-expand: 0)
(Block-enable: 0)

(End cutting path id: path92)


(Start cutting path id: path92)
(Change tool to Default tool)

G0 Z5
G0 X64.351279 Y222.252016

G1 Z-0.125 F100
G3 X64.456179 Y222.098116 Z-0.125 I0.4584 J0.1997 F400
G3 X64.609979 Y221.993316 Z-0.125 I0.3535 J0.3536
G2 X65.342579 Y221.330916 Z-0.125 I-0.6191 J-1.421
G2 X65.526379 Y220.360616 Z-0.125 I-1.3516 J-0.7587
G2 X65.086979 Y219.476216 Z-0.125 I-1.5355 J0.2116
G2 X64.202579 Y219.036816 Z-0.125 I-1.096 J1.096
G2 X63.232279 Y219.220616 Z-0.125 I-0.2116 J1.5355
G2 X62.569979 Y219.953216 Z-0.125 I0.7587 J1.3516
G3 X62.465079 Y220.107116 Z-0.125 I-0.4584 J-0.1997
G3 X62.311279 Y220.211916 Z-0.125 I-0.3536 J-0.3535
G2 X61.578679 Y220.874216 Z-0.125 I0.619 J1.421
G2 X61.394779 Y221.844516 Z-0.125 I1.3516 J0.7587
G2 X61.834279 Y222.728916 Z-0.125 I1.5355 J-0.2116
G2 X62.718679 Y223.168416 Z-0.125 I1.096 J-1.096
G2 X63.688979 Y222.984516 Z-0.125 I0.2116 J-1.5355
G2 X64.351279 Y222.252016 Z-0.125 I-0.7587 J-1.3516
G1 X64.351279 Y222.252016 Z-0.125
G0 Z5
(Block-name: path92 [in,cut])
(Block-expand: 0)
(Block-enable: 1)
g0 x62.987613 y221.657817
g1 z-0.5 f100
g1 x63.074607 y221.488625 f250
g1 x62.905331 y221.575645
g1 x62.875772 y221.602368
g1 x62.868364 y221.641529
g1 x62.886033 y221.677028
g1 x62.921839 y221.694855
g1 x62.960794 y221.687441
g1 x62.987613 y221.657817
g1 z-1 f100
g1 x63.074607 y221.488625 f250
g1 x62.905331 y221.575645
g1 x62.875772 y221.602368
g1 x62.868364 y221.641529
g1 x62.886033 y221.677028
g1 x62.921839 y221.694855
g1 x62.960794 y221.687441
g1 x62.987613 y221.657817
g1 z-1.5 f100
g1 x63.074607 y221.488625 f250
g1 x62.905331 y221.575645
g1 x62.875772 y221.602368
g1 x62.868364 y221.641529
g1 x62.886033 y221.677028
g1 x62.921839 y221.694855
g1 x62.960794 y221.687441
g1 x62.987613 y221.657817
g1 z-2 f100
g1 x63.074607 y221.488625 f250
g1 x62.905331 y221.575645
g1 x62.875772 y221.602368
g1 x62.868364 y221.641529
g1 x62.886033 y221.677028
g1 x62.921839 y221.694855
g1 x62.960794 y221.687441
g1 x62.987613 y221.657817
g1 z-2.5 f100
g1 x63.074607 y221.488625 f250
g1 x62.905331 y221.575645
g1 x62.875772 y221.602368
g1 x62.868364 y221.641529
g1 x62.886033 y221.677028
g1 x62.921839 y221.694855
g1 x62.960794 y221.687441
g1 x62.987613 y221.657817
g1 z-3 f100
g1 x63.074607 y221.488625 f250
g1 x62.905331 y221.575645
g1 x62.875772 y221.602368
g1 x62.868364 y221.641529
g1 x62.886033 y221.677028
g1 x62.921839 y221.694855
g1 x62.960794 y221.687441
g1 x62.987613 y221.657817
g1 z-3.5 f100
g1 x63.074607 y221.488625 f250
g1 x62.905331 y221.575645
g1 x62.875772 y221.602368
g1 x62.868364 y221.641529
g1 x62.886033 y221.677028
g1 x62.921839 y221.694855
g1 x62.960794 y221.687441
g1 x62.987613 y221.657817
g1 z-4 f100
g1 x63.074607 y221.488625 f250
g1 x62.905331 y221.575645
g1 x62.875772 y221.602368
g1 x62.868364 y221.641529
g1 x62.886033 y221.677028
g1 x62.921839 y221.694855
g1 x62.960794 y221.687441
g1 x62.987613 y221.657817
g0 z5
g0 x63.846651 y220.716607
g1 z-0.5 f100
g1 x64.015846 y220.629622 f250
g1 x64.04542 y220.602882
g1 x64.052835 y220.563896
g1 x64.035034 y220.527914
g1 x63.999686 y220.510414
g1 x63.960206 y220.517836
g1 x63.933725 y220.547229
g1 x63.846651 y220.716607
g1 z-1 f100
g1 x64.015846 y220.629622 f250
g1 x64.04542 y220.602882
g1 x64.052835 y220.563896
g1 x64.035034 y220.527914
g1 x63.999686 y220.510414
g1 x63.960206 y220.517836
g1 x63.933725 y220.547229
g1 x63.846651 y220.716607
g1 z-1.5 f100
g1 x64.015846 y220.629622 f250
g1 x64.04542 y220.602882
g1 x64.052835 y220.563896
g1 x64.035034 y220.527914
g1 x63.999686 y220.510414
g1 x63.960206 y220.517836
g1 x63.933725 y220.547229
g1 x63.846651 y220.716607
g1 z-2 f100
g1 x64.015846 y220.629622 f250
g1 x64.04542 y220.602882
g1 x64.052835 y220.563896
g1 x64.035034 y220.527914
g1 x63.999686 y220.510414
g1 x63.960206 y220.517836
g1 x63.933725 y220.547229
g1 x63.846651 y220.716607
g1 z-2.5 f100
g1 x64.015846 y220.629622 f250
g1 x64.04542 y220.602882
g1 x64.052835 y220.563896
g1 x64.035034 y220.527914
g1 x63.999686 y220.510414
g1 x63.960206 y220.517836
g1 x63.933725 y220.547229
g1 x63.846651 y220.716607
g1 z-3 f100
g1 x64.015846 y220.629622 f250
g1 x64.04542 y220.602882
g1 x64.052835 y220.563896
g1 x64.035034 y220.527914
g1 x63.999686 y220.510414
g1 x63.960206 y220.517836
g1 x63.933725 y220.547229
g1 x63.846651 y220.716607
g1 z-3.5 f100
g1 x64.015846 y220.629622 f250
g1 x64.04542 y220.602882
g1 x64.052835 y220.563896
g1 x64.035034 y220.527914
g1 x63.999686 y220.510414
g1 x63.960206 y220.517836
g1 x63.933725 y220.547229
g1 x63.846651 y220.716607
g1 z-4 f100
g1 x64.015846 y220.629622 f250
g1 x64.04542 y220.602882
g1 x64.052835 y220.563896
g1 x64.035034 y220.527914
g1 x63.999686 y220.510414
g1 x63.960206 y220.517836
g1 x63.933725 y220.547229
g1 x63.846651 y220.716607
g0 z5
(Block-name: path94)
(Block-expand: 0)
(Block-enable: 0)

(End cutting path id: path94)


(Start cutting path id: path94)
(Change tool to Default tool)

G0 Z5
G0 X62.311279 Y234.367616

G1 Z-0.125 F100
G3 X62.465079 Y234.472516 Z-0.125 I-0.1997 J0.4584 F400
G3 X62.569979 Y234.626316 Z-0.125 I-0.3536 J0.3535
G2 X63.232279 Y235.358916 Z-0.125 I1.421 J-0.6191
G2 X64.202579 Y235.542716 Z-0.125 I0.7587 J-1.3516
G2 X65.086979 Y235.103316 Z-0.125 I-0.2116 J-1.5355
G2 X65.526379 Y234.218916 Z-0.125 I-1.096 J-1.096
G2 X65.342579 Y233.248616 Z-0.125 I-1.5355 J-0.2116
G2 X64.609979 Y232.586216 Z-0.125 I-1.3516 J0.7587
G3 X64.456179 Y232.481416 Z-0.125 I0.1997 J-0.4584
G3 X64.351279 Y232.327616 Z-0.125 I0.3535 J-0.3536
G2 X63.688979 Y231.595016 Z-0.125 I-1.421 J0.619
G2 X62.718679 Y231.411116 Z-0.125 I-0.7587 J1.3516
G2 X61.834279 Y231.850616 Z-0.125 I0.2116 J1.5355
G2 X61.394779 Y232.735016 Z-0.125 I1.096 J1.096
G2 X61.578679 Y233.705316 Z-0.125 I1.5355 J0.2116
G2 X62.311279 Y234.367616 Z-0.125 I1.3516 J-0.7587
G1 X62.311279 Y234.367616 Z-0.125
G0 Z5
(Block-name: path94 [in,cut])
(Block-expand: 0)
(Block-enable: 1)
g0 x62.905292 y233.00387
g1 z-0.5 f100
g1 x63.074514 y233.090851 f250
g1 x62.98755 y232.921668
g1 x62.960827 y232.892109
g1 x62.921666 y232.884701
g1 x62.886167 y232.90237
g1 x62.86834 y232.938176
g1 x62.875754 y232.977131
g1 x62.905292 y233.00387
g1 z-1 f100
g1 x63.074514 y233.090851 f250
g1 x62.98755 y232.921668
g1 x62.960827 y232.892109
g1 x62.921666 y232.884701
g1 x62.886167 y232.90237
g1 x62.86834 y232.938176
g1 x62.875754 y232.977131
g1 x62.905292 y233.00387
g1 z-1.5 f100
g1 x63.074514 y233.090851 f250
g1 x62.98755 y232.921668
g1 x62.960827 y232.892109
g1 x62.921666 y232.884701
g1 x62.886167 y232.90237
g1 x62.86834 y232.938176
g1 x62.875754 y232.977131
g1 x62.905292 y233.00387
g1 z-2 f100
g1 x63.074514 y233.090851 f250
g1 x62.98755 y232.921668
g1 x62.960827 y232.892109
g1 x62.921666 y232.884701
g1 x62.886167 y232.90237
g1 x62.86834 y232.938176
g1 x62.875754 y232.977131
g1 x62.905292 y233.00387
g1 z-2.5 f100
g1 x63.074514 y233.090851 f250
g1 x62.98755 y232.921668
g1 x62.960827 y232.892109
g1 x62.921666 y232.884701
g1 x62.886167 y232.90237
g1 x62.86834 y232.938176
g1 x62.875754 y232.977131
g1 x62.905292 y233.00387
g1 z-3 f100
g1 x63.074514 y233.090851 f250
g1 x62.98755 y232.921668
g1 x62.960827 y232.892109
g1 x62.921666 y232.884701
g1 x62.886167 y232.90237
g1 x62.86834 y232.938176
g1 x62.875754 y232.977131
g1 x62.905292 y233.00387
g1 z-3.5 f100
g1 x63.074514 y233.090851 f250
g1 x62.98755 y232.921668
g1 x62.960827 y232.892109
g1 x62.921666 y232.884701
g1 x62.886167 y232.90237
g1 x62.86834 y232.938176
g1 x62.875754 y232.977131
g1 x62.905292 y233.00387
g1 z-4 f100
g1 x63.074514 y233.090851 f250
g1 x62.98755 y232.921668
g1 x62.960827 y232.892109
g1 x62.921666 y232.884701
g1 x62.886167 y232.90237
g1 x62.86834 y232.938176
g1 x62.875754 y232.977131
g1 x62.905292 y233.00387
g0 z5
g0 x63.846651 y233.862925
g1 z-0.5 f100
g1 x63.933673 y234.032183 f250
g1 x63.960508 y234.061866
g1 x63.999299 y234.069172
g1 x64.035281 y234.051371
g1 x64.052781 y234.016023
g1 x64.045359 y233.976543
g1 x64.015761 y233.949873
g1 x63.846651 y233.862925
g1 z-1 f100
g1 x63.933673 y234.032183 f250
g1 x63.960508 y234.061866
g1 x63.999299 y234.069172
g1 x64.035281 y234.051371
g1 x64.052781 y234.016023
g1 x64.045359 y233.976543
g1 x64.015761 y233.949873
g1 x63.846651 y233.862925
g1 z-1.5 f100
g1 x63.933673 y234.032183 f250
g1 x63.960508 y234.061866
g1 x63.999299 y234.069172
g1 x64.035281 y234.051371
g1 x64.052781 y234.016023
g1 x64.045359 y233.976543
g1 x64.015761 y233.949873
g1 x63.846651 y233.862925
g1 z-2 f100
g1 x63.933673 y234.032183 f250
g1 x63.960508 y234.061866
g1 x63.999299 y234.069172
g1 x64.035281 y234.051371
g1 x64.052781 y234.016023
g1 x64.045359 y233.976543
g1 x64.015761 y233.949873
g1 x63.846651 y233.862925
g1 z-2.5 f100
g1 x63.933673 y234.032183 f250
g1 x63.960508 y234.061866
g1 x63.999299 y234.069172
g1 x64.035281 y234.051371
g1 x64.052781 y234.016023
g1 x64.045359 y233.976543
g1 x64.015761 y233.949873
g1 x63.846651 y233.862925
g1 z-3 f100
g1 x63.933673 y234.032183 f250
g1 x63.960508 y234.061866
g1 x63.999299 y234.069172
g1 x64.035281 y234.051371
g1 x64.052781 y234.016023
g1 x64.045359 y233.976543
g1 x64.015761 y233.949873
g1 x63.846651 y233.862925
g1 z-3.5 f100
g1 x63.933673 y234.032183 f250
g1 x63.960508 y234.061866
g1 x63.999299 y234.069172
g1 x64.035281 y234.051371
g1 x64.052781 y234.016023
g1 x64.045359 y233.976543
g1 x64.015761 y233.949873
g1 x63.846651 y233.862925
g1 z-4 f100
g1 x63.933673 y234.032183 f250
g1 x63.960508 y234.061866
g1 x63.999299 y234.069172
g1 x64.035281 y234.051371
g1 x64.052781 y234.016023
g1 x64.045359 y233.976543
g1 x64.015761 y233.949873
g1 x63.846651 y233.862925
g0 z5
(Block-name: path104)
(Block-expand: 0)
(Block-enable: 0)

(End cutting path id: path104)


(Start cutting path id: path104)
(Change tool to Default tool)

G0 Z5
G0 X51.976979 Y234.626316

G1 Z-0.125 F100
G3 X52.081779 Y234.472516 Z-0.125 I0.4584 J0.1997 F400
G3 X52.235679 Y234.367616 Z-0.125 I0.3536 J0.3535
G2 X52.968179 Y233.705316 Z-0.125 I-0.619 J-1.421
G2 X53.152079 Y232.735016 Z-0.125 I-1.3516 J-0.7587
G2 X52.712679 Y231.850616 Z-0.125 I-1.5355 J0.2116
G2 X51.828179 Y231.411116 Z-0.125 I-1.096 J1.096
G2 X50.857879 Y231.595016 Z-0.125 I-0.2116 J1.5355
G2 X50.195579 Y232.327616 Z-0.125 I0.7587 J1.3516
G3 X50.090779 Y232.481416 Z-0.125 I-0.4584 J-0.1997
G3 X49.936879 Y232.586216 Z-0.125 I-0.3535 J-0.3536
G2 X49.204279 Y233.248616 Z-0.125 I0.6191 J1.421
G2 X49.020479 Y234.218916 Z-0.125 I1.3516 J0.7587
G2 X49.459979 Y235.103316 Z-0.125 I1.5355 J-0.2116
G2 X50.344379 Y235.542716 Z-0.125 I1.096 J-1.096
G2 X51.314679 Y235.358916 Z-0.125 I0.2116 J-1.5355
G2 X51.976979 Y234.626316 Z-0.125 I-0.7587 J-1.3516
G1 X51.976979 Y234.626316 Z-0.125
G0 Z5
(Block-name: path104 [in,cut])
(Block-expand: 0)
(Block-enable: 1)
g0 x50.613233 y234.032303
g1 z-0.5 f100
g1 x50.700363 y233.862832 f250
g1 x50.531012 y233.94991
g1 x50.501438 y233.97665
g1 x50.494023 y234.015636
g1 x50.511733 y234.051428
g1 x50.547272 y234.069118
g1 x50.586752 y234.061696
g1 x50.613233 y234.032303
g1 z-1 f100
g1 x50.700363 y233.862832 f250
g1 x50.531012 y233.94991
g1 x50.501438 y233.97665
g1 x50.494023 y234.015636
g1 x50.511733 y234.051428
g1 x50.547272 y234.069118
g1 x50.586752 y234.061696
g1 x50.613233 y234.032303
g1 z-1.5 f100
g1 x50.700363 y233.862832 f250
g1 x50.531012 y233.94991
g1 x50.501438 y233.97665
g1 x50.494023 y234.015636
g1 x50.511733 y234.051428
g1 x50.547272 y234.069118
g1 x50.586752 y234.061696
g1 x50.613233 y234.032303
g1 z-2 f100
g1 x50.700363 y233.862832 f250
g1 x50.531012 y233.94991
g1 x50.501438 y233.97665
g1 x50.494023 y234.015636
g1 x50.511733 y234.051428
g1 x50.547272 y234.069118
g1 x50.586752 y234.061696
g1 x50.613233 y234.032303
g1 z-2.5 f100
g1 x50.700363 y233.862832 f250
g1 x50.531012 y233.94991
g1 x50.501438 y233.97665
g1 x50.494023 y234.015636
g1 x50.511733 y234.051428
g1 x50.547272 y234.069118
g1 x50.586752 y234.061696
g1 x50.613233 y234.032303
g1 z-3 f100
g1 x50.700363 y233.862832 f250
g1 x50.531012 y233.94991
g1 x50.501438 y233.97665
g1 x50.494023 y234.015636
g1 x50.511733 y234.051428
g1 x50.547272 y234.069118
g1 x50.586752 y234.061696
g1 x50.613233 y234.032303
g1 z-3.5 f100
g1 x50.700363 y233.862832 f250
g1 x50.531012 y233.94991
g1 x50.501438 y233.97665
g1 x50.494023 y234.015636
g1 x50.511733 y234.051428
g1 x50.547272 y234.069118
g1 x50.586752 y234.061696
g1 x50.613233 y234.032303
g1 z-4 f100
g1 x50.700363 y233.862832 f250
g1 x50.531012 y233.94991
g1 x50.501438 y233.97665
g1 x50.494023 y234.015636
g1 x50.511733 y234.051428
g1 x50.547272 y234.069118
g1 x50.586752 y234.061696
g1 x50.613233 y234.032303
g0 z5
g0 x51.472288 y233.090944
g1 z-0.5 f100
g1 x51.641627 y233.003887 f250
g1 x51.670987 y232.97734
g1 x51.678494 y232.938003
g1 x51.660734 y232.902314
g1 x51.625152 y232.884695
g1 x51.586064 y232.892091
g1 x51.559325 y232.921629
g1 x51.472288 y233.090944
g1 z-1 f100
g1 x51.641627 y233.003887 f250
g1 x51.670987 y232.97734
g1 x51.678494 y232.938003
g1 x51.660734 y232.902314
g1 x51.625152 y232.884695
g1 x51.586064 y232.892091
g1 x51.559325 y232.921629
g1 x51.472288 y233.090944
g1 z-1.5 f100
g1 x51.641627 y233.003887 f250
g1 x51.670987 y232.97734
g1 x51.678494 y232.938003
g1 x51.660734 y232.902314
g1 x51.625152 y232.884695
g1 x51.586064 y232.892091
g1 x51.559325 y232.921629
g1 x51.472288 y233.090944
g1 z-2 f100
g1 x51.641627 y233.003887 f250
g1 x51.670987 y232.97734
g1 x51.678494 y232.938003
g1 x51.660734 y232.902314
g1 x51.625152 y232.884695
g1 x51.586064 y232.892091
g1 x51.559325 y232.921629
g1 x51.472288 y233.090944
g1 z-2.5 f100
g1 x51.641627 y233.003887 f250
g1 x51.670987 y232.97734
g1 x51.678494 y232.938003
g1 x51.660734 y232.902314
g1 x51.625152 y232.884695
g1 x51.586064 y232.892091
g1 x51.559325 y232.921629
g1 x51.472288 y233.090944
g1 z-3 f100
g1 x51.641627 y233.003887 f250
g1 x51.670987 y232.97734
g1 x51.678494 y232.938003
g1 x51.660734 y232.902314
g1 x51.625152 y232.884695
g1 x51.586064 y232.892091
g1 x51.559325 y232.921629
g1 x51.472288 y233.090944
g1 z-3.5 f100
