%
(Header)
(Generated by gcodetools from Inkscape.)
(Using default header. To add your own header create file "header" in the output dir.)
M3
(Header end.)
G21 (All units in mm)

(Start cutting path id: path345)
(Change tool to Default tool)

G00 Z 5.0000
G00 X 150.5061 Y 253.2094

G01 Z -0.1250 F 100.0000(Penetrate)
G03 X 150.3587 Y 253.7594 Z -0.1250 I -1.1000 J 0.0000 F 400.0000
G03 X 149.9561 Y 254.1620 Z -0.1250 I -0.9526 J -0.5500
G03 X 149.4061 Y 254.3094 Z -0.1250 I -0.5500 J -0.9526
G03 X 148.8561 Y 254.1620 Z -0.1250 I 0.0000 J -1.1000
G03 X 148.4534 Y 253.7594 Z -0.1250 I 0.5500 J -0.9526
G03 X 148.3061 Y 253.2094 Z -0.1250 I 0.9526 J -0.5500
G03 X 148.4534 Y 252.6594 Z -0.1250 I 1.1000 J -0.0000
G03 X 148.8561 Y 252.2568 Z -0.1250 I 0.9526 J 0.5500
G03 X 149.4061 Y 252.1094 Z -0.1250 I 0.5500 J 0.9526
G03 X 149.9561 Y 252.2568 Z -0.1250 I -0.0000 J 1.1000
G03 X 150.3587 Y 252.6594 Z -0.1250 I -0.5500 J 0.9526
G03 X 150.5061 Y 253.2094 Z -0.1250 I -0.9526 J 0.5500
G01 X 150.5061 Y 253.2094 Z -0.1250
G00 Z 5.0000

(End cutting path id: path345)


(Start cutting path id: path345)
(Change tool to Default tool)

G00 Z 5.0000
G00 X 150.5061 Y 253.2094

G01 Z -0.1250 F 100.0000(Penetrate)
G03 X 150.3587 Y 253.7594 Z -0.1250 I -1.1000 J 0.0000 F 400.0000
G03 X 149.9561 Y 254.1620 Z -0.1250 I -0.9526 J -0.5500
G03 X 149.4061 Y 254.3094 Z -0.1250 I -0.5500 J -0.9526
G03 X 148.8561 Y 254.1620 Z -0.1250 I 0.0000 J -1.1000
G03 X 148.4534 Y 253.7594 Z -0.1250 I 0.5500 J -0.9526
G03 X 148.3061 Y 253.2094 Z -0.1250 I 0.9526 J -0.5500
G03 X 148.4534 Y 252.6594 Z -0.1250 I 1.1000 J -0.0000
G03 X 148.8561 Y 252.2568 Z -0.1250 I 0.9526 J 0.5500
G03 X 149.4061 Y 252.1094 Z -0.1250 I 0.5500 J 0.9526
G03 X 149.9561 Y 252.2568 Z -0.1250 I -0.0000 J 1.1000
G03 X 150.3587 Y 252.6594 Z -0.1250 I -0.5500 J 0.9526
G03 X 150.5061 Y 253.2094 Z -0.1250 I -0.9526 J 0.5500
G01 X 150.5061 Y 253.2094 Z -0.1250
G00 Z 5.0000

(End cutting path id: path345)


(Start cutting path id: path319)
(Change tool to Default tool)

G00 Z 5.0000
G00 X 157.5060 Y 253.2094

G01 Z -0.1250 F 100.0000(Penetrate)
G03 X 157.3589 Y 253.7596 Z -0.1250 I -1.1000 J 0.0005 F 400.0000
G03 X 156.9562 Y 254.1625 Z -0.1250 I -0.9528 J -0.5497
G03 X 156.4061 Y 254.3099 Z -0.1250 I -0.5502 J -0.9525
G03 X 155.8559 Y 254.1625 Z -0.1250 I -0.0000 J -1.1000
G03 X 155.4532 Y 253.7596 Z -0.1250 I 0.5502 J -0.9525
G03 X 155.3061 Y 253.2094 Z -0.1250 I 0.9528 J -0.5497
G03 X 155.4532 Y 252.6592 Z -0.1250 I 1.1000 J -0.0005
G03 X 155.8559 Y 252.2563 Z -0.1250 I 0.9528 J 0.5497
G03 X 156.4061 Y 252.1088 Z -0.1250 I 0.5502 J 0.9525
G03 X 156.9562 Y 252.2563 Z -0.1250 I 0.0000 J 1.1000
G03 X 157.3589 Y 252.6592 Z -0.1250 I -0.5502 J 0.9525
G03 X 157.5060 Y 253.2094 Z -0.1250 I -0.9528 J 0.5497
G01 X 157.5060 Y 253.2094 Z -0.1250
G00 Z 5.0000

(End cutting path id: path319)


(Start cutting path id: path319)
(Change tool to Default tool)

G00 Z 5.0000
G00 X 157.5060 Y 253.2094

G01 Z -0.1250 F 100.0000(Penetrate)
G03 X 157.3589 Y 253.7596 Z -0.1250 I -1.1000 J 0.0005 F 400.0000
G03 X 156.9562 Y 254.1625 Z -0.1250 I -0.9528 J -0.5497
G03 X 156.4061 Y 254.3099 Z -0.1250 I -0.5502 J -0.9525
G03 X 155.8559 Y 254.1625 Z -0.1250 I -0.0000 J -1.1000
G03 X 155.4532 Y 253.7596 Z -0.1250 I 0.5502 J -0.9525
G03 X 155.3061 Y 253.2094 Z -0.1250 I 0.9528 J -0.5497
G03 X 155.4532 Y 252.6592 Z -0.1250 I 1.1000 J -0.0005
G03 X 155.8559 Y 252.2563 Z -0.1250 I 0.9528 J 0.5497
G03 X 156.4061 Y 252.1088 Z -0.1250 I 0.5502 J 0.9525
G03 X 156.9562 Y 252.2563 Z -0.1250 I 0.0000 J 1.1000
G03 X 157.3589 Y 252.6592 Z -0.1250 I -0.5502 J 0.9525
G03 X 157.5060 Y 253.2094 Z -0.1250 I -0.9528 J 0.5497
G01 X 157.5060 Y 253.2094 Z -0.1250
G00 Z 5.0000

(End cutting path id: path319)


(Start cutting path id: path317)
(Change tool to Default tool)

G00 Z 5.0000
G00 X 158.1488 Y 257.9977

G01 Z -0.1250 F 100.0000(Penetrate)
G02 X 157.4535 Y 258.1132 Z -0.1250 I -0.1899 J 1.0073 F 400.0000
G02 X 156.9972 Y 258.6506 Z -0.1250 I 0.5055 J 0.8917
G02 X 156.9958 Y 259.3555 Z -0.1250 I 0.9618 J 0.3544
G02 X 157.4500 Y 259.8946 Z -0.1250 I 0.9632 J -0.3506
G02 X 158.1449 Y 260.0129 Z -0.1250 I 0.5090 J -0.8897
G02 X 158.7519 Y 259.6545 Z -0.1250 I -0.1859 J -1.0080
G02 X 159.3749 Y 259.5762 Z -0.1250 I 0.1899 J -1.0073
G02 X 159.8354 Y 259.1492 Z -0.1250 I -0.4332 J -0.9290
G02 X 160.4354 Y 258.9639 Z -0.1250 I 0.0121 J -1.0249
G02 X 160.8148 Y 258.4635 Z -0.1250 I -0.5879 J -0.8396
G02 X 161.3735 Y 258.1768 Z -0.1250 I -0.1661 J -1.0115
G02 X 161.6601 Y 257.6181 Z -0.1250 I -0.7248 J -0.7248
G02 X 162.2046 Y 257.1703 Z -0.1250 I -0.3392 J -0.9673
G02 X 162.3311 Y 256.4768 Z -0.1250 I -0.8836 J -0.5195
G02 X 161.9798 Y 255.8656 Z -0.1250 I -1.0101 J 0.1740
G02 X 161.3169 Y 255.6258 Z -0.1250 I -0.6589 J 0.7852
G02 X 160.6559 Y 255.8708 Z -0.1250 I 0.0040 J 1.0250
G02 X 160.3095 Y 256.4848 Z -0.1250 I 0.6650 J 0.7800
G02 X 159.9239 Y 256.7272 Z -0.1250 I 0.3392 J 0.9673
G02 X 159.6814 Y 257.1128 Z -0.1250 I 0.7248 J 0.7248
G02 X 159.2596 Y 257.2846 Z -0.1250 I 0.1661 J 1.0115
G02 X 158.9538 Y 257.6223 Z -0.1250 I 0.5879 J 0.8396
G02 X 158.5086 Y 257.7182 Z -0.1250 I -0.0121 J 1.0249
G02 X 158.1488 Y 257.9977 Z -0.1250 I 0.4332 J 0.9290
G01 X 158.1488 Y 257.9977 Z -0.1250
G00 Z 5.0000

(End cutting path id: path317)


(Start cutting path id: path317)
(Change tool to Default tool)

G00 Z 5.0000
G00 X 158.1488 Y 257.9977

G01 Z -0.1250 F 100.0000(Penetrate)
G02 X 157.4535 Y 258.1132 Z -0.1250 I -0.1899 J 1.0073 F 400.0000
G02 X 156.9972 Y 258.6506 Z -0.1250 I 0.5055 J 0.8917
G02 X 156.9958 Y 259.3555 Z -0.1250 I 0.9618 J 0.3544
G02 X 157.4500 Y 259.8946 Z -0.1250 I 0.9632 J -0.3506
G02 X 158.1449 Y 260.0129 Z -0.1250 I 0.5090 J -0.8897
G02 X 158.7519 Y 259.6545 Z -0.1250 I -0.1859 J -1.0080
G02 X 159.3749 Y 259.5762 Z -0.1250 I 0.1899 J -1.0073
G02 X 159.8354 Y 259.1492 Z -0.1250 I -0.4332 J -0.9290
G02 X 160.4354 Y 258.9639 Z -0.1250 I 0.0121 J -1.0249
G02 X 160.8148 Y 258.4635 Z -0.1250 I -0.5879 J -0.8396
G02 X 161.3735 Y 258.1768 Z -0.1250 I -0.1661 J -1.0115
G02 X 161.6601 Y 257.6181 Z -0.1250 I -0.7248 J -0.7248
G02 X 162.2046 Y 257.1703 Z -0.1250 I -0.3392 J -0.9673
G02 X 162.3311 Y 256.4768 Z -0.1250 I -0.8836 J -0.5195
G02 X 161.9798 Y 255.8656 Z -0.1250 I -1.0101 J 0.1740
G02 X 161.3169 Y 255.6258 Z -0.1250 I -0.6589 J 0.7852
G02 X 160.6559 Y 255.8708 Z -0.1250 I 0.0040 J 1.0250
G02 X 160.3095 Y 256.4848 Z -0.1250 I 0.6650 J 0.7800
G02 X 159.9239 Y 256.7272 Z -0.1250 I 0.3392 J 0.9673
G02 X 159.6814 Y 257.1128 Z -0.1250 I 0.7248 J 0.7248
G02 X 159.2596 Y 257.2846 Z -0.1250 I 0.1661 J 1.0115
G02 X 158.9538 Y 257.6223 Z -0.1250 I 0.5879 J 0.8396
G02 X 158.5086 Y 257.7182 Z -0.1250 I -0.0121 J 1.0249
G02 X 158.1488 Y 257.9977 Z -0.1250 I 0.4332 J 0.9290
G01 X 158.1488 Y 257.9977 Z -0.1250
G00 Z 5.0000

(End cutting path id: path317)


(Start cutting path id: path321)
(Change tool to Default tool)

G00 Z 5.0000
G00 X 162.2748 Y 258.4979

G01 Z -0.1250 F 100.0000(Penetrate)
G02 X 164.3034 Y 253.0066 Z -0.1250 I -5.8687 J -5.2885 F 400.0000
G02 X 161.9956 Y 247.6266 Z -0.1250 I -7.8974 J 0.2028
G03 X 161.6748 Y 246.8489 Z -0.1250 I 0.7792 J -0.7764
G03 X 161.9974 Y 246.0719 Z -0.1250 I 1.1000 J 0.0013
G03 X 162.7748 Y 245.7502 Z -0.1250 I 0.7773 J 0.7783
G03 X 163.5521 Y 246.0719 Z -0.1250 I -0.0000 J 1.1000
G03 X 166.5027 Y 252.9501 Z -0.1250 I -7.1461 J 7.1374
G03 X 163.9091 Y 259.9706 Z -0.1250 I -10.0967 J 0.2593
G03 X 163.4314 Y 260.2805 Z -0.1250 I -0.8172 J -0.7364
G03 X 162.8628 Y 260.3101 Z -0.1250 I -0.3395 J -1.0463
G03 X 162.3555 Y 260.0514 Z -0.1250 I 0.2291 J -1.0759
G03 X 162.0456 Y 259.5737 Z -0.1250 I 0.7364 J -0.8172
G03 X 162.0161 Y 259.0051 Z -0.1250 I 1.0463 J -0.3395
G03 X 162.2748 Y 258.4979 Z -0.1250 I 1.0759 J 0.2291
G01 X 162.2748 Y 258.4979 Z -0.1250
G00 Z 5.0000

(End cutting path id: path321)


(Start cutting path id: path321)
(Change tool to Default tool)

G00 Z 5.0000
G00 X 162.2748 Y 258.4979

G01 Z -0.1250 F 100.0000(Penetrate)
G02 X 164.3034 Y 253.0066 Z -0.1250 I -5.8687 J -5.2885 F 400.0000
G02 X 161.9956 Y 247.6266 Z -0.1250 I -7.8974 J 0.2028
G03 X 161.6748 Y 246.8489 Z -0.1250 I 0.7792 J -0.7764
G03 X 161.9974 Y 246.0719 Z -0.1250 I 1.1000 J 0.0013
G03 X 162.7748 Y 245.7502 Z -0.1250 I 0.7773 J 0.7783
G03 X 163.5521 Y 246.0719 Z -0.1250 I -0.0000 J 1.1000
G03 X 166.5027 Y 252.9501 Z -0.1250 I -7.1461 J 7.1374
G03 X 163.9091 Y 259.9706 Z -0.1250 I -10.0967 J 0.2593
G03 X 163.4314 Y 260.2805 Z -0.1250 I -0.8172 J -0.7364
G03 X 162.8628 Y 260.3101 Z -0.1250 I -0.3395 J -1.0463
G03 X 162.3555 Y 260.0514 Z -0.1250 I 0.2291 J -1.0759
G03 X 162.0456 Y 259.5737 Z -0.1250 I 0.7364 J -0.8172
G03 X 162.0161 Y 259.0051 Z -0.1250 I 1.0463 J -0.3395
G03 X 162.2748 Y 258.4979 Z -0.1250 I 1.0759 J 0.2291
G01 X 162.2748 Y 258.4979 Z -0.1250
G00 Z 5.0000

(End cutting path id: path321)


(Start cutting path id: path315)
(Change tool to Default tool)

G00 Z 5.0000
G00 X 161.7747 Y 266.4052

G01 Z -0.1250 F 100.0000(Penetrate)
G02 X 161.3564 Y 264.4457 Z -0.1250 I -4.7991 J 0.0000 F 400.0000
G02 X 160.1744 Y 262.8277 Z -0.1250 I -4.3808 J 1.9596
G02 X 158.4348 Y 261.8334 Z -0.1250 I -3.1988 J 3.5776
G02 X 156.4408 Y 261.6361 Z -0.1250 I -1.4591 J 4.5719
G03 X 153.8291 Y 261.2325 Z -0.1250 I -0.0348 J -8.4267
G03 X 151.4708 Y 260.0397 Z -0.1250 I 2.5770 J -8.0231
G02 X 150.8562 Y 259.7399 Z -0.1250 I -1.1713 J 1.6211
G02 X 150.1765 Y 259.6646 Z -0.1250 I -0.5568 J 1.9209
G02 X 148.6482 Y 260.2541 Z -0.1250 I 0.1667 J 2.7081
G02 X 147.7377 Y 261.6159 Z -0.1250 I 1.6951 J 2.1186
G03 X 147.6206 Y 261.9914 Z -0.1250 I -9.6031 J -2.7893
G03 X 147.4888 Y 262.3620 Z -0.1250 I -9.4860 J -3.1648
G02 X 147.2821 Y 262.9365 Z -0.1250 I 17.8322 J 6.7396
G02 X 147.0939 Y 263.5174 Z -0.1250 I 18.0389 J 6.1651
G02 X 146.9297 Y 264.2416 Z -0.1250 I 4.7807 J 1.4646
G02 X 146.8746 Y 264.9821 Z -0.1250 I 4.9449 J 0.7405
G01 X 146.8746 Y 270.7093 Z -0.1250
G03 X 146.8365 Y 270.9007 Z -0.1250 I -0.5000 J 0.0000
G03 X 146.7282 Y 271.0629 Z -0.1250 I -0.4619 J -0.1913
G03 X 146.5659 Y 271.1713 Z -0.1250 I -0.3536 J -0.3535
G03 X 146.3746 Y 271.2094 Z -0.1250 I -0.1913 J -0.4619
G01 X 141.4246 Y 271.2094 Z -0.1250
G03 X 141.0755 Y 271.0673 Z -0.1250 I -0.0000 J -0.5000
G03 X 140.9248 Y 270.7218 Z -0.1250 I 0.3491 J -0.3579
G01 X 140.9248 Y 269.2093 Z -0.1250
G02 X 140.7779 Y 268.8564 Z -0.1250 I -0.5001 J 0.0010
G02 X 140.4247 Y 268.7102 Z -0.1250 I -0.3533 J 0.3539
G02 X 140.0714 Y 268.8564 Z -0.1250 I 0.0000 J 0.5001
G02 X 139.9246 Y 269.2093 Z -0.1250 I 0.3533 J 0.3539
G01 X 135.9748 Y 269.2093 Z -0.1250
G01 X 135.9748 Y 265.2094 Z -0.1250
G02 X 140.1951 Y 254.2094 Z -0.1250 I -12.2253 J -11.0000
G02 X 135.9748 Y 243.2094 Z -0.1250 I -16.4456 J 0.0000
G01 X 135.9748 Y 239.2094 Z -0.1250
G01 X 138.9748 Y 239.2094 Z -0.1250
G02 X 139.3721 Y 240.6922 Z -0.1250 I 2.9657 J -0.0000
G02 X 140.4576 Y 241.7777 Z -0.1250 I 2.5683 J -1.4828
G02 X 141.9404 Y 242.1750 Z -0.1250 I 1.4828 J -2.5683
G02 X 143.4232 Y 241.7777 Z -0.1250 I 0.0000 J -2.9657
G02 X 144.5087 Y 240.6922 Z -0.1250 I -1.4828 J -2.5683
G02 X 144.9061 Y 239.2094 Z -0.1250 I -2.5683 J -1.4828
G01 X 147.9311 Y 239.2094 Z -0.1250
G02 X 148.0775 Y 239.5629 Z -0.1250 I 0.5000 J -0.0000
G02 X 148.4311 Y 239.7094 Z -0.1250 I 0.3536 J -0.3536
G02 X 148.7846 Y 239.5629 Z -0.1250 I -0.0000 J -0.5000
G02 X 148.9311 Y 239.2094 Z -0.1250 I -0.3536 J -0.3536
G01 X 148.9311 Y 236.7094 Z -0.1250
G03 X 148.9691 Y 236.5181 Z -0.1250 I 0.5000 J -0.0000
G03 X 149.0775 Y 236.3558 Z -0.1250 I 0.4619 J 0.1913
G03 X 149.2397 Y 236.2475 Z -0.1250 I 0.3536 J 0.3535
G03 X 149.4311 Y 236.2094 Z -0.1250 I 0.1913 J 0.4619
G01 X 159.3810 Y 236.2094 Z -0.1250
G03 X 159.5724 Y 236.2475 Z -0.1250 I -0.0000 J 0.5000
G03 X 159.7346 Y 236.3558 Z -0.1250 I -0.1913 J 0.4619
G03 X 159.8430 Y 236.5181 Z -0.1250 I -0.3536 J 0.3535
G03 X 159.8810 Y 236.7094 Z -0.1250 I -0.4619 J 0.1913
G01 X 159.8810 Y 239.2094 Z -0.1250
G02 X 160.0275 Y 239.5629 Z -0.1250 I 0.5000 J -0.0000
G02 X 160.3810 Y 239.7094 Z -0.1250 I 0.3536 J -0.3536
G02 X 160.7346 Y 239.5629 Z -0.1250 I 0.0000 J -0.5000
G02 X 160.8810 Y 239.2094 Z -0.1250 I -0.3536 J -0.3536
G01 X 163.9060 Y 239.2094 Z -0.1250
G02 X 164.2925 Y 240.6516 Z -0.1250 I 2.8843 J 0.0000
G02 X 165.3482 Y 241.7073 Z -0.1250 I 2.4979 J -1.4422
G02 X 166.7904 Y 242.0937 Z -0.1250 I 1.4422 J -2.4979
G02 X 168.2326 Y 241.7073 Z -0.1250 I -0.0000 J -2.8843
G02 X 169.2883 Y 240.6516 Z -0.1250 I -1.4422 J -2.4979
G02 X 169.6747 Y 239.2094 Z -0.1250 I -2.4979 J -1.4422
G01 X 172.6747 Y 239.2094 Z -0.1250
G01 X 172.6747 Y 243.2094 Z -0.1250
G02 X 168.4544 Y 254.2094 Z -0.1250 I 12.2253 J 11.0000
G02 X 172.6747 Y 265.2094 Z -0.1250 I 16.4456 J -0.0000
G01 X 172.6747 Y 269.2093 Z -0.1250
G01 X 168.7246 Y 269.2093 Z -0.1250
G02 X 168.6576 Y 268.9593 Z -0.1250 I -0.5000 J -0.0000
G02 X 168.4746 Y 268.7763 Z -0.1250 I -0.4330 J 0.2500
G02 X 168.2246 Y 268.7093 Z -0.1250 I -0.2500 J 0.4330
G02 X 167.9746 Y 268.7763 Z -0.1250 I 0.0000 J 0.5000
G02 X 167.7916 Y 268.9593 Z -0.1250 I 0.2500 J 0.4330
G02 X 167.7246 Y 269.2093 Z -0.1250 I 0.4330 J 0.2500
G01 X 167.7246 Y 270.7093 Z -0.1250
G03 X 167.6865 Y 270.9007 Z -0.1250 I -0.5000 J 0.0000
G03 X 167.5781 Y 271.0629 Z -0.1250 I -0.4619 J -0.1913
G03 X 167.4159 Y 271.1713 Z -0.1250 I -0.3536 J -0.3535
G03 X 167.2246 Y 271.2094 Z -0.1250 I -0.1913 J -0.4619
G01 X 162.2746 Y 271.2094 Z -0.1250
G03 X 161.9255 Y 271.0673 Z -0.1250 I -0.0000 J -0.5000
G03 X 161.7747 Y 270.7218 Z -0.1250 I 0.3491 J -0.3579
G01 X 161.7747 Y 266.4052 Z -0.1250
G00 Z 5.0000

(End cutting path id: path315)


(Start cutting path id: path315)
(Change tool to Default tool)

G00 Z 5.0000
G00 X 161.7747 Y 266.4052

G01 Z -0.1250 F 100.0000(Penetrate)
G02 X 161.3564 Y 264.4457 Z -0.1250 I -4.7991 J 0.0000 F 400.0000
G02 X 160.1744 Y 262.8277 Z -0.1250 I -4.3808 J 1.9596
G02 X 158.4348 Y 261.8334 Z -0.1250 I -3.1988 J 3.5776
G02 X 156.4408 Y 261.6361 Z -0.1250 I -1.4591 J 4.5719
G03 X 153.8291 Y 261.2325 Z -0.1250 I -0.0348 J -8.4267
G03 X 151.4708 Y 260.0397 Z -0.1250 I 2.5770 J -8.0231
G02 X 150.8562 Y 259.7399 Z -0.1250 I -1.1713 J 1.6211
G02 X 150.1765 Y 259.6646 Z -0.1250 I -0.5568 J 1.9209
G02 X 148.6482 Y 260.2541 Z -0.1250 I 0.1667 J 2.7081
G02 X 147.7377 Y 261.6159 Z -0.1250 I 1.6951 J 2.1186
G03 X 147.6206 Y 261.9914 Z -0.1250 I -9.6031 J -2.7893
G03 X 147.4888 Y 262.3620 Z -0.1250 I -9.4860 J -3.1648
G02 X 147.2821 Y 262.9365 Z -0.1250 I 17.8322 J 6.7396
G02 X 147.0939 Y 263.5174 Z -0.1250 I 18.0389 J 6.1651
G02 X 146.9297 Y 264.2416 Z -0.1250 I 4.7807 J 1.4646
G02 X 146.8746 Y 264.9821 Z -0.1250 I 4.9449 J 0.7405
G01 X 146.8746 Y 270.7093 Z -0.1250
G03 X 146.8365 Y 270.9007 Z -0.1250 I -0.5000 J 0.0000
G03 X 146.7282 Y 271.0629 Z -0.1250 I -0.4619 J -0.1913
G03 X 146.5659 Y 271.1713 Z -0.1250 I -0.3536 J -0.3535
G03 X 146.3746 Y 271.2094 Z -0.1250 I -0.1913 J -0.4619
G01 X 141.4246 Y 271.2094 Z -0.1250
G03 X 141.0755 Y 271.0673 Z -0.1250 I -0.0000 J -0.5000
G03 X 140.9248 Y 270.7218 Z -0.1250 I 0.3491 J -0.3579
G01 X 140.9248 Y 269.2093 Z -0.1250
G02 X 140.7779 Y 268.8564 Z -0.1250 I -0.5001 J 0.0010
G02 X 140.4247 Y 268.7102 Z -0.1250 I -0.3533 J 0.3539
G02 X 140.0714 Y 268.8564 Z -0.1250 I 0.0000 J 0.5001
G02 X 139.9246 Y 269.2093 Z -0.1250 I 0.3533 J 0.3539
G01 X 135.9748 Y 269.2093 Z -0.1250
G01 X 135.9748 Y 265.2094 Z -0.1250
G02 X 140.1951 Y 254.2094 Z -0.1250 I -12.2253 J -11.0000
G02 X 135.9748 Y 243.2094 Z -0.1250 I -16.4456 J 0.0000
G01 X 135.9748 Y 239.2094 Z -0.1250
G01 X 138.9748 Y 239.2094 Z -0.1250
G02 X 139.3721 Y 240.6922 Z -0.1250 I 2.9657 J -0.0000
G02 X 140.4576 Y 241.7777 Z -0.1250 I 2.5683 J -1.4828
G02 X 141.9404 Y 242.1750 Z -0.1250 I 1.4828 J -2.5683
G02 X 143.4232 Y 241.7777 Z -0.1250 I 0.0000 J -2.9657
G02 X 144.5087 Y 240.6922 Z -0.1250 I -1.4828 J -2.5683
G02 X 144.9061 Y 239.2094 Z -0.1250 I -2.5683 J -1.4828
G01 X 147.9311 Y 239.2094 Z -0.1250
G02 X 148.0775 Y 239.5629 Z -0.1250 I 0.5000 J -0.0000
G02 X 148.4311 Y 239.7094 Z -0.1250 I 0.3536 J -0.3536
G02 X 148.7846 Y 239.5629 Z -0.1250 I -0.0000 J -0.5000
G02 X 148.9311 Y 239.2094 Z -0.1250 I -0.3536 J -0.3536
G01 X 148.9311 Y 236.7094 Z -0.1250
G03 X 148.9691 Y 236.5181 Z -0.1250 I 0.5000 J -0.0000
G03 X 149.0775 Y 236.3558 Z -0.1250 I 0.4619 J 0.1913
G03 X 149.2397 Y 236.2475 Z -0.1250 I 0.3536 J 0.3535
G03 X 149.4311 Y 236.2094 Z -0.1250 I 0.1913 J 0.4619
G01 X 159.3810 Y 236.2094 Z -0.1250
G03 X 159.5724 Y 236.2475 Z -0.1250 I -0.0000 J 0.5000
G03 X 159.7346 Y 236.3558 Z -0.1250 I -0.1913 J 0.4619
G03 X 159.8430 Y 236.5181 Z -0.1250 I -0.3536 J 0.3535
G03 X 159.8810 Y 236.7094 Z -0.1250 I -0.4619 J 0.1913
G01 X 159.8810 Y 239.2094 Z -0.1250
G02 X 160.0275 Y 239.5629 Z -0.1250 I 0.5000 J -0.0000
G02 X 160.3810 Y 239.7094 Z -0.1250 I 0.3536 J -0.3536
G02 X 160.7346 Y 239.5629 Z -0.1250 I 0.0000 J -0.5000
G02 X 160.8810 Y 239.2094 Z -0.1250 I -0.3536 J -0.3536
G01 X 163.9060 Y 239.2094 Z -0.1250
G02 X 164.2925 Y 240.6516 Z -0.1250 I 2.8843 J 0.0000
G02 X 165.3482 Y 241.7073 Z -0.1250 I 2.4979 J -1.4422
G02 X 166.7904 Y 242.0937 Z -0.1250 I 1.4422 J -2.4979
G02 X 168.2326 Y 241.7073 Z -0.1250 I -0.0000 J -2.8843
G02 X 169.2883 Y 240.6516 Z -0.1250 I -1.4422 J -2.4979
G02 X 169.6747 Y 239.2094 Z -0.1250 I -2.4979 J -1.4422
G01 X 172.6747 Y 239.2094 Z -0.1250
G01 X 172.6747 Y 243.2094 Z -0.1250
G02 X 168.4544 Y 254.2094 Z -0.1250 I 12.2253 J 11.0000
G02 X 172.6747 Y 265.2094 Z -0.1250 I 16.4456 J -0.0000
G01 X 172.6747 Y 269.2093 Z -0.1250
G01 X 168.7246 Y 269.2093 Z -0.1250
G02 X 168.6576 Y 268.9593 Z -0.1250 I -0.5000 J -0.0000
G02 X 168.4746 Y 268.7763 Z -0.1250 I -0.4330 J 0.2500
G02 X 168.2246 Y 268.7093 Z -0.1250 I -0.2500 J 0.4330
G02 X 167.9746 Y 268.7763 Z -0.1250 I 0.0000 J 0.5000
G02 X 167.7916 Y 268.9593 Z -0.1250 I 0.2500 J 0.4330
G02 X 167.7246 Y 269.2093 Z -0.1250 I 0.4330 J 0.2500
G01 X 167.7246 Y 270.7093 Z -0.1250
G03 X 167.6865 Y 270.9007 Z -0.1250 I -0.5000 J 0.0000
G03 X 167.5781 Y 271.0629 Z -0.1250 I -0.4619 J -0.1913
G03 X 167.4159 Y 271.1713 Z -0.1250 I -0.3536 J -0.3535
G03 X 167.2246 Y 271.2094 Z -0.1250 I -0.1913 J -0.4619
G01 X 162.2746 Y 271.2094 Z -0.1250
G03 X 161.9255 Y 271.0673 Z -0.1250 I -0.0000 J -0.5000
G03 X 161.7747 Y 270.7218 Z -0.1250 I 0.3491 J -0.3579
G01 X 161.7747 Y 266.4052 Z -0.1250
G00 Z 5.0000

(End cutting path id: path315)


(Start cutting path id: path339)
(Change tool to Default tool)

G00 Z 5.0000
G00 X 154.6309 Y 246.5844

G01 Z -0.1250 F 100.0000(Penetrate)
G02 X 154.0034 Y 246.6080 Z -0.1250 I -0.2769 J 0.9869 F 400.0000
G02 X 153.5074 Y 246.9933 Z -0.1250 I 0.3506 J 0.9632
G02 X 152.8936 Y 247.1256 Z -0.1250 I -0.1014 J 1.0200
G02 X 152.4720 Y 247.5910 Z -0.1250 I 0.5125 J 0.8877
G02 X 151.8905 Y 247.8279 Z -0.1250 I 0.0773 J 1.0221
G02 X 151.5562 Y 248.3595 Z -0.1250 I 0.6589 J 0.7852
G02 X 150.9748 Y 248.7582 Z -0.1250 I 0.2536 J 0.9931
G02 X 150.7883 Y 249.4380 Z -0.1250 I 0.8350 J 0.5945
G02 X 151.0850 Y 250.0774 Z -0.1250 I 1.0214 J -0.0853
G02 X 151.7245 Y 250.3741 Z -0.1250 I 0.7248 J -0.7248
G02 X 152.4043 Y 250.1876 Z -0.1250 I 0.0853 J -1.0214
G02 X 152.8029 Y 249.6062 Z -0.1250 I -0.5945 J -0.8350
G02 X 153.2082 Y 249.3983 Z -0.1250 I -0.2536 J -0.9931
G02 X 153.4833 Y 249.0353 Z -0.1250 I -0.6588 J -0.7852
G02 X 153.9186 Y 248.9009 Z -0.1250 I -0.0773 J -1.0221
G02 X 154.2526 Y 248.5912 Z -0.1250 I -0.5125 J -0.8877
G02 X 154.7045 Y 248.5344 Z -0.1250 I 0.1014 J -1.0200
G02 X 155.0872 Y 248.2874 Z -0.1250 I -0.3505 J -0.9632
G02 X 155.5422 Y 248.3100 Z -0.1250 I 0.2769 J -0.9869
G02 X 155.9619 Y 248.1332 Z -0.1250 I -0.1780 J -1.0094
G02 X 156.6635 Y 248.2015 Z -0.1250 I 0.4441 J -0.9238
G02 X 157.2434 Y 247.8006 Z -0.1250 I -0.2575 J -0.9921
G02 X 157.4271 Y 247.1200 Z -0.1250 I -0.8373 J -0.5912
G02 X 157.1280 Y 246.4817 Z -0.1250 I -1.0211 J 0.0893
G02 X 156.4874 Y 246.1876 Z -0.1250 I -0.7219 J 0.7276
G02 X 155.8083 Y 246.3767 Z -0.1250 I -0.0813 J 1.0218
G02 X 155.1862 Y 246.2911 Z -0.1250 I -0.4441 J 0.9238
G02 X 154.6309 Y 246.5844 Z -0.1250 I 0.1780 J 1.0094
G01 X 154.6309 Y 246.5844 Z -0.1250
G00 Z 5.0000

(End cutting path id: path339)


(Start cutting path id: path339)
(Change tool to Default tool)

G00 Z 5.0000
G00 X 154.6309 Y 246.5844

G01 Z -0.1250 F 100.0000(Penetrate)
G02 X 154.0034 Y 246.6080 Z -0.1250 I -0.2769 J 0.9869 F 400.0000
G02 X 153.5074 Y 246.9933 Z -0.1250 I 0.3506 J 0.9632
G02 X 152.8936 Y 247.1256 Z -0.1250 I -0.1014 J 1.0200
G02 X 152.4720 Y 247.5910 Z -0.1250 I 0.5125 J 0.8877
G02 X 151.8905 Y 247.8279 Z -0.1250 I 0.0773 J 1.0221
G02 X 151.5562 Y 248.3595 Z -0.1250 I 0.6589 J 0.7852
G02 X 150.9748 Y 248.7582 Z -0.1250 I 0.2536 J 0.9931
G02 X 150.7883 Y 249.4380 Z -0.1250 I 0.8350 J 0.5945
G02 X 151.0850 Y 250.0774 Z -0.1250 I 1.0214 J -0.0853
G02 X 151.7245 Y 250.3741 Z -0.1250 I 0.7248 J -0.7248
G02 X 152.4043 Y 250.1876 Z -0.1250 I 0.0853 J -1.0214
G02 X 152.8029 Y 249.6062 Z -0.1250 I -0.5945 J -0.8350
G02 X 153.2082 Y 249.3983 Z -0.1250 I -0.2536 J -0.9931
G02 X 153.4833 Y 249.0353 Z -0.1250 I -0.6588 J -0.7852
G02 X 153.9186 Y 248.9009 Z -0.1250 I -0.0773 J -1.0221
G02 X 154.2526 Y 248.5912 Z -0.1250 I -0.5125 J -0.8877
G02 X 154.7045 Y 248.5344 Z -0.1250 I 0.1014 J -1.0200
G02 X 155.0872 Y 248.2874 Z -0.1250 I -0.3505 J -0.9632
G02 X 155.5422 Y 248.3100 Z -0.1250 I 0.2769 J -0.9869
G02 X 155.9619 Y 248.1332 Z -0.1250 I -0.1780 J -1.0094
G02 X 156.6635 Y 248.2015 Z -0.1250 I 0.4441 J -0.9238
G02 X 157.2434 Y 247.8006 Z -0.1250 I -0.2575 J -0.9921
G02 X 157.4271 Y 247.1200 Z -0.1250 I -0.8373 J -0.5912
G02 X 157.1280 Y 246.4817 Z -0.1250 I -1.0211 J 0.0893
G02 X 156.4874 Y 246.1876 Z -0.1250 I -0.7219 J 0.7276
G02 X 155.8083 Y 246.3767 Z -0.1250 I -0.0813 J 1.0218
G02 X 155.1862 Y 246.2911 Z -0.1250 I -0.4441 J 0.9238
G02 X 154.6309 Y 246.5844 Z -0.1250 I 0.1780 J 1.0094
G01 X 154.6309 Y 246.5844 Z -0.1250
G00 Z 5.0000

(End cutting path id: path339)


(Start cutting path id: path341)
(Change tool to Default tool)

G00 Z 5.0000
G00 X 160.1558 Y 242.1452

G01 Z -0.1250 F 100.0000(Penetrate)
G02 X 160.1667 Y 241.9163 Z -0.1250 I -0.4807 J -0.1377 F 400.0000
G02 X 160.0744 Y 241.7065 Z -0.1250 I -0.4916 J 0.0912
G02 X 159.8982 Y 241.5600 Z -0.1250 I -0.3993 J 0.3010
G02 X 159.6751 Y 241.5075 Z -0.1250 I -0.2231 J 0.4475
G01 X 149.5602 Y 241.5075 Z -0.1250
G02 X 149.3050 Y 241.5775 Z -0.1250 I -0.0000 J 0.5000
G02 X 149.1213 Y 241.7680 Z -0.1250 I 0.2552 J 0.4300
G02 X 149.0606 Y 242.0256 Z -0.1250 I 0.4389 J 0.2394
G02 X 149.1398 Y 242.2782 Z -0.1250 I 0.4997 J -0.0182
G02 X 150.1408 Y 243.4469 Z -0.1250 I 4.7662 J -3.0688
G02 X 151.4192 Y 244.3035 Z -0.1250 I 3.7653 J -4.2376
G02 X 151.6428 Y 244.3542 Z -0.1250 I 0.2195 J -0.4493
G02 X 151.8655 Y 244.2998 Z -0.1250 I -0.0041 J -0.5000
G03 X 155.4414 Y 243.2562 Z -0.1250 I 4.5405 J 8.9097
G03 X 159.1511 Y 243.5937 Z -0.1250 I 0.9646 J 9.9534
G02 X 159.5055 Y 243.5633 Z -0.1250 I 0.1373 J -0.4808
G02 X 159.7500 Y 243.3049 Z -0.1250 I -0.2171 J -0.4504
G02 X 159.9696 Y 242.7310 Z -0.1250 I -9.8439 J -4.0954
G02 X 160.1558 Y 242.1453 Z -0.1250 I -10.0635 J -3.5214
G01 X 160.1558 Y 242.1452 Z -0.1250
G00 Z 5.0000

(End cutting path id: path341)


(Start cutting path id: path341)
(Change tool to Default tool)

G00 Z 5.0000
G00 X 160.1558 Y 242.1452

G01 Z -0.1250 F 100.0000(Penetrate)
G02 X 160.1667 Y 241.9163 Z -0.1250 I -0.4807 J -0.1377 F 400.0000
G02 X 160.0744 Y 241.7065 Z -0.1250 I -0.4916 J 0.0912
G02 X 159.8982 Y 241.5600 Z -0.1250 I -0.3993 J 0.3010
G02 X 159.6751 Y 241.5075 Z -0.1250 I -0.2231 J 0.4475
G01 X 149.5602 Y 241.5075 Z -0.1250
G02 X 149.3050 Y 241.5775 Z -0.1250 I -0.0000 J 0.5000
G02 X 149.1213 Y 241.7680 Z -0.1250 I 0.2552 J 0.4300
G02 X 149.0606 Y 242.0256 Z -0.1250 I 0.4389 J 0.2394
G02 X 149.1398 Y 242.2782 Z -0.1250 I 0.4997 J -0.0182
G02 X 150.1408 Y 243.4469 Z -0.1250 I 4.7662 J -3.0688
G02 X 151.4192 Y 244.3035 Z -0.1250 I 3.7653 J -4.2376
G02 X 151.6428 Y 244.3542 Z -0.1250 I 0.2195 J -0.4493
G02 X 151.8655 Y 244.2998 Z -0.1250 I -0.0041 J -0.5000
G03 X 155.4414 Y 243.2562 Z -0.1250 I 4.5405 J 8.9097
G03 X 159.1511 Y 243.5937 Z -0.1250 I 0.9646 J 9.9534
G02 X 159.5055 Y 243.5633 Z -0.1250 I 0.1373 J -0.4808
G02 X 159.7500 Y 243.3049 Z -0.1250 I -0.2171 J -0.4504
G02 X 159.9696 Y 242.7310 Z -0.1250 I -9.8439 J -4.0954
G02 X 160.1558 Y 242.1453 Z -0.1250 I -10.0635 J -3.5214
G01 X 160.1558 Y 242.1452 Z -0.1250
G00 Z 5.0000

(End cutting path id: path341)


(Start cutting path id: path343)
(Change tool to Default tool)

G00 Z 5.0000
G00 X 145.4721 Y 247.5910

G01 Z -0.1250 F 100.0000(Penetrate)
G02 X 144.8905 Y 247.8279 Z -0.1250 I 0.0773 J 1.0221 F 400.0000
G02 X 144.5562 Y 248.3595 Z -0.1250 I 0.6589 J 0.7852
G02 X 143.9748 Y 248.7582 Z -0.1250 I 0.2536 J 0.9931
G02 X 143.7884 Y 249.4380 Z -0.1250 I 0.8350 J 0.5945
G02 X 144.0850 Y 250.0774 Z -0.1250 I 1.0214 J -0.0853
G02 X 144.7245 Y 250.3741 Z -0.1250 I 0.7248 J -0.7248
G02 X 145.4043 Y 250.1876 Z -0.1250 I 0.0853 J -1.0214
G02 X 145.8029 Y 249.6062 Z -0.1250 I -0.5945 J -0.8350
G02 X 146.2082 Y 249.3983 Z -0.1250 I -0.2536 J -0.9931
G02 X 146.4833 Y 249.0353 Z -0.1250 I -0.6588 J -0.7852
G02 X 146.9186 Y 248.9009 Z -0.1250 I -0.0773 J -1.0221
G02 X 147.2526 Y 248.5912 Z -0.1250 I -0.5125 J -0.8877
G02 X 147.7045 Y 248.5344 Z -0.1250 I 0.1014 J -1.0200
G02 X 148.0872 Y 248.2874 Z -0.1250 I -0.3505 J -0.9632
G02 X 148.7900 Y 248.2329 Z -0.1250 I 0.2769 J -0.9869
G02 X 149.2914 Y 247.7374 Z -0.1250 I -0.4259 J -0.9323
G02 X 149.3542 Y 247.0353 Z -0.1250 I -0.9273 J -0.4368
G02 X 148.9488 Y 246.4586 Z -0.1250 I -0.9901 J 0.2653
G02 X 148.2668 Y 246.2802 Z -0.1250 I -0.5846 J 0.8419
G02 X 147.6309 Y 246.5844 Z -0.1250 I 0.0974 J 1.0204
G02 X 147.0034 Y 246.6080 Z -0.1250 I -0.2769 J 0.9869
G02 X 146.5074 Y 246.9933 Z -0.1250 I 0.3506 J 0.9632
G02 X 145.8936 Y 247.1256 Z -0.1250 I -0.1014 J 1.0200
G02 X 145.4721 Y 247.5910 Z -0.1250 I 0.5125 J 0.8877
G01 X 145.4721 Y 247.5910 Z -0.1250
G00 Z 5.0000

(End cutting path id: path343)


(Start cutting path id: path343)
(Change tool to Default tool)

G00 Z 5.0000
G00 X 145.4721 Y 247.5910

G01 Z -0.1250 F 100.0000(Penetrate)
G02 X 144.8905 Y 247.8279 Z -0.1250 I 0.0773 J 1.0221 F 400.0000
G02 X 144.5562 Y 248.3595 Z -0.1250 I 0.6589 J 0.7852
G02 X 143.9748 Y 248.7582 Z -0.1250 I 0.2536 J 0.9931
G02 X 143.7884 Y 249.4380 Z -0.1250 I 0.8350 J 0.5945
G02 X 144.0850 Y 250.0774 Z -0.1250 I 1.0214 J -0.0853
G02 X 144.7245 Y 250.3741 Z -0.1250 I 0.7248 J -0.7248
G02 X 145.4043 Y 250.1876 Z -0.1250 I 0.0853 J -1.0214
G02 X 145.8029 Y 249.6062 Z -0.1250 I -0.5945 J -0.8350
G02 X 146.2082 Y 249.3983 Z -0.1250 I -0.2536 J -0.9931
G02 X 146.4833 Y 249.0353 Z -0.1250 I -0.6588 J -0.7852
G02 X 146.9186 Y 248.9009 Z -0.1250 I -0.0773 J -1.0221
G02 X 147.2526 Y 248.5912 Z -0.1250 I -0.5125 J -0.8877
G02 X 147.7045 Y 248.5344 Z -0.1250 I 0.1014 J -1.0200
G02 X 148.0872 Y 248.2874 Z -0.1250 I -0.3505 J -0.9632
G02 X 148.7900 Y 248.2329 Z -0.1250 I 0.2769 J -0.9869
G02 X 149.2914 Y 247.7374 Z -0.1250 I -0.4259 J -0.9323
G02 X 149.3542 Y 247.0353 Z -0.1250 I -0.9273 J -0.4368
G02 X 148.9488 Y 246.4586 Z -0.1250 I -0.9901 J 0.2653
G02 X 148.2668 Y 246.2802 Z -0.1250 I -0.5846 J 0.8419
G02 X 147.6309 Y 246.5844 Z -0.1250 I 0.0974 J 1.0204
G02 X 147.0034 Y 246.6080 Z -0.1250 I -0.2769 J 0.9869
G02 X 146.5074 Y 246.9933 Z -0.1250 I 0.3506 J 0.9632
G02 X 145.8936 Y 247.1256 Z -0.1250 I -0.1014 J 1.0200
G02 X 145.4721 Y 247.5910 Z -0.1250 I 0.5125 J 0.8877
G01 X 145.4721 Y 247.5910 Z -0.1250
G00 Z 5.0000

(End cutting path id: path343)


(Start cutting path id: path138)
(Change tool to Default tool)

G00 Z 5.0000
G00 X 132.7210 Y 217.2204

G01 Z -0.1250 F 100.0000(Penetrate)
G03 X 132.5135 Y 217.9956 Z -0.1250 I -1.5500 J 0.0006 F 400.0000
G03 X 131.9462 Y 218.5632 Z -0.1250 I -1.3426 J -0.7746
G03 X 131.1710 Y 218.7710 Z -0.1250 I -0.7752 J -1.3422
G03 X 130.3958 Y 218.5632 Z -0.1250 I -0.0000 J -1.5500
G03 X 129.8284 Y 217.9956 Z -0.1250 I 0.7752 J -1.3422
G03 X 129.6210 Y 217.2204 Z -0.1250 I 1.3426 J -0.7746
G03 X 129.8284 Y 216.4451 Z -0.1250 I 1.5500 J -0.0006
G03 X 130.3958 Y 215.8775 Z -0.1250 I 1.3426 J 0.7746
G03 X 131.1710 Y 215.6697 Z -0.1250 I 0.7752 J 1.3422
G03 X 131.9462 Y 215.8775 Z -0.1250 I 0.0000 J 1.5500
G03 X 132.5135 Y 216.4451 Z -0.1250 I -0.7752 J 1.3422
G03 X 132.7210 Y 217.2204 Z -0.1250 I -1.3426 J 0.7746
G01 X 132.7210 Y 217.2204 Z -0.1250
G00 Z 5.0000

(End cutting path id: path138)


(Start cutting path id: path138)
(Change tool to Default tool)

G00 Z 5.0000
G00 X 132.7210 Y 217.2204

G01 Z -0.1250 F 100.0000(Penetrate)
G03 X 132.5135 Y 217.9956 Z -0.1250 I -1.5500 J 0.0006 F 400.0000
G03 X 131.9462 Y 218.5632 Z -0.1250 I -1.3426 J -0.7746
G03 X 131.1710 Y 218.7710 Z -0.1250 I -0.7752 J -1.3422
G03 X 130.3958 Y 218.5632 Z -0.1250 I -0.0000 J -1.5500
G03 X 129.8284 Y 217.9956 Z -0.1250 I 0.7752 J -1.3422
G03 X 129.6210 Y 217.2204 Z -0.1250 I 1.3426 J -0.7746
G03 X 129.8284 Y 216.4451 Z -0.1250 I 1.5500 J -0.0006
G03 X 130.3958 Y 215.8775 Z -0.1250 I 1.3426 J 0.7746
G03 X 131.1710 Y 215.6697 Z -0.1250 I 0.7752 J 1.3422
G03 X 131.9462 Y 215.8775 Z -0.1250 I 0.0000 J 1.5500
G03 X 132.5135 Y 216.4451 Z -0.1250 I -0.7752 J 1.3422
G03 X 132.7210 Y 217.2204 Z -0.1250 I -1.3426 J 0.7746
G01 X 132.7210 Y 217.2204 Z -0.1250
G00 Z 5.0000

(End cutting path id: path138)


(Start cutting path id: path86)
(Change tool to Default tool)

G00 Z 5.0000
G00 X 122.0820 Y 209.2291

G01 Z -0.1250 F 100.0000(Penetrate)
G01 X 123.0906 Y 205.5825 Z -0.1250 F 400.0000
G03 X 123.3123 Y 205.1788 Z -0.1250 I 0.9638 J 0.2666
G03 X 123.6916 Y 204.9173 Z -0.1250 I 0.7420 J 0.6703
G03 X 124.1478 Y 204.8535 Z -0.1250 I 0.3628 J 0.9319
G03 X 124.5842 Y 205.0010 Z -0.1250 I -0.0934 J 0.9956
G01 X 130.3045 Y 208.5746 Z -0.1250
G03 X 130.6660 Y 209.0104 Z -0.1250 I -0.4769 J 0.7633
G03 X 130.6956 Y 209.5759 Z -0.1250 I -0.8383 J 0.3274
G03 X 130.3817 Y 210.0471 Z -0.1250 I -0.8680 J -0.2380
G03 X 129.8485 Y 210.2376 Z -0.1250 I -0.5540 J -0.7093
G01 X 122.9630 Y 210.3689 Z -0.1250
G03 X 122.5589 Y 210.2799 Z -0.1250 I -0.0136 J -0.8999
G03 X 122.2373 Y 210.0194 Z -0.1250 I 0.3905 J -0.8108
G03 X 122.0663 Y 209.6426 Z -0.1250 I 0.7121 J -0.5504
G03 X 122.0820 Y 209.2291 Z -0.1250 I 0.8831 J -0.1736
G01 X 122.0820 Y 209.2291 Z -0.1250
G00 Z 5.0000

(End cutting path id: path86)


(Start cutting path id: path86)
(Change tool to Default tool)

G00 Z 5.0000
G00 X 122.0820 Y 209.2291

G01 Z -0.1250 F 100.0000(Penetrate)
G01 X 123.0906 Y 205.5825 Z -0.1250 F 400.0000
G03 X 123.3123 Y 205.1788 Z -0.1250 I 0.9638 J 0.2666
G03 X 123.6916 Y 204.9173 Z -0.1250 I 0.7420 J 0.6703
G03 X 124.1478 Y 204.8535 Z -0.1250 I 0.3628 J 0.9319
G03 X 124.5842 Y 205.0010 Z -0.1250 I -0.0934 J 0.9956
G01 X 130.3045 Y 208.5746 Z -0.1250
G03 X 130.6660 Y 209.0104 Z -0.1250 I -0.4769 J 0.7633
G03 X 130.6956 Y 209.5759 Z -0.1250 I -0.8383 J 0.3274
G03 X 130.3817 Y 210.0471 Z -0.1250 I -0.8680 J -0.2380
G03 X 129.8485 Y 210.2376 Z -0.1250 I -0.5540 J -0.7093
G01 X 122.9630 Y 210.3689 Z -0.1250
G03 X 122.5589 Y 210.2799 Z -0.1250 I -0.0136 J -0.8999
G03 X 122.2373 Y 210.0194 Z -0.1250 I 0.3905 J -0.8108
G03 X 122.0663 Y 209.6426 Z -0.1250 I 0.7121 J -0.5504
G03 X 122.0820 Y 209.2291 Z -0.1250 I 0.8831 J -0.1736
G01 X 122.0820 Y 209.2291 Z -0.1250
G00 Z 5.0000

(End cutting path id: path86)


(Start cutting path id: path82)
(Change tool to Default tool)

G00 Z 5.0000
G00 X 119.6270 Y 201.7040

G01 Z -0.1250 F 100.0000(Penetrate)
G01 X 118.7785 Y 198.6343 Z -0.1250 F 400.0000
G02 X 118.5568 Y 198.2305 Z -0.1250 I -0.9639 J 0.2664
G02 X 118.1776 Y 197.9689 Z -0.1250 I -0.7421 J 0.6702
G02 X 117.7213 Y 197.9051 Z -0.1250 I -0.3629 J 0.9318
G02 X 117.2849 Y 198.0526 Z -0.1250 I 0.0934 J 0.9956
G01 X 112.3712 Y 201.1223 Z -0.1250
G02 X 112.0264 Y 201.4855 Z -0.1250 I 0.5298 J 0.8481
G02 X 111.9010 Y 201.9704 Z -0.1250 I 0.8746 J 0.4849
G02 X 112.0264 Y 202.4552 Z -0.1250 I 1.0000 J -0.0000
G02 X 112.3712 Y 202.8185 Z -0.1250 I 0.8746 J -0.4849
G01 X 117.2849 Y 205.8881 Z -0.1250
G02 X 117.7213 Y 206.0356 Z -0.1250 I 0.5298 J -0.8481
G02 X 118.1776 Y 205.9718 Z -0.1250 I 0.0934 J -0.9956
G02 X 118.5568 Y 205.7103 Z -0.1250 I -0.3629 J -0.9318
G02 X 118.7785 Y 205.3064 Z -0.1250 I -0.7421 J -0.6703
G01 X 119.6270 Y 202.2368 Z -0.1250
G02 X 119.6631 Y 201.9704 Z -0.1250 I -0.9639 J -0.2664
G02 X 119.6270 Y 201.7040 Z -0.1250 I -1.0000 J -0.0000
G01 X 119.6270 Y 201.7040 Z -0.1250
G00 Z 5.0000

(End cutting path id: path82)


(Start cutting path id: path82)
(Change tool to Default tool)

G00 Z 5.0000
G00 X 119.6270 Y 201.7040

G01 Z -0.1250 F 100.0000(Penetrate)
G01 X 118.7785 Y 198.6343 Z -0.1250 F 400.0000
G02 X 118.5568 Y 198.2305 Z -0.1250 I -0.9639 J 0.2664
G02 X 118.1776 Y 197.9689 Z -0.1250 I -0.7421 J 0.6702
G02 X 117.7213 Y 197.9051 Z -0.1250 I -0.3629 J 0.9318
G02 X 117.2849 Y 198.0526 Z -0.1250 I 0.0934 J 0.9956
G01 X 112.3712 Y 201.1223 Z -0.1250
G02 X 112.0264 Y 201.4855 Z -0.1250 I 0.5298 J 0.8481
G02 X 111.9010 Y 201.9704 Z -0.1250 I 0.8746 J 0.4849
G02 X 112.0264 Y 202.4552 Z -0.1250 I 1.0000 J -0.0000
G02 X 112.3712 Y 202.8185 Z -0.1250 I 0.8746 J -0.4849
G01 X 117.2849 Y 205.8881 Z -0.1250
G02 X 117.7213 Y 206.0356 Z -0.1250 I 0.5298 J -0.8481
G02 X 118.1776 Y 205.9718 Z -0.1250 I 0.0934 J -0.9956
G02 X 118.5568 Y 205.7103 Z -0.1250 I -0.3629 J -0.9318
G02 X 118.7785 Y 205.3064 Z -0.1250 I -0.7421 J -0.6703
G01 X 119.6270 Y 202.2368 Z -0.1250
G02 X 119.6631 Y 201.9704 Z -0.1250 I -0.9639 J -0.2664
G02 X 119.6270 Y 201.7040 Z -0.1250 I -1.0000 J -0.0000
G01 X 119.6270 Y 201.7040 Z -0.1250
G00 Z 5.0000

(End cutting path id: path82)


(Start cutting path id: path78)
(Change tool to Default tool)

G00 Z 5.0000
G00 X 130.3045 Y 195.3662

G01 Z -0.1250 F 100.0000(Penetrate)
G02 X 130.6660 Y 194.9303 Z -0.1250 I -0.4768 J -0.7633 F 400.0000
G02 X 130.6957 Y 194.3648 Z -0.1250 I -0.8383 J -0.3275
G02 X 130.3817 Y 193.8936 Z -0.1250 I -0.8680 J 0.2380
G02 X 129.8485 Y 193.7031 Z -0.1250 I -0.5540 J 0.7093
G01 X 122.9630 Y 193.5719 Z -0.1250
G02 X 122.5588 Y 193.6609 Z -0.1250 I -0.0136 J 0.8999
G02 X 122.2373 Y 193.9214 Z -0.1250 I 0.3905 J 0.8108
G02 X 122.0663 Y 194.2982 Z -0.1250 I 0.7121 J 0.5504
G02 X 122.0820 Y 194.7117 Z -0.1250 I 0.8831 J 0.1736
G01 X 123.0906 Y 198.3582 Z -0.1250
G02 X 123.3123 Y 198.7620 Z -0.1250 I 0.9638 J -0.2666
G02 X 123.6916 Y 199.0235 Z -0.1250 I 0.7420 J -0.6703
G02 X 124.1478 Y 199.0872 Z -0.1250 I 0.3628 J -0.9319
G02 X 124.5842 Y 198.9397 Z -0.1250 I -0.0934 J -0.9956
G01 X 130.3045 Y 195.3662 Z -0.1250
G00 Z 5.0000

(End cutting path id: path78)


(Start cutting path id: path78)
(Change tool to Default tool)

G00 Z 5.0000
G00 X 130.3045 Y 195.3662

G01 Z -0.1250 F 100.0000(Penetrate)
G02 X 130.6660 Y 194.9303 Z -0.1250 I -0.4768 J -0.7633 F 400.0000
G02 X 130.6957 Y 194.3648 Z -0.1250 I -0.8383 J -0.3275
G02 X 130.3817 Y 193.8936 Z -0.1250 I -0.8680 J 0.2380
G02 X 129.8485 Y 193.7031 Z -0.1250 I -0.5540 J 0.7093
G01 X 122.9630 Y 193.5719 Z -0.1250
G02 X 122.5588 Y 193.6609 Z -0.1250 I -0.0136 J 0.8999
G02 X 122.2373 Y 193.9214 Z -0.1250 I 0.3905 J 0.8108
G02 X 122.0663 Y 194.2982 Z -0.1250 I 0.7121 J 0.5504
G02 X 122.0820 Y 194.7117 Z -0.1250 I 0.8831 J 0.1736
G01 X 123.0906 Y 198.3582 Z -0.1250
G02 X 123.3123 Y 198.7620 Z -0.1250 I 0.9638 J -0.2666
G02 X 123.6916 Y 199.0235 Z -0.1250 I 0.7420 J -0.6703
G02 X 124.1478 Y 199.0872 Z -0.1250 I 0.3628 J -0.9319
G02 X 124.5842 Y 198.9397 Z -0.1250 I -0.0934 J -0.9956
G01 X 130.3045 Y 195.3662 Z -0.1250
G00 Z 5.0000

(End cutting path id: path78)


(Start cutting path id: path76)
(Change tool to Default tool)

G00 Z 5.0000
G00 X 135.0902 Y 197.0929

G01 Z -0.1250 F 100.0000(Penetrate)
G01 X 128.6402 Y 201.1223 Z -0.1250 F 400.0000
G02 X 128.2954 Y 201.4855 Z -0.1250 I 0.5298 J 0.8481
G02 X 128.1700 Y 201.9704 Z -0.1250 I 0.8746 J 0.4849
G02 X 128.2954 Y 202.4552 Z -0.1250 I 1.0000 J 0.0000
G02 X 128.6402 Y 202.8185 Z -0.1250 I 0.8746 J -0.4849
G01 X 135.0902 Y 206.8479 Z -0.1250
G02 X 135.5244 Y 206.9952 Z -0.1250 I 0.5298 J -0.8481
G02 X 135.9787 Y 206.9332 Z -0.1250 I 0.0956 J -0.9954
G02 X 136.3576 Y 206.6750 Z -0.1250 I -0.3587 J -0.9334
G02 X 136.5814 Y 206.2748 Z -0.1250 I -0.7376 J -0.6752
G01 X 137.7341 Y 202.2454 Z -0.1250
G02 X 137.7727 Y 201.9704 Z -0.1250 I -0.9614 J -0.2750
G02 X 137.7341 Y 201.6953 Z -0.1250 I -1.0000 J -0.0000
G01 X 136.5814 Y 197.6659 Z -0.1250
G02 X 136.3576 Y 197.2658 Z -0.1250 I -0.9614 J 0.2750
G02 X 135.9787 Y 197.0075 Z -0.1250 I -0.7376 J 0.6752
G02 X 135.5244 Y 196.9456 Z -0.1250 I -0.3587 J 0.9334
G02 X 135.0902 Y 197.0929 Z -0.1250 I 0.0956 J 0.9954
G01 X 135.0902 Y 197.0929 Z -0.1250
G00 Z 5.0000

(End cutting path id: path76)


(Start cutting path id: path76)
(Change tool to Default tool)

G00 Z 5.0000
G00 X 135.0902 Y 197.0929

G01 Z -0.1250 F 100.0000(Penetrate)
G01 X 128.6402 Y 201.1223 Z -0.1250 F 400.0000
G02 X 128.2954 Y 201.4855 Z -0.1250 I 0.5298 J 0.8481
G02 X 128.1700 Y 201.9704 Z -0.1250 I 0.8746 J 0.4849
G02 X 128.2954 Y 202.4552 Z -0.1250 I 1.0000 J 0.0000
G02 X 128.6402 Y 202.8185 Z -0.1250 I 0.8746 J -0.4849
G01 X 135.0902 Y 206.8479 Z -0.1250
G02 X 135.5244 Y 206.9952 Z -0.1250 I 0.5298 J -0.8481
G02 X 135.9787 Y 206.9332 Z -0.1250 I 0.0956 J -0.9954
G02 X 136.3576 Y 206.6750 Z -0.1250 I -0.3587 J -0.9334
G02 X 136.5814 Y 206.2748 Z -0.1250 I -0.7376 J -0.6752
G01 X 137.7341 Y 202.2454 Z -0.1250
G02 X 137.7727 Y 201.9704 Z -0.1250 I -0.9614 J -0.2750
G02 X 137.7341 Y 201.6953 Z -0.1250 I -1.0000 J -0.0000
G01 X 136.5814 Y 197.6659 Z -0.1250
G02 X 136.3576 Y 197.2658 Z -0.1250 I -0.9614 J 0.2750
G02 X 135.9787 Y 197.0075 Z -0.1250 I -0.7376 J 0.6752
G02 X 135.5244 Y 196.9456 Z -0.1250 I -0.3587 J 0.9334
G02 X 135.0902 Y 197.0929 Z -0.1250 I 0.0956 J 0.9954
G01 X 135.0902 Y 197.0929 Z -0.1250
G00 Z 5.0000

(End cutting path id: path76)


(Start cutting path id: path140)
(Change tool to Default tool)

G00 Z 5.0000
G00 X 132.7210 Y 186.7204

G01 Z -0.1250 F 100.0000(Penetrate)
G03 X 132.5135 Y 187.4957 Z -0.1250 I -1.5500 J 0.0006 F 400.0000
G03 X 131.9462 Y 188.0633 Z -0.1250 I -1.3426 J -0.7746
G03 X 131.1710 Y 188.2710 Z -0.1250 I -0.7752 J -1.3422
G03 X 130.3958 Y 188.0633 Z -0.1250 I 0.0000 J -1.5500
G03 X 129.8284 Y 187.4957 Z -0.1250 I 0.7752 J -1.3422
G03 X 129.6210 Y 186.7204 Z -0.1250 I 1.3426 J -0.7746
G03 X 129.8284 Y 185.9451 Z -0.1250 I 1.5500 J -0.0006
G03 X 130.3958 Y 185.3775 Z -0.1250 I 1.3426 J 0.7746
G03 X 131.1710 Y 185.1697 Z -0.1250 I 0.7752 J 1.3422
G03 X 131.9462 Y 185.3775 Z -0.1250 I 0.0000 J 1.5500
G03 X 132.5135 Y 185.9451 Z -0.1250 I -0.7752 J 1.3422
G03 X 132.7210 Y 186.7204 Z -0.1250 I -1.3426 J 0.7746
G01 X 132.7210 Y 186.7204 Z -0.1250
G00 Z 5.0000

(End cutting path id: path140)


(Start cutting path id: path140)
(Change tool to Default tool)

G00 Z 5.0000
G00 X 132.7210 Y 186.7204

G01 Z -0.1250 F 100.0000(Penetrate)
G03 X 132.5135 Y 187.4957 Z -0.1250 I -1.5500 J 0.0006 F 400.0000
G03 X 131.9462 Y 188.0633 Z -0.1250 I -1.3426 J -0.7746
G03 X 131.1710 Y 188.2710 Z -0.1250 I -0.7752 J -1.3422
G03 X 130.3958 Y 188.0633 Z -0.1250 I 0.0000 J -1.5500
G03 X 129.8284 Y 187.4957 Z -0.1250 I 0.7752 J -1.3422
G03 X 129.6210 Y 186.7204 Z -0.1250 I 1.3426 J -0.7746
G03 X 129.8284 Y 185.9451 Z -0.1250 I 1.5500 J -0.0006
G03 X 130.3958 Y 185.3775 Z -0.1250 I 1.3426 J 0.7746
G03 X 131.1710 Y 185.1697 Z -0.1250 I 0.7752 J 1.3422
G03 X 131.9462 Y 185.3775 Z -0.1250 I 0.0000 J 1.5500
G03 X 132.5135 Y 185.9451 Z -0.1250 I -0.7752 J 1.3422
G03 X 132.7210 Y 186.7204 Z -0.1250 I -1.3426 J 0.7746
G01 X 132.7210 Y 186.7204 Z -0.1250
G00 Z 5.0000

(End cutting path id: path140)


(Start cutting path id: path72)
(Change tool to Default tool)

G00 Z 5.0000
G00 X 136.7261 Y 185.4704

G01 Z -0.1250 F 100.0000(Penetrate)
G02 X 136.2261 Y 185.6044 Z -0.1250 I 0.0000 J 1.0000 F 400.0000
G02 X 135.8601 Y 185.9704 Z -0.1250 I 0.5000 J 0.8660
G02 X 135.7261 Y 186.4704 Z -0.1250 I 0.8660 J 0.5000
G02 X 135.8601 Y 186.9704 Z -0.1250 I 1.0000 J -0.0000
G02 X 136.2261 Y 187.3364 Z -0.1250 I 0.8660 J -0.5000
G02 X 136.7261 Y 187.4704 Z -0.1250 I 0.5000 J -0.8660
G01 X 164.8261 Y 187.4704 Z -0.1250
G02 X 165.3261 Y 187.3364 Z -0.1250 I -0.0000 J -1.0000
G02 X 165.6921 Y 186.9704 Z -0.1250 I -0.5000 J -0.8660
G02 X 165.8261 Y 186.4704 Z -0.1250 I -0.8660 J -0.5000
G02 X 165.6921 Y 185.9704 Z -0.1250 I -1.0000 J 0.0000
G02 X 165.3261 Y 185.6044 Z -0.1250 I -0.8660 J 0.5000
G02 X 164.8261 Y 185.4704 Z -0.1250 I -0.5000 J 0.8660
G01 X 136.7261 Y 185.4704 Z -0.1250
G00 Z 5.0000

(End cutting path id: path72)


(Start cutting path id: path72)
(Change tool to Default tool)

G00 Z 5.0000
G00 X 136.7261 Y 185.4704

G01 Z -0.1250 F 100.0000(Penetrate)
G02 X 136.2261 Y 185.6044 Z -0.1250 I 0.0000 J 1.0000 F 400.0000
G02 X 135.8601 Y 185.9704 Z -0.1250 I 0.5000 J 0.8660
G02 X 135.7261 Y 186.4704 Z -0.1250 I 0.8660 J 0.5000
G02 X 135.8601 Y 186.9704 Z -0.1250 I 1.0000 J -0.0000
G02 X 136.2261 Y 187.3364 Z -0.1250 I 0.8660 J -0.5000
G02 X 136.7261 Y 187.4704 Z -0.1250 I 0.5000 J -0.8660
G01 X 164.8261 Y 187.4704 Z -0.1250
G02 X 165.3261 Y 187.3364 Z -0.1250 I -0.0000 J -1.0000
G02 X 165.6921 Y 186.9704 Z -0.1250 I -0.5000 J -0.8660
G02 X 165.8261 Y 186.4704 Z -0.1250 I -0.8660 J -0.5000
G02 X 165.6921 Y 185.9704 Z -0.1250 I -1.0000 J 0.0000
G02 X 165.3261 Y 185.6044 Z -0.1250 I -0.8660 J 0.5000
G02 X 164.8261 Y 185.4704 Z -0.1250 I -0.5000 J 0.8660
G01 X 136.7261 Y 185.4704 Z -0.1250
G00 Z 5.0000

(End cutting path id: path72)


(Start cutting path id: path142)
(Change tool to Default tool)

G00 Z 5.0000
G00 X 147.8047 Y 197.2901

G01 Z -0.1250 F 100.0000(Penetrate)
G02 X 148.1937 Y 196.8365 Z -0.1250 I -0.5299 J -0.8481 F 400.0000
G02 X 148.2546 Y 196.2421 Z -0.1250 I -0.9189 J -0.3945
G02 X 147.9658 Y 195.7191 Z -0.1250 I -0.9798 J 0.1999
G02 X 147.4302 Y 195.4541 Z -0.1250 I -0.6909 J 0.7229
G01 X 140.9053 Y 194.4281 Z -0.1250
G02 X 140.4114 Y 194.4750 Z -0.1250 I -0.1553 J 0.9879
G02 X 140.0008 Y 194.7535 Z -0.1250 I 0.3386 J 0.9409
G02 X 139.7746 Y 195.1951 Z -0.1250 I 0.7491 J 0.6624
G02 X 139.7885 Y 195.6910 Z -0.1250 I 0.9753 J 0.2209
G01 X 141.0268 Y 200.0196 Z -0.1250
G02 X 141.2506 Y 200.4198 Z -0.1250 I 0.9614 J -0.2750
G02 X 141.6295 Y 200.6780 Z -0.1250 I 0.7376 J -0.6752
G02 X 142.0839 Y 200.7400 Z -0.1250 I 0.3587 J -0.9334
G02 X 142.5181 Y 200.5927 Z -0.1250 I -0.0956 J -0.9954
G01 X 147.8047 Y 197.2901 Z -0.1250
G00 Z 5.0000

(End cutting path id: path142)


(Start cutting path id: path142)
(Change tool to Default tool)

G00 Z 5.0000
G00 X 147.8047 Y 197.2901

G01 Z -0.1250 F 100.0000(Penetrate)
G02 X 148.1937 Y 196.8365 Z -0.1250 I -0.5299 J -0.8481 F 400.0000
G02 X 148.2546 Y 196.2421 Z -0.1250 I -0.9189 J -0.3945
G02 X 147.9658 Y 195.7191 Z -0.1250 I -0.9798 J 0.1999
G02 X 147.4302 Y 195.4541 Z -0.1250 I -0.6909 J 0.7229
G01 X 140.9053 Y 194.4281 Z -0.1250
G02 X 140.4114 Y 194.4750 Z -0.1250 I -0.1553 J 0.9879
G02 X 140.0008 Y 194.7535 Z -0.1250 I 0.3386 J 0.9409
G02 X 139.7746 Y 195.1951 Z -0.1250 I 0.7491 J 0.6624
G02 X 139.7885 Y 195.6910 Z -0.1250 I 0.9753 J 0.2209
G01 X 141.0268 Y 200.0196 Z -0.1250
G02 X 141.2506 Y 200.4198 Z -0.1250 I 0.9614 J -0.2750
G02 X 141.6295 Y 200.6780 Z -0.1250 I 0.7376 J -0.6752
G02 X 142.0839 Y 200.7400 Z -0.1250 I 0.3587 J -0.9334
G02 X 142.5181 Y 200.5927 Z -0.1250 I -0.0956 J -0.9954
G01 X 147.8047 Y 197.2901 Z -0.1250
G00 Z 5.0000

(End cutting path id: path142)


(Start cutting path id: path144)
(Change tool to Default tool)

G00 Z 5.0000
G00 X 153.0710 Y 199.0421

G01 Z -0.1250 F 100.0000(Penetrate)
G02 X 152.8472 Y 198.6419 Z -0.1250 I -0.9614 J 0.2750 F 400.0000
G02 X 152.4683 Y 198.3837 Z -0.1250 I -0.7376 J 0.6752
G02 X 152.0140 Y 198.3217 Z -0.1250 I -0.3587 J 0.9334
G02 X 151.5798 Y 198.4690 Z -0.1250 I 0.0956 J 0.9954
G01 X 147.3326 Y 201.1223 Z -0.1250
G02 X 146.9879 Y 201.4855 Z -0.1250 I 0.5298 J 0.8481
G02 X 146.8625 Y 201.9704 Z -0.1250 I 0.8746 J 0.4849
G02 X 146.9879 Y 202.4552 Z -0.1250 I 1.0000 J -0.0000
G02 X 147.3326 Y 202.8185 Z -0.1250 I 0.8746 J -0.4849
G01 X 151.5798 Y 205.4717 Z -0.1250
G02 X 152.0140 Y 205.6190 Z -0.1250 I 0.5298 J -0.8481
G02 X 152.4683 Y 205.5570 Z -0.1250 I 0.0956 J -0.9954
G02 X 152.8472 Y 205.2988 Z -0.1250 I -0.3587 J -0.9334
G02 X 153.0710 Y 204.8986 Z -0.1250 I -0.7376 J -0.6752
G01 X 153.8300 Y 202.2454 Z -0.1250
G02 X 153.8686 Y 201.9704 Z -0.1250 I -0.9614 J -0.2750
G02 X 153.8300 Y 201.6953 Z -0.1250 I -1.0000 J 0.0000
G01 X 153.0710 Y 199.0421 Z -0.1250
G00 Z 5.0000

(End cutting path id: path144)


(Start cutting path id: path144)
(Change tool to Default tool)

G00 Z 5.0000
G00 X 153.0710 Y 199.0421

G01 Z -0.1250 F 100.0000(Penetrate)
G02 X 152.8472 Y 198.6419 Z -0.1250 I -0.9614 J 0.2750 F 400.0000
G02 X 152.4683 Y 198.3837 Z -0.1250 I -0.7376 J 0.6752
G02 X 152.0140 Y 198.3217 Z -0.1250 I -0.3587 J 0.9334
G02 X 151.5798 Y 198.4690 Z -0.1250 I 0.0956 J 0.9954
G01 X 147.3326 Y 201.1223 Z -0.1250
G02 X 146.9879 Y 201.4855 Z -0.1250 I 0.5298 J 0.8481
G02 X 146.8625 Y 201.9704 Z -0.1250 I 0.8746 J 0.4849
G02 X 146.9879 Y 202.4552 Z -0.1250 I 1.0000 J -0.0000
G02 X 147.3326 Y 202.8185 Z -0.1250 I 0.8746 J -0.4849
G01 X 151.5798 Y 205.4717 Z -0.1250
G02 X 152.0140 Y 205.6190 Z -0.1250 I 0.5298 J -0.8481
G02 X 152.4683 Y 205.5570 Z -0.1250 I 0.0956 J -0.9954
G02 X 152.8472 Y 205.2988 Z -0.1250 I -0.3587 J -0.9334
G02 X 153.0710 Y 204.8986 Z -0.1250 I -0.7376 J -0.6752
G01 X 153.8300 Y 202.2454 Z -0.1250
G02 X 153.8686 Y 201.9704 Z -0.1250 I -0.9614 J -0.2750
G02 X 153.8300 Y 201.6953 Z -0.1250 I -1.0000 J 0.0000
G01 X 153.0710 Y 199.0421 Z -0.1250
G00 Z 5.0000

(End cutting path id: path144)


(Start cutting path id: path126)
(Change tool to Default tool)

G00 Z 5.0000
G00 X 156.9709 Y 198.0704

G01 Z -0.1250 F 100.0000(Penetrate)
G01 X 166.9709 Y 198.0704 Z -0.1250 F 400.0000
G02 X 167.5209 Y 197.9230 Z -0.1250 I 0.0000 J -1.1000
G02 X 167.9236 Y 197.5204 Z -0.1250 I -0.5500 J -0.9526
G02 X 168.0709 Y 196.9704 Z -0.1250 I -0.9526 J -0.5500
G02 X 167.9236 Y 196.4204 Z -0.1250 I -1.1000 J 0.0000
G02 X 167.5209 Y 196.0178 Z -0.1250 I -0.9526 J 0.5500
G02 X 166.9709 Y 195.8704 Z -0.1250 I -0.5500 J 0.9526
G01 X 156.9709 Y 195.8704 Z -0.1250
G02 X 156.4209 Y 196.0178 Z -0.1250 I -0.0000 J 1.1000
G02 X 156.0183 Y 196.4204 Z -0.1250 I 0.5500 J 0.9526
G02 X 155.8709 Y 196.9704 Z -0.1250 I 0.9526 J 0.5500
G02 X 156.0183 Y 197.5204 Z -0.1250 I 1.1000 J -0.0000
G02 X 156.4209 Y 197.9230 Z -0.1250 I 0.9526 J -0.5500
G02 X 156.9709 Y 198.0704 Z -0.1250 I 0.5500 J -0.9526
G01 X 156.9709 Y 198.0704 Z -0.1250
G00 Z 5.0000

(End cutting path id: path126)


(Start cutting path id: path126)
(Change tool to Default tool)

G00 Z 5.0000
G00 X 156.9709 Y 198.0704

G01 Z -0.1250 F 100.0000(Penetrate)
G01 X 166.9709 Y 198.0704 Z -0.1250 F 400.0000
G02 X 167.5209 Y 197.9230 Z -0.1250 I 0.0000 J -1.1000
G02 X 167.9236 Y 197.5204 Z -0.1250 I -0.5500 J -0.9526
G02 X 168.0709 Y 196.9704 Z -0.1250 I -0.9526 J -0.5500
G02 X 167.9236 Y 196.4204 Z -0.1250 I -1.1000 J 0.0000
G02 X 167.5209 Y 196.0178 Z -0.1250 I -0.9526 J 0.5500
G02 X 166.9709 Y 195.8704 Z -0.1250 I -0.5500 J 0.9526
G01 X 156.9709 Y 195.8704 Z -0.1250
G02 X 156.4209 Y 196.0178 Z -0.1250 I -0.0000 J 1.1000
G02 X 156.0183 Y 196.4204 Z -0.1250 I 0.5500 J 0.9526
G02 X 155.8709 Y 196.9704 Z -0.1250 I 0.9526 J 0.5500
G02 X 156.0183 Y 197.5204 Z -0.1250 I 1.1000 J -0.0000
G02 X 156.4209 Y 197.9230 Z -0.1250 I 0.9526 J -0.5500
G02 X 156.9709 Y 198.0704 Z -0.1250 I 0.5500 J -0.9526
G01 X 156.9709 Y 198.0704 Z -0.1250
G00 Z 5.0000

(End cutting path id: path126)


(Start cutting path id: path146)
(Change tool to Default tool)

G00 Z 5.0000
G00 X 147.8047 Y 206.6507

G01 Z -0.1250 F 100.0000(Penetrate)
G01 X 142.5181 Y 203.3481 Z -0.1250 F 400.0000
G02 X 142.0839 Y 203.2007 Z -0.1250 I -0.5298 J 0.8481
G02 X 141.6295 Y 203.2627 Z -0.1250 I -0.0956 J 0.9954
G02 X 141.2506 Y 203.5209 Z -0.1250 I 0.3587 J 0.9334
G02 X 141.0268 Y 203.9211 Z -0.1250 I 0.7376 J 0.6752
G01 X 139.7885 Y 208.2498 Z -0.1250
G02 X 139.7746 Y 208.7457 Z -0.1250 I 0.9614 J 0.2750
G02 X 140.0008 Y 209.1873 Z -0.1250 I 0.9753 J -0.2209
G02 X 140.4114 Y 209.4658 Z -0.1250 I 0.7491 J -0.6624
G02 X 140.9053 Y 209.5127 Z -0.1250 I 0.3386 J -0.9409
G01 X 147.4302 Y 208.4866 Z -0.1250
G02 X 147.9658 Y 208.2217 Z -0.1250 I -0.1553 J -0.9879
G02 X 148.2547 Y 207.6986 Z -0.1250 I -0.6909 J -0.7229
G02 X 148.1937 Y 207.1042 Z -0.1250 I -0.9798 J -0.1999
G02 X 147.8047 Y 206.6507 Z -0.1250 I -0.9189 J 0.3946
G01 X 147.8047 Y 206.6507 Z -0.1250
G00 Z 5.0000

(End cutting path id: path146)


(Start cutting path id: path146)
(Change tool to Default tool)

G00 Z 5.0000
G00 X 147.8047 Y 206.6507

G01 Z -0.1250 F 100.0000(Penetrate)
G01 X 142.5181 Y 203.3481 Z -0.1250 F 400.0000
G02 X 142.0839 Y 203.2007 Z -0.1250 I -0.5298 J 0.8481
G02 X 141.6295 Y 203.2627 Z -0.1250 I -0.0956 J 0.9954
G02 X 141.2506 Y 203.5209 Z -0.1250 I 0.3587 J 0.9334
G02 X 141.0268 Y 203.9211 Z -0.1250 I 0.7376 J 0.6752
G01 X 139.7885 Y 208.2498 Z -0.1250
G02 X 139.7746 Y 208.7457 Z -0.1250 I 0.9614 J 0.2750
G02 X 140.0008 Y 209.1873 Z -0.1250 I 0.9753 J -0.2209
G02 X 140.4114 Y 209.4658 Z -0.1250 I 0.7491 J -0.6624
G02 X 140.9053 Y 209.5127 Z -0.1250 I 0.3386 J -0.9409
G01 X 147.4302 Y 208.4866 Z -0.1250
G02 X 147.9658 Y 208.2217 Z -0.1250 I -0.1553 J -0.9879
G02 X 148.2547 Y 207.6986 Z -0.1250 I -0.6909 J -0.7229
G02 X 148.1937 Y 207.1042 Z -0.1250 I -0.9798 J -0.1999
G02 X 147.8047 Y 206.6507 Z -0.1250 I -0.9189 J 0.3946
G01 X 147.8047 Y 206.6507 Z -0.1250
G00 Z 5.0000

(End cutting path id: path146)


(Start cutting path id: path132)
(Change tool to Default tool)

G00 Z 5.0000
G00 X 166.9709 Y 208.0704

G01 Z -0.1250 F 100.0000(Penetrate)
G02 X 167.7460 Y 207.7467 Z -0.1250 I -0.0042 J -1.1000 F 400.0000
G02 X 168.0667 Y 206.9704 Z -0.1250 I -0.7793 J -0.7763
G02 X 167.7460 Y 206.1940 Z -0.1250 I -1.1000 J 0.0000
G02 X 166.9709 Y 205.8704 Z -0.1250 I -0.7793 J 0.7763
G01 X 156.9709 Y 205.8704 Z -0.1250
G02 X 156.1958 Y 206.1940 Z -0.1250 I 0.0042 J 1.1000
G02 X 155.8752 Y 206.9704 Z -0.1250 I 0.7793 J 0.7763
G02 X 156.1958 Y 207.7467 Z -0.1250 I 1.1000 J -0.0000
G02 X 156.9709 Y 208.0704 Z -0.1250 I 0.7793 J -0.7763
G01 X 166.9709 Y 208.0704 Z -0.1250
G00 Z 5.0000

(End cutting path id: path132)


(Start cutting path id: path132)
(Change tool to Default tool)

G00 Z 5.0000
G00 X 166.9709 Y 208.0704

G01 Z -0.1250 F 100.0000(Penetrate)
G02 X 167.7460 Y 207.7467 Z -0.1250 I -0.0042 J -1.1000 F 400.0000
G02 X 168.0667 Y 206.9704 Z -0.1250 I -0.7793 J -0.7763
G02 X 167.7460 Y 206.1940 Z -0.1250 I -1.1000 J 0.0000
G02 X 166.9709 Y 205.8704 Z -0.1250 I -0.7793 J 0.7763
G01 X 156.9709 Y 205.8704 Z -0.1250
G02 X 156.1958 Y 206.1940 Z -0.1250 I 0.0042 J 1.1000
G02 X 155.8752 Y 206.9704 Z -0.1250 I 0.7793 J 0.7763
G02 X 156.1958 Y 207.7467 Z -0.1250 I 1.1000 J -0.0000
G02 X 156.9709 Y 208.0704 Z -0.1250 I 0.7793 J -0.7763
G01 X 166.9709 Y 208.0704 Z -0.1250
G00 Z 5.0000

(End cutting path id: path132)


(Start cutting path id: path188)
(Change tool to Default tool)

G00 Z 5.0000
G00 X 172.8795 Y 204.6421

G01 Z -0.1250 F 100.0000(Penetrate)
G03 X 171.8510 Y 203.4784 Z -0.1250 I 1.8505 J -2.6718 F 400.0000
G03 X 171.4799 Y 201.9704 Z -0.1250 I 2.8789 J -1.5081
G03 X 171.8510 Y 200.4623 Z -0.1250 I 3.2500 J 0.0000
G03 X 172.8795 Y 199.2986 Z -0.1250 I 2.8789 J 1.5081
G00 Z 5.0000

(End cutting path id: path188)


(Start cutting path id: path188)
(Change tool to Default tool)

G00 Z 5.0000
G00 X 172.8795 Y 204.6421

G01 Z -0.1250 F 100.0000(Penetrate)
G03 X 171.8510 Y 203.4784 Z -0.1250 I 1.8505 J -2.6718 F 400.0000
G03 X 171.4799 Y 201.9704 Z -0.1250 I 2.8789 J -1.5081
G03 X 171.8510 Y 200.4623 Z -0.1250 I 3.2500 J 0.0000
G03 X 172.8795 Y 199.2986 Z -0.1250 I 2.8789 J 1.5081
G00 Z 5.0000

(End cutting path id: path188)


(Start cutting path id: path172)
(Change tool to Default tool)

G00 Z 5.0000
G00 X 172.8795 Y 199.2986

G01 Z -0.1250 F 100.0000(Penetrate)
G03 X 173.9082 Y 198.9322 Z -0.1250 I 3.8657 J 9.2260 F 400.0000
G03 X 174.9707 Y 198.6801 Z -0.1250 I 2.8370 J 9.5924
G00 Z 5.0000

(End cutting path id: path172)


(Start cutting path id: path172)
(Change tool to Default tool)

G00 Z 5.0000
G00 X 172.8795 Y 199.2986

G01 Z -0.1250 F 100.0000(Penetrate)
G03 X 173.9082 Y 198.9322 Z -0.1250 I 3.8657 J 9.2260 F 400.0000
G03 X 174.9707 Y 198.6801 Z -0.1250 I 2.8370 J 9.5924
G00 Z 5.0000

(End cutting path id: path172)


(Start cutting path id: path150)
(Change tool to Default tool)

G00 Z 5.0000
G00 X 175.6661 Y 195.4306

G01 Z -0.1250 F 100.0000(Penetrate)
G01 X 175.1963 Y 195.6017 Z -0.1250 F 400.0000
G03 X 175.0035 Y 195.6313 Z -0.1250 I -0.1710 J -0.4698
G03 X 174.8140 Y 195.5850 Z -0.1250 I 0.0218 J -0.4995
G03 X 174.6566 Y 195.4696 Z -0.1250 I 0.2113 J -0.4532
G03 X 174.5554 Y 195.3028 Z -0.1250 I 0.3686 J -0.3378
G01 X 173.7004 Y 192.9536 Z -0.1250
G03 X 173.7171 Y 192.5713 Z -0.1250 I 0.4698 J -0.1710
G03 X 173.9992 Y 192.3127 Z -0.1250 I 0.4532 J 0.2113
G01 X 174.4691 Y 192.1417 Z -0.1250
G03 X 174.8514 Y 192.1584 Z -0.1250 I 0.1710 J 0.4698
G03 X 175.1099 Y 192.4406 Z -0.1250 I -0.2113 J 0.4532
G01 X 175.9650 Y 194.7898 Z -0.1250
G03 X 175.9483 Y 195.1721 Z -0.1250 I -0.4698 J 0.1710
G03 X 175.6661 Y 195.4306 Z -0.1250 I -0.4532 J -0.2113
G01 X 175.6661 Y 195.4306 Z -0.1250
G00 Z 5.0000

(End cutting path id: path150)


(Start cutting path id: path150)
(Change tool to Default tool)

G00 Z 5.0000
G00 X 175.6661 Y 195.4306

G01 Z -0.1250 F 100.0000(Penetrate)
G01 X 175.1963 Y 195.6017 Z -0.1250 F 400.0000
G03 X 175.0035 Y 195.6313 Z -0.1250 I -0.1710 J -0.4698
G03 X 174.8140 Y 195.5850 Z -0.1250 I 0.0218 J -0.4995
G03 X 174.6566 Y 195.4696 Z -0.1250 I 0.2113 J -0.4532
G03 X 174.5554 Y 195.3028 Z -0.1250 I 0.3686 J -0.3378
G01 X 173.7004 Y 192.9536 Z -0.1250
G03 X 173.7171 Y 192.5713 Z -0.1250 I 0.4698 J -0.1710
G03 X 173.9992 Y 192.3127 Z -0.1250 I 0.4532 J 0.2113
G01 X 174.4691 Y 192.1417 Z -0.1250
G03 X 174.8514 Y 192.1584 Z -0.1250 I 0.1710 J 0.4698
G03 X 175.1099 Y 192.4406 Z -0.1250 I -0.2113 J 0.4532
G01 X 175.9650 Y 194.7898 Z -0.1250
G03 X 175.9483 Y 195.1721 Z -0.1250 I -0.4698 J 0.1710
G03 X 175.6661 Y 195.4306 Z -0.1250 I -0.4532 J -0.2113
G01 X 175.6661 Y 195.4306 Z -0.1250
G00 Z 5.0000

(End cutting path id: path150)


(Start cutting path id: path148)
(Change tool to Default tool)

G00 Z 5.0000
G00 X 177.4809 Y 195.7047

G01 Z -0.1250 F 100.0000(Penetrate)
G01 X 177.4809 Y 195.7203 Z -0.1250 F 400.0000
G00 Z 5.0000

(End cutting path id: path148)


(Start cutting path id: path148)
(Change tool to Default tool)

G00 Z 5.0000
G00 X 177.4809 Y 195.7047

G01 Z -0.1250 F 100.0000(Penetrate)
G01 X 177.4809 Y 195.7203 Z -0.1250 F 400.0000
G00 Z 5.0000

(End cutting path id: path148)


(Start cutting path id: path156)
(Change tool to Default tool)

G00 Z 5.0000
G00 X 177.4809 Y 195.7204

G01 Z -0.1250 F 100.0000(Penetrate)
G03 X 176.7689 Y 197.6608 Z -0.1250 I -3.0000 J -0.0000 F 400.0000
G03 X 174.9707 Y 198.6801 Z -0.1250 I -2.2879 J -1.9404
G00 Z 5.0000

(End cutting path id: path156)


(Start cutting path id: path156)
(Change tool to Default tool)

G00 Z 5.0000
G00 X 177.4809 Y 195.7204

G01 Z -0.1250 F 100.0000(Penetrate)
G03 X 176.7689 Y 197.6608 Z -0.1250 I -3.0000 J -0.0000 F 400.0000
G03 X 174.9707 Y 198.6801 Z -0.1250 I -2.2879 J -1.9404
G00 Z 5.0000

(End cutting path id: path156)


(Start cutting path id: path158)
(Change tool to Default tool)

G00 Z 5.0000
G00 X 177.1613 Y 193.8920

G01 Z -0.1250 F 100.0000(Penetrate)
G03 X 177.4004 Y 194.7843 Z -0.1250 I -4.9804 J 1.8127 F 400.0000
G03 X 177.4809 Y 195.7047 Z -0.1250 I -5.2195 J 0.9203
G00 Z 5.0000

(End cutting path id: path158)


(Start cutting path id: path158)
(Change tool to Default tool)

G00 Z 5.0000
G00 X 177.1613 Y 193.8920

G01 Z -0.1250 F 100.0000(Penetrate)
G03 X 177.4004 Y 194.7843 Z -0.1250 I -4.9804 J 1.8127 F 400.0000
G03 X 177.4809 Y 195.7047 Z -0.1250 I -5.2195 J 0.9203
G00 Z 5.0000

(End cutting path id: path158)


(Start cutting path id: path166)
(Change tool to Default tool)

G00 Z 5.0000
G00 X 176.5551 Y 192.2266

G01 Z -0.1250 F 100.0000(Penetrate)
G01 X 177.1613 Y 193.8920 Z -0.1250 F 400.0000
G00 Z 5.0000

(End cutting path id: path166)


(Start cutting path id: path166)
(Change tool to Default tool)

G00 Z 5.0000
G00 X 176.5551 Y 192.2266

G01 Z -0.1250 F 100.0000(Penetrate)
G01 X 177.1613 Y 193.8920 Z -0.1250 F 400.0000
G00 Z 5.0000

(End cutting path id: path166)


(Start cutting path id: path154)
(Change tool to Default tool)

G00 Z 5.0000
G00 X 176.5551 Y 192.2266

G01 Z -0.1250 F 100.0000(Penetrate)
G03 X 176.5112 Y 191.3430 Z -0.1250 I 1.4095 J -0.5130 F 400.0000
G03 X 176.9728 Y 190.5884 Z -0.1250 I 1.4535 J 0.3705
G00 Z 5.0000

(End cutting path id: path154)


(Start cutting path id: path154)
(Change tool to Default tool)

G00 Z 5.0000
G00 X 176.5551 Y 192.2266

G01 Z -0.1250 F 100.0000(Penetrate)
G03 X 176.5112 Y 191.3430 Z -0.1250 I 1.4095 J -0.5130 F 400.0000
G03 X 176.9728 Y 190.5884 Z -0.1250 I 1.4535 J 0.3705
G00 Z 5.0000

(End cutting path id: path154)


(Start cutting path id: path186)
(Change tool to Default tool)

G00 Z 5.0000
G00 X 177.4809 Y 189.4631

G01 Z -0.1250 F 100.0000(Penetrate)
G03 X 177.3480 Y 190.0804 Z -0.1250 I -1.5000 J 0.0000 F 400.0000
G03 X 176.9728 Y 190.5884 Z -0.1250 I -1.3671 J -0.6173
G00 Z 5.0000

(End cutting path id: path186)


(Start cutting path id: path186)
(Change tool to Default tool)

G00 Z 5.0000
G00 X 177.4809 Y 189.4631

G01 Z -0.1250 F 100.0000(Penetrate)
G03 X 177.3480 Y 190.0804 Z -0.1250 I -1.5000 J 0.0000 F 400.0000
G03 X 176.9728 Y 190.5884 Z -0.1250 I -1.3671 J -0.6173
G00 Z 5.0000

(End cutting path id: path186)


(Start cutting path id: path164)
(Change tool to Default tool)

G00 Z 5.0000
G00 X 177.4809 Y 186.7204

G01 Z -0.1250 F 100.0000(Penetrate)
G01 X 177.4809 Y 189.4631 Z -0.1250 F 400.0000
G00 Z 5.0000

(End cutting path id: path164)


(Start cutting path id: path164)
(Change tool to Default tool)

G00 Z 5.0000
G00 X 177.4809 Y 186.7204

G01 Z -0.1250 F 100.0000(Penetrate)
G01 X 177.4809 Y 189.4631 Z -0.1250 F 400.0000
G00 Z 5.0000

(End cutting path id: path164)


(Start cutting path id: path152)
(Change tool to Default tool)

G00 Z 5.0000
G00 X 175.0309 Y 186.7204

G01 Z -0.1250 F 100.0000(Penetrate)
G03 X 174.8238 Y 187.4960 Z -0.1250 I -1.5500 J 0.0016 F 400.0000
G03 X 174.2564 Y 188.0640 Z -0.1250 I -1.3429 J -0.7741
G03 X 173.4809 Y 188.2720 Z -0.1250 I -0.7755 J -1.3421
G03 X 172.7055 Y 188.0640 Z -0.1250 I -0.0000 J -1.5500
G03 X 172.1381 Y 187.4960 Z -0.1250 I 0.7755 J -1.3421
G03 X 171.9309 Y 186.7204 Z -0.1250 I 1.3429 J -0.7741
G03 X 172.1381 Y 185.9447 Z -0.1250 I 1.5500 J -0.0016
G03 X 172.7055 Y 185.3767 Z -0.1250 I 1.3429 J 0.7741
G03 X 173.4809 Y 185.1688 Z -0.1250 I 0.7755 J 1.3421
G03 X 174.2564 Y 185.3767 Z -0.1250 I -0.0000 J 1.5500
G03 X 174.8238 Y 185.9447 Z -0.1250 I -0.7755 J 1.3421
G03 X 175.0309 Y 186.7204 Z -0.1250 I -1.3429 J 0.7741
G01 X 175.0309 Y 186.7204 Z -0.1250
G00 Z 5.0000

(End cutting path id: path152)


(Start cutting path id: path152)
(Change tool to Default tool)

G00 Z 5.0000
G00 X 175.0309 Y 186.7204

G01 Z -0.1250 F 100.0000(Penetrate)
G03 X 174.8238 Y 187.4960 Z -0.1250 I -1.5500 J 0.0016 F 400.0000
G03 X 174.2564 Y 188.0640 Z -0.1250 I -1.3429 J -0.7741
G03 X 173.4809 Y 188.2720 Z -0.1250 I -0.7755 J -1.3421
G03 X 172.7055 Y 188.0640 Z -0.1250 I -0.0000 J -1.5500
G03 X 172.1381 Y 187.4960 Z -0.1250 I 0.7755 J -1.3421
G03 X 171.9309 Y 186.7204 Z -0.1250 I 1.3429 J -0.7741
G03 X 172.1381 Y 185.9447 Z -0.1250 I 1.5500 J -0.0016
G03 X 172.7055 Y 185.3767 Z -0.1250 I 1.3429 J 0.7741
G03 X 173.4809 Y 185.1688 Z -0.1250 I 0.7755 J 1.3421
G03 X 174.2564 Y 185.3767 Z -0.1250 I -0.0000 J 1.5500
G03 X 174.8238 Y 185.9447 Z -0.1250 I -0.7755 J 1.3421
G03 X 175.0309 Y 186.7204 Z -0.1250 I -1.3429 J 0.7741
G01 X 175.0309 Y 186.7204 Z -0.1250
G00 Z 5.0000

(End cutting path id: path152)


(Start cutting path id: path160)
(Change tool to Default tool)

G00 Z 5.0000
G00 X 173.4809 Y 182.7204

G01 Z -0.1250 F 100.0000(Penetrate)
G03 X 175.0117 Y 183.0249 Z -0.1250 I 0.0000 J 4.0000 F 400.0000
G03 X 176.3093 Y 183.8920 Z -0.1250 I -1.5307 J 3.6955
G03 X 177.1764 Y 185.1897 Z -0.1250 I -2.8284 J 2.8284
G03 X 177.4809 Y 186.7204 Z -0.1250 I -3.6955 J 1.5307
G00 Z 5.0000

(End cutting path id: path160)


(Start cutting path id: path160)
(Change tool to Default tool)

G00 Z 5.0000
G00 X 173.4809 Y 182.7204

G01 Z -0.1250 F 100.0000(Penetrate)
G03 X 175.0117 Y 183.0249 Z -0.1250 I 0.0000 J 4.0000 F 400.0000
G03 X 176.3093 Y 183.8920 Z -0.1250 I -1.5307 J 3.6955
G03 X 177.1764 Y 185.1897 Z -0.1250 I -2.8284 J 2.8284
G03 X 177.4809 Y 186.7204 Z -0.1250 I -3.6955 J 1.5307
G00 Z 5.0000

(End cutting path id: path160)


(Start cutting path id: path178)
(Change tool to Default tool)

G00 Z 5.0000
G00 X 175.0030 Y 205.2661

G01 Z -0.1250 F 100.0000(Penetrate)
G03 X 176.7794 Y 206.2925 Z -0.1250 I -0.5221 J 2.9542 F 400.0000
G03 X 177.4809 Y 208.2204 Z -0.1250 I -2.2985 J 1.9279
G00 Z 5.0000

(End cutting path id: path178)


(Start cutting path id: path178)
(Change tool to Default tool)

G00 Z 5.0000
G00 X 175.0030 Y 205.2661

G01 Z -0.1250 F 100.0000(Penetrate)
G03 X 176.7794 Y 206.2925 Z -0.1250 I -0.5221 J 2.9542 F 400.0000
G03 X 177.4809 Y 208.2204 Z -0.1250 I -2.2985 J 1.9279
G00 Z 5.0000

(End cutting path id: path178)


(Start cutting path id: path168)
(Change tool to Default tool)

G00 Z 5.0000
G00 X 177.4809 Y 208.2204

G01 Z -0.1250 F 100.0000(Penetrate)
G01 X 177.4809 Y 208.2360 Z -0.1250 F 400.0000
G00 Z 5.0000

(End cutting path id: path168)


(Start cutting path id: path168)
(Change tool to Default tool)

G00 Z 5.0000
G00 X 177.4809 Y 208.2204

G01 Z -0.1250 F 100.0000(Penetrate)
G01 X 177.4809 Y 208.2360 Z -0.1250 F 400.0000
G00 Z 5.0000

(End cutting path id: path168)


(Start cutting path id: path174)
(Change tool to Default tool)

G00 Z 5.0000
G00 X 177.4809 Y 208.2361

G01 Z -0.1250 F 100.0000(Penetrate)
G03 X 177.4004 Y 209.1564 Z -0.1250 I -5.3000 J -0.0000 F 400.0000
G03 X 177.1613 Y 210.0488 Z -0.1250 I -5.2195 J -0.9203
G00 Z 5.0000

(End cutting path id: path174)


(Start cutting path id: path174)
(Change tool to Default tool)

G00 Z 5.0000
G00 X 177.4809 Y 208.2361

G01 Z -0.1250 F 100.0000(Penetrate)
G03 X 177.4004 Y 209.1564 Z -0.1250 I -5.3000 J -0.0000 F 400.0000
G03 X 177.1613 Y 210.0488 Z -0.1250 I -5.2195 J -0.9203
G00 Z 5.0000

(End cutting path id: path174)


(Start cutting path id: path176)
(Change tool to Default tool)

G00 Z 5.0000
G00 X 177.1613 Y 210.0488

G01 Z -0.1250 F 100.0000(Penetrate)
G01 X 176.5551 Y 211.7141 Z -0.1250 F 400.0000
G00 Z 5.0000

(End cutting path id: path176)


(Start cutting path id: path176)
(Change tool to Default tool)

G00 Z 5.0000
G00 X 177.1613 Y 210.0488

G01 Z -0.1250 F 100.0000(Penetrate)
G01 X 176.5551 Y 211.7141 Z -0.1250 F 400.0000
G00 Z 5.0000

(End cutting path id: path176)


(Start cutting path id: path180)
(Change tool to Default tool)

G00 Z 5.0000
G00 X 176.9728 Y 213.3524

G01 Z -0.1250 F 100.0000(Penetrate)
G03 X 176.5112 Y 212.5977 Z -0.1250 I 0.9919 J -1.1252 F 400.0000
G03 X 176.5551 Y 211.7141 Z -0.1250 I 1.4535 J -0.3706
G00 Z 5.0000

(End cutting path id: path180)


(Start cutting path id: path180)
(Change tool to Default tool)

G00 Z 5.0000
G00 X 176.9728 Y 213.3524

G01 Z -0.1250 F 100.0000(Penetrate)
G03 X 176.5112 Y 212.5977 Z -0.1250 I 0.9919 J -1.1252 F 400.0000
G03 X 176.5551 Y 211.7141 Z -0.1250 I 1.4535 J -0.3706
G00 Z 5.0000

(End cutting path id: path180)


(Start cutting path id: path162)
(Change tool to Default tool)

G00 Z 5.0000
G00 X 176.9728 Y 213.3524

G01 Z -0.1250 F 100.0000(Penetrate)
G03 X 177.3480 Y 213.8603 Z -0.1250 I -0.9919 J 1.1252 F 400.0000
G03 X 177.4809 Y 214.4776 Z -0.1250 I -1.3671 J 0.6173
G00 Z 5.0000

(End cutting path id: path162)


(Start cutting path id: path162)
(Change tool to Default tool)

G00 Z 5.0000
G00 X 176.9728 Y 213.3524

G01 Z -0.1250 F 100.0000(Penetrate)
G03 X 177.3480 Y 213.8603 Z -0.1250 I -0.9919 J 1.1252 F 400.0000
G03 X 177.4809 Y 214.4776 Z -0.1250 I -1.3671 J 0.6173
G00 Z 5.0000

(End cutting path id: path162)


(Start cutting path id: path134)
(Change tool to Default tool)

G00 Z 5.0000
G00 X 177.4809 Y 214.4776

G01 Z -0.1250 F 100.0000(Penetrate)
G01 X 177.4809 Y 217.2204 Z -0.1250 F 400.0000
G00 Z 5.0000

(End cutting path id: path134)


(Start cutting path id: path134)
(Change tool to Default tool)

G00 Z 5.0000
G00 X 177.4809 Y 214.4776

G01 Z -0.1250 F 100.0000(Penetrate)
G01 X 177.4809 Y 217.2204 Z -0.1250 F 400.0000
G00 Z 5.0000

(End cutting path id: path134)


(Start cutting path id: path182)
(Change tool to Default tool)

G00 Z 5.0000
G00 X 177.4809 Y 217.2204

G01 Z -0.1250 F 100.0000(Penetrate)
G03 X 177.1764 Y 218.7511 Z -0.1250 I -4.0000 J -0.0000 F 400.0000
G03 X 176.3093 Y 220.0488 Z -0.1250 I -3.6955 J -1.5307
G03 X 175.0117 Y 220.9159 Z -0.1250 I -2.8284 J -2.8284
G03 X 173.4809 Y 221.2203 Z -0.1250 I -1.5307 J -3.6955
G00 Z 5.0000

(End cutting path id: path182)


(Start cutting path id: path182)
(Change tool to Default tool)

G00 Z 5.0000
G00 X 177.4809 Y 217.2204

G01 Z -0.1250 F 100.0000(Penetrate)
G03 X 177.1764 Y 218.7511 Z -0.1250 I -4.0000 J -0.0000 F 400.0000
G03 X 176.3093 Y 220.0488 Z -0.1250 I -3.6955 J -1.5307
G03 X 175.0117 Y 220.9159 Z -0.1250 I -2.8284 J -2.8284
G03 X 173.4809 Y 221.2203 Z -0.1250 I -1.5307 J -3.6955
G00 Z 5.0000

(End cutting path id: path182)


(Start cutting path id: path102)
(Change tool to Default tool)

G00 Z 5.0000
G00 X 173.4809 Y 221.2203

G01 Z -0.1250 F 100.0000(Penetrate)
G01 X 32.9711 Y 221.2203 Z -0.1250 F 400.0000
G00 Z 5.0000

(End cutting path id: path102)


(Start cutting path id: path102)
(Change tool to Default tool)

G00 Z 5.0000
G00 X 173.4809 Y 221.2203

G01 Z -0.1250 F 100.0000(Penetrate)
G01 X 32.9711 Y 221.2203 Z -0.1250 F 400.0000
G00 Z 5.0000

(End cutting path id: path102)


(Start cutting path id: path108)
(Change tool to Default tool)

G00 Z 5.0000
G00 X 32.9711 Y 221.2203

G01 Z -0.1250 F 100.0000(Penetrate)
G03 X 30.2050 Y 220.1098 Z -0.1250 I -0.0000 J -4.0000 F 400.0000
G03 X 28.9749 Y 217.3948 Z -0.1250 I 2.7660 J -2.8895
G03 X 29.9637 Y 214.5830 Z -0.1250 I 3.9962 J -0.1745
G03 X 32.6225 Y 213.2356 Z -0.1250 I 3.0073 J 2.6374
G00 Z 5.0000

(End cutting path id: path108)


(Start cutting path id: path108)
(Change tool to Default tool)

G00 Z 5.0000
G00 X 32.9711 Y 221.2203

G01 Z -0.1250 F 100.0000(Penetrate)
G03 X 30.2050 Y 220.1098 Z -0.1250 I -0.0000 J -4.0000 F 400.0000
G03 X 28.9749 Y 217.3948 Z -0.1250 I 2.7660 J -2.8895
G03 X 29.9637 Y 214.5830 Z -0.1250 I 3.9962 J -0.1745
G03 X 32.6225 Y 213.2356 Z -0.1250 I 3.0073 J 2.6374
G00 Z 5.0000

(End cutting path id: path108)


(Start cutting path id: path112)
(Change tool to Default tool)

G00 Z 5.0000
G00 X 32.6225 Y 213.2356

G01 Z -0.1250 F 100.0000(Penetrate)
G01 X 48.6464 Y 211.8337 Z -0.1250 F 400.0000
G00 Z 5.0000

(End cutting path id: path112)


(Start cutting path id: path112)
(Change tool to Default tool)

G00 Z 5.0000
G00 X 32.6225 Y 213.2356

G01 Z -0.1250 F 100.0000(Penetrate)
G01 X 48.6464 Y 211.8337 Z -0.1250 F 400.0000
G00 Z 5.0000

(End cutting path id: path112)


(Start cutting path id: path120)
(Change tool to Default tool)

G00 Z 5.0000
G00 X 52.1942 Y 208.7533

G01 Z -0.1250 F 100.0000(Penetrate)
G03 X 50.9203 Y 210.8693 Z -0.1250 I -3.8964 J -0.9044 F 400.0000
G03 X 48.6464 Y 211.8337 Z -0.1250 I -2.6225 J -3.0204
G00 Z 5.0000

(End cutting path id: path120)


(Start cutting path id: path120)
(Change tool to Default tool)

G00 Z 5.0000
G00 X 52.1942 Y 208.7533

G01 Z -0.1250 F 100.0000(Penetrate)
G03 X 50.9203 Y 210.8693 Z -0.1250 I -3.8964 J -0.9044 F 400.0000
G03 X 48.6464 Y 211.8337 Z -0.1250 I -2.6225 J -3.0204
G00 Z 5.0000

(End cutting path id: path120)


(Start cutting path id: path98)
(Change tool to Default tool)

G00 Z 5.0000
G00 X 46.3961 Y 218.2203

G01 Z -0.1250 F 100.0000(Penetrate)
G03 X 46.3291 Y 218.4703 Z -0.1250 I -0.5000 J 0.0000 F 400.0000
G03 X 46.1461 Y 218.6534 Z -0.1250 I -0.4330 J -0.2500
G03 X 45.8961 Y 218.7203 Z -0.1250 I -0.2500 J -0.4330
G03 X 45.6461 Y 218.6534 Z -0.1250 I -0.0000 J -0.5000
G03 X 45.4631 Y 218.4703 Z -0.1250 I 0.2500 J -0.4330
G03 X 45.3961 Y 218.2203 Z -0.1250 I 0.4330 J -0.2500
G01 X 41.3961 Y 218.2203 Z -0.1250
G03 X 41.3291 Y 218.4703 Z -0.1250 I -0.5000 J 0.0000
G03 X 41.1461 Y 218.6534 Z -0.1250 I -0.4330 J -0.2500
G03 X 40.8961 Y 218.7203 Z -0.1250 I -0.2500 J -0.4330
G03 X 40.6461 Y 218.6534 Z -0.1250 I -0.0000 J -0.5000
G03 X 40.4631 Y 218.4703 Z -0.1250 I 0.2500 J -0.4330
G03 X 40.3961 Y 218.2203 Z -0.1250 I 0.4330 J -0.2500
G01 X 40.3961 Y 216.2204 Z -0.1250
G03 X 40.4631 Y 215.9704 Z -0.1250 I 0.5000 J -0.0000
G03 X 40.6461 Y 215.7873 Z -0.1250 I 0.4330 J 0.2500
G03 X 40.8961 Y 215.7204 Z -0.1250 I 0.2500 J 0.4330
G03 X 41.1461 Y 215.7873 Z -0.1250 I 0.0000 J 0.5000
G03 X 41.3291 Y 215.9704 Z -0.1250 I -0.2500 J 0.4330
G03 X 41.3961 Y 216.2204 Z -0.1250 I -0.4330 J 0.2500
G01 X 45.3961 Y 216.2204 Z -0.1250
G03 X 45.5425 Y 215.8668 Z -0.1250 I 0.5000 J 0.0000
G03 X 45.8961 Y 215.7204 Z -0.1250 I 0.3536 J 0.3536
G03 X 46.2496 Y 215.8668 Z -0.1250 I -0.0000 J 0.5000
G03 X 46.3961 Y 216.2204 Z -0.1250 I -0.3536 J 0.3536
G01 X 46.3961 Y 218.2203 Z -0.1250
G00 Z 5.0000

(End cutting path id: path98)


(Start cutting path id: path98)
(Change tool to Default tool)

G00 Z 5.0000
G00 X 46.3961 Y 218.2203

G01 Z -0.1250 F 100.0000(Penetrate)
G03 X 46.3291 Y 218.4703 Z -0.1250 I -0.5000 J 0.0000 F 400.0000
G03 X 46.1461 Y 218.6534 Z -0.1250 I -0.4330 J -0.2500
G03 X 45.8961 Y 218.7203 Z -0.1250 I -0.2500 J -0.4330
G03 X 45.6461 Y 218.6534 Z -0.1250 I -0.0000 J -0.5000
G03 X 45.4631 Y 218.4703 Z -0.1250 I 0.2500 J -0.4330
G03 X 45.3961 Y 218.2203 Z -0.1250 I 0.4330 J -0.2500
G01 X 41.3961 Y 218.2203 Z -0.1250
G03 X 41.3291 Y 218.4703 Z -0.1250 I -0.5000 J 0.0000
G03 X 41.1461 Y 218.6534 Z -0.1250 I -0.4330 J -0.2500
G03 X 40.8961 Y 218.7203 Z -0.1250 I -0.2500 J -0.4330
G03 X 40.6461 Y 218.6534 Z -0.1250 I -0.0000 J -0.5000
G03 X 40.4631 Y 218.4703 Z -0.1250 I 0.2500 J -0.4330
G03 X 40.3961 Y 218.2203 Z -0.1250 I 0.4330 J -0.2500
G01 X 40.3961 Y 216.2204 Z -0.1250
G03 X 40.4631 Y 215.9704 Z -0.1250 I 0.5000 J -0.0000
G03 X 40.6461 Y 215.7873 Z -0.1250 I 0.4330 J 0.2500
G03 X 40.8961 Y 215.7204 Z -0.1250 I 0.2500 J 0.4330
G03 X 41.1461 Y 215.7873 Z -0.1250 I 0.0000 J 0.5000
G03 X 41.3291 Y 215.9704 Z -0.1250 I -0.2500 J 0.4330
G03 X 41.3961 Y 216.2204 Z -0.1250 I -0.4330 J 0.2500
G01 X 45.3961 Y 216.2204 Z -0.1250
G03 X 45.5425 Y 215.8668 Z -0.1250 I 0.5000 J 0.0000
G03 X 45.8961 Y 215.7204 Z -0.1250 I 0.3536 J 0.3536
G03 X 46.2496 Y 215.8668 Z -0.1250 I -0.0000 J 0.5000
G03 X 46.3961 Y 216.2204 Z -0.1250 I -0.3536 J 0.3536
G01 X 46.3961 Y 218.2203 Z -0.1250
G00 Z 5.0000

(End cutting path id: path98)


(Start cutting path id: path110)
(Change tool to Default tool)

G00 Z 5.0000
G00 X 34.5211 Y 217.2204

G01 Z -0.1250 F 100.0000(Penetrate)
G03 X 34.3134 Y 217.9954 Z -0.1250 I -1.5500 J 0.0000 F 400.0000
G03 X 33.7461 Y 218.5627 Z -0.1250 I -1.3423 J -0.7750
G03 X 32.9711 Y 218.7704 Z -0.1250 I -0.7750 J -1.3423
G03 X 32.1961 Y 218.5627 Z -0.1250 I -0.0000 J -1.5500
G03 X 31.6288 Y 217.9954 Z -0.1250 I 0.7750 J -1.3423
G03 X 31.4211 Y 217.2204 Z -0.1250 I 1.3423 J -0.7750
G03 X 31.6288 Y 216.4454 Z -0.1250 I 1.5500 J -0.0000
G03 X 32.1961 Y 215.8780 Z -0.1250 I 1.3423 J 0.7750
G03 X 32.9711 Y 215.6704 Z -0.1250 I 0.7750 J 1.3423
G03 X 33.7461 Y 215.8780 Z -0.1250 I 0.0000 J 1.5500
G03 X 34.3134 Y 216.4454 Z -0.1250 I -0.7750 J 1.3423
G03 X 34.5211 Y 217.2204 Z -0.1250 I -1.3423 J 0.7750
G01 X 34.5211 Y 217.2204 Z -0.1250
G00 Z 5.0000

(End cutting path id: path110)


(Start cutting path id: path110)
(Change tool to Default tool)

G00 Z 5.0000
G00 X 34.5211 Y 217.2204

G01 Z -0.1250 F 100.0000(Penetrate)
G03 X 34.3134 Y 217.9954 Z -0.1250 I -1.5500 J 0.0000 F 400.0000
G03 X 33.7461 Y 218.5627 Z -0.1250 I -1.3423 J -0.7750
G03 X 32.9711 Y 218.7704 Z -0.1250 I -0.7750 J -1.3423
G03 X 32.1961 Y 218.5627 Z -0.1250 I -0.0000 J -1.5500
G03 X 31.6288 Y 217.9954 Z -0.1250 I 0.7750 J -1.3423
G03 X 31.4211 Y 217.2204 Z -0.1250 I 1.3423 J -0.7750
G03 X 31.6288 Y 216.4454 Z -0.1250 I 1.5500 J -0.0000
G03 X 32.1961 Y 215.8780 Z -0.1250 I 1.3423 J 0.7750
G03 X 32.9711 Y 215.6704 Z -0.1250 I 0.7750 J 1.3423
G03 X 33.7461 Y 215.8780 Z -0.1250 I 0.0000 J 1.5500
G03 X 34.3134 Y 216.4454 Z -0.1250 I -0.7750 J 1.3423
G03 X 34.5211 Y 217.2204 Z -0.1250 I -1.3423 J 0.7750
G01 X 34.5211 Y 217.2204 Z -0.1250
G00 Z 5.0000

(End cutting path id: path110)


(Start cutting path id: path116)
(Change tool to Default tool)

G00 Z 5.0000
G00 X 32.6225 Y 190.7052

G01 Z -0.1250 F 100.0000(Penetrate)
G03 X 29.9637 Y 189.3578 Z -0.1250 I 0.3486 J -3.9848 F 400.0000
G03 X 28.9749 Y 186.5459 Z -0.1250 I 3.0073 J -2.6374
G03 X 30.2050 Y 183.8309 Z -0.1250 I 3.9962 J 0.1745
G03 X 32.9711 Y 182.7204 Z -0.1250 I 2.7660 J 2.8895
G00 Z 5.0000

(End cutting path id: path116)


(Start cutting path id: path116)
(Change tool to Default tool)

G00 Z 5.0000
G00 X 32.6225 Y 190.7052

G01 Z -0.1250 F 100.0000(Penetrate)
G03 X 29.9637 Y 189.3578 Z -0.1250 I 0.3486 J -3.9848 F 400.0000
G03 X 28.9749 Y 186.5459 Z -0.1250 I 3.0073 J -2.6374
G03 X 30.2050 Y 183.8309 Z -0.1250 I 3.9962 J 0.1745
G03 X 32.9711 Y 182.7204 Z -0.1250 I 2.7660 J 2.8895
G00 Z 5.0000

(End cutting path id: path116)


(Start cutting path id: path100)
(Change tool to Default tool)

G00 Z 5.0000
G00 X 32.9711 Y 182.7204

G01 Z -0.1250 F 100.0000(Penetrate)
G01 X 173.4809 Y 182.7204 Z -0.1250 F 400.0000
G00 Z 5.0000

(End cutting path id: path100)


(Start cutting path id: path100)
(Change tool to Default tool)

G00 Z 5.0000
G00 X 32.9711 Y 182.7204

G01 Z -0.1250 F 100.0000(Penetrate)
G01 X 173.4809 Y 182.7204 Z -0.1250 F 400.0000
G00 Z 5.0000

(End cutting path id: path100)


(Start cutting path id: path170)
(Change tool to Default tool)

G00 Z 5.0000
G00 X 175.0030 Y 205.2661

G01 Z -0.1250 F 100.0000(Penetrate)
G03 X 173.9239 Y 205.0131 Z -0.1250 I 1.7403 J -9.8474 F 400.0000
G03 X 172.8795 Y 204.6421 Z -0.1250 I 2.8194 J -9.5943
G00 Z 5.0000

(End cutting path id: path170)


(Start cutting path id: path170)
(Change tool to Default tool)

G00 Z 5.0000
G00 X 175.0030 Y 205.2661

G01 Z -0.1250 F 100.0000(Penetrate)
G03 X 173.9239 Y 205.0131 Z -0.1250 I 1.7403 J -9.8474 F 400.0000
G03 X 172.8795 Y 204.6421 Z -0.1250 I 2.8194 J -9.5943
G00 Z 5.0000

(End cutting path id: path170)


(Start cutting path id: path136)
(Change tool to Default tool)

G00 Z 5.0000
G00 X 174.5554 Y 208.6379

G01 Z -0.1250 F 100.0000(Penetrate)
G03 X 174.6566 Y 208.4711 Z -0.1250 I 0.4698 J 0.1710 F 400.0000
G03 X 174.8140 Y 208.3558 Z -0.1250 I 0.3686 J 0.3378
G03 X 175.0035 Y 208.3094 Z -0.1250 I 0.2113 J 0.4532
G03 X 175.1963 Y 208.3391 Z -0.1250 I 0.0218 J 0.4995
G01 X 175.6661 Y 208.5101 Z -0.1250
G03 X 175.9483 Y 208.7686 Z -0.1250 I -0.1710 J 0.4698
G03 X 175.9650 Y 209.1509 Z -0.1250 I -0.4532 J 0.2113
G01 X 175.1099 Y 211.5002 Z -0.1250
G03 X 175.0087 Y 211.6670 Z -0.1250 I -0.4698 J -0.1710
G03 X 174.8514 Y 211.7823 Z -0.1250 I -0.3686 J -0.3378
G03 X 174.6619 Y 211.8287 Z -0.1250 I -0.2113 J -0.4532
G03 X 174.4691 Y 211.7990 Z -0.1250 I -0.0218 J -0.4995
G01 X 173.9992 Y 211.6280 Z -0.1250
G03 X 173.7171 Y 211.3695 Z -0.1250 I 0.1710 J -0.4698
G03 X 173.7004 Y 210.9871 Z -0.1250 I 0.4532 J -0.2113
G01 X 174.5554 Y 208.6379 Z -0.1250
G00 Z 5.0000

(End cutting path id: path136)


(Start cutting path id: path136)
(Change tool to Default tool)

G00 Z 5.0000
G00 X 174.5554 Y 208.6379

G01 Z -0.1250 F 100.0000(Penetrate)
G03 X 174.6566 Y 208.4711 Z -0.1250 I 0.4698 J 0.1710 F 400.0000
G03 X 174.8140 Y 208.3558 Z -0.1250 I 0.3686 J 0.3378
G03 X 175.0035 Y 208.3094 Z -0.1250 I 0.2113 J 0.4532
G03 X 175.1963 Y 208.3391 Z -0.1250 I 0.0218 J 0.4995
G01 X 175.6661 Y 208.5101 Z -0.1250
G03 X 175.9483 Y 208.7686 Z -0.1250 I -0.1710 J 0.4698
G03 X 175.9650 Y 209.1509 Z -0.1250 I -0.4532 J 0.2113
G01 X 175.1099 Y 211.5002 Z -0.1250
G03 X 175.0087 Y 211.6670 Z -0.1250 I -0.4698 J -0.1710
G03 X 174.8514 Y 211.7823 Z -0.1250 I -0.3686 J -0.3378
G03 X 174.6619 Y 211.8287 Z -0.1250 I -0.2113 J -0.4532
G03 X 174.4691 Y 211.7990 Z -0.1250 I -0.0218 J -0.4995
G01 X 173.9992 Y 211.6280 Z -0.1250
G03 X 173.7171 Y 211.3695 Z -0.1250 I 0.1710 J -0.4698
G03 X 173.7004 Y 210.9871 Z -0.1250 I 0.4532 J -0.2113
G01 X 174.5554 Y 208.6379 Z -0.1250
G00 Z 5.0000

(End cutting path id: path136)


(Start cutting path id: path184)
(Change tool to Default tool)

G00 Z 5.0000
G00 X 175.0309 Y 217.2204

G01 Z -0.1250 F 100.0000(Penetrate)
G03 X 174.8238 Y 217.9960 Z -0.1250 I -1.5500 J 0.0016 F 400.0000
G03 X 174.2564 Y 218.5640 Z -0.1250 I -1.3429 J -0.7741
G03 X 173.4809 Y 218.7719 Z -0.1250 I -0.7755 J -1.3421
G03 X 172.7055 Y 218.5640 Z -0.1250 I -0.0000 J -1.5500
G03 X 172.1381 Y 217.9960 Z -0.1250 I 0.7755 J -1.3421
G03 X 171.9309 Y 217.2204 Z -0.1250 I 1.3429 J -0.7741
G03 X 172.1381 Y 216.4447 Z -0.1250 I 1.5500 J -0.0016
G03 X 172.7055 Y 215.8767 Z -0.1250 I 1.3429 J 0.7741
G03 X 173.4809 Y 215.6688 Z -0.1250 I 0.7755 J 1.3421
G03 X 174.2564 Y 215.8767 Z -0.1250 I -0.0000 J 1.5500
G03 X 174.8238 Y 216.4447 Z -0.1250 I -0.7755 J 1.3421
G03 X 175.0309 Y 217.2204 Z -0.1250 I -1.3429 J 0.7741
G01 X 175.0309 Y 217.2204 Z -0.1250
G00 Z 5.0000

(End cutting path id: path184)


(Start cutting path id: path184)
(Change tool to Default tool)

G00 Z 5.0000
G00 X 175.0309 Y 217.2204

G01 Z -0.1250 F 100.0000(Penetrate)
G03 X 174.8238 Y 217.9960 Z -0.1250 I -1.5500 J 0.0016 F 400.0000
G03 X 174.2564 Y 218.5640 Z -0.1250 I -1.3429 J -0.7741
G03 X 173.4809 Y 218.7719 Z -0.1250 I -0.7755 J -1.3421
G03 X 172.7055 Y 218.5640 Z -0.1250 I -0.0000 J -1.5500
G03 X 172.1381 Y 217.9960 Z -0.1250 I 0.7755 J -1.3421
G03 X 171.9309 Y 217.2204 Z -0.1250 I 1.3429 J -0.7741
G03 X 172.1381 Y 216.4447 Z -0.1250 I 1.5500 J -0.0016
G03 X 172.7055 Y 215.8767 Z -0.1250 I 1.3429 J 0.7741
G03 X 173.4809 Y 215.6688 Z -0.1250 I 0.7755 J 1.3421
G03 X 174.2564 Y 215.8767 Z -0.1250 I -0.0000 J 1.5500
G03 X 174.8238 Y 216.4447 Z -0.1250 I -0.7755 J 1.3421
G03 X 175.0309 Y 217.2204 Z -0.1250 I -1.3429 J 0.7741
G01 X 175.0309 Y 217.2204 Z -0.1250
G00 Z 5.0000

(End cutting path id: path184)


(Start cutting path id: path124)
(Change tool to Default tool)

G00 Z 5.0000
G00 X 164.8261 Y 216.4704

G01 Z -0.1250 F 100.0000(Penetrate)
G01 X 139.8261 Y 216.4704 Z -0.1250 F 400.0000
G01 X 136.7280 Y 216.4704 Z -0.1250
G02 X 136.2263 Y 216.6031 Z -0.1250 I -0.0038 J 1.0000
G02 X 135.8587 Y 216.9692 Z -0.1250 I 0.4978 J 0.8673
G02 X 135.7241 Y 217.4704 Z -0.1250 I 0.8654 J 0.5011
G02 X 135.8587 Y 217.9715 Z -0.1250 I 1.0000 J 0.0000
G02 X 136.2263 Y 218.3377 Z -0.1250 I 0.8654 J -0.5011
G02 X 136.7280 Y 218.4703 Z -0.1250 I 0.4978 J -0.8673
G01 X 139.8261 Y 218.4703 Z -0.1250
G01 X 164.8261 Y 218.4703 Z -0.1250
G02 X 165.5307 Y 218.1761 Z -0.1250 I -0.0038 J -1.0000
G02 X 165.8223 Y 217.4704 Z -0.1250 I -0.7085 J -0.7057
G02 X 165.5307 Y 216.7646 Z -0.1250 I -1.0000 J 0.0000
G02 X 164.8261 Y 216.4704 Z -0.1250 I -0.7085 J 0.7057
G01 X 164.8261 Y 216.4704 Z -0.1250
G00 Z 5.0000

(End cutting path id: path124)


(Start cutting path id: path124)
(Change tool to Default tool)

G00 Z 5.0000
G00 X 164.8261 Y 216.4704

G01 Z -0.1250 F 100.0000(Penetrate)
G01 X 139.8261 Y 216.4704 Z -0.1250 F 400.0000
G01 X 136.7280 Y 216.4704 Z -0.1250
G02 X 136.2263 Y 216.6031 Z -0.1250 I -0.0038 J 1.0000
G02 X 135.8587 Y 216.9692 Z -0.1250 I 0.4978 J 0.8673
G02 X 135.7241 Y 217.4704 Z -0.1250 I 0.8654 J 0.5011
G02 X 135.8587 Y 217.9715 Z -0.1250 I 1.0000 J 0.0000
G02 X 136.2263 Y 218.3377 Z -0.1250 I 0.8654 J -0.5011
G02 X 136.7280 Y 218.4703 Z -0.1250 I 0.4978 J -0.8673
G01 X 139.8261 Y 218.4703 Z -0.1250
G01 X 164.8261 Y 218.4703 Z -0.1250
G02 X 165.5307 Y 218.1761 Z -0.1250 I -0.0038 J -1.0000
G02 X 165.8223 Y 217.4704 Z -0.1250 I -0.7085 J -0.7057
G02 X 165.5307 Y 216.7646 Z -0.1250 I -1.0000 J 0.0000
G02 X 164.8261 Y 216.4704 Z -0.1250 I -0.7085 J 0.7057
G01 X 164.8261 Y 216.4704 Z -0.1250
G00 Z 5.0000

(End cutting path id: path124)


(Start cutting path id: path80)
(Change tool to Default tool)

G00 Z 5.0000
G00 X 104.4521 Y 208.7960

G01 Z -0.1250 F 100.0000(Penetrate)
G01 X 108.8912 Y 206.0228 Z -0.1250 F 400.0000
G03 X 109.4210 Y 205.8709 Z -0.1250 I 0.5298 J 0.8481
G03 X 109.9508 Y 206.0228 Z -0.1250 I 0.0000 J 1.0000
G01 X 114.3899 Y 208.7960 Z -0.1250
G03 X 114.7528 Y 209.2356 Z -0.1250 I -0.4769 J 0.7633
G03 X 114.7788 Y 209.8051 Z -0.1250 I -0.8398 J 0.3236
G03 X 114.4574 Y 210.2760 Z -0.1250 I -0.8658 J -0.2459
G03 X 113.9175 Y 210.4592 Z -0.1250 I -0.5443 J -0.7167
G01 X 104.9245 Y 210.4592 Z -0.1250
G03 X 104.3847 Y 210.2760 Z -0.1250 I 0.0045 J -0.9000
G03 X 104.0632 Y 209.8051 Z -0.1250 I 0.5443 J -0.7167
G03 X 104.0892 Y 209.2356 Z -0.1250 I 0.8658 J -0.2459
G03 X 104.4521 Y 208.7960 Z -0.1250 I 0.8398 J 0.3236
G01 X 104.4521 Y 208.7960 Z -0.1250
G00 Z 5.0000

(End cutting path id: path80)


(Start cutting path id: path80)
(Change tool to Default tool)

G00 Z 5.0000
G00 X 104.4521 Y 208.7960

G01 Z -0.1250 F 100.0000(Penetrate)
G01 X 108.8912 Y 206.0228 Z -0.1250 F 400.0000
G03 X 109.4210 Y 205.8709 Z -0.1250 I 0.5298 J 0.8481
G03 X 109.9508 Y 206.0228 Z -0.1250 I 0.0000 J 1.0000
G01 X 114.3899 Y 208.7960 Z -0.1250
G03 X 114.7528 Y 209.2356 Z -0.1250 I -0.4769 J 0.7633
G03 X 114.7788 Y 209.8051 Z -0.1250 I -0.8398 J 0.3236
G03 X 114.4574 Y 210.2760 Z -0.1250 I -0.8658 J -0.2459
G03 X 113.9175 Y 210.4592 Z -0.1250 I -0.5443 J -0.7167
G01 X 104.9245 Y 210.4592 Z -0.1250
G03 X 104.3847 Y 210.2760 Z -0.1250 I 0.0045 J -0.9000
G03 X 104.0632 Y 209.8051 Z -0.1250 I 0.5443 J -0.7167
G03 X 104.0892 Y 209.2356 Z -0.1250 I 0.8658 J -0.2459
G03 X 104.4521 Y 208.7960 Z -0.1250 I 0.8398 J 0.3236
G01 X 104.4521 Y 208.7960 Z -0.1250
G00 Z 5.0000

(End cutting path id: path80)


(Start cutting path id: path48)
(Change tool to Default tool)

G00 Z 5.0000
G00 X 96.7600 Y 209.2291

G01 Z -0.1250 F 100.0000(Penetrate)
G03 X 96.7757 Y 209.6426 Z -0.1250 I -0.8674 J 0.2399 F 400.0000
G03 X 96.6047 Y 210.0194 Z -0.1250 I -0.8831 J -0.1736
G03 X 96.2831 Y 210.2799 Z -0.1250 I -0.7121 J -0.5504
G03 X 95.8790 Y 210.3689 Z -0.1250 I -0.3905 J -0.8108
G00 Z 5.0000

(End cutting path id: path48)


(Start cutting path id: path48)
(Change tool to Default tool)

G00 Z 5.0000
G00 X 96.7600 Y 209.2291

G01 Z -0.1250 F 100.0000(Penetrate)
G03 X 96.7757 Y 209.6426 Z -0.1250 I -0.8674 J 0.2399 F 400.0000
G03 X 96.6047 Y 210.0194 Z -0.1250 I -0.8831 J -0.1736
G03 X 96.2831 Y 210.2799 Z -0.1250 I -0.7121 J -0.5504
G03 X 95.8790 Y 210.3689 Z -0.1250 I -0.3905 J -0.8108
G00 Z 5.0000

(End cutting path id: path48)


(Start cutting path id: path50)
(Change tool to Default tool)

G00 Z 5.0000
G00 X 95.8790 Y 210.3689

G01 Z -0.1250 F 100.0000(Penetrate)
G03 X 92.4093 Y 210.3097 Z -0.1250 I 13.1442 J -871.5809 F 400.0000
G03 X 88.9935 Y 210.2376 Z -0.1250 I 16.1036 J -844.7513
G00 Z 5.0000

(End cutting path id: path50)


(Start cutting path id: path50)
(Change tool to Default tool)

G00 Z 5.0000
G00 X 95.8790 Y 210.3689

G01 Z -0.1250 F 100.0000(Penetrate)
G03 X 92.4093 Y 210.3097 Z -0.1250 I 13.1442 J -871.5809 F 400.0000
G03 X 88.9935 Y 210.2376 Z -0.1250 I 16.1036 J -844.7513
G00 Z 5.0000

(End cutting path id: path50)


(Start cutting path id: path66)
(Change tool to Default tool)

G00 Z 5.0000
G00 X 88.9935 Y 210.2376

G01 Z -0.1250 F 100.0000(Penetrate)
G03 X 88.4603 Y 210.0471 Z -0.1250 I 0.0208 J -0.8998 F 400.0000
G03 X 88.1464 Y 209.5759 Z -0.1250 I 0.5540 J -0.7093
G03 X 88.1760 Y 209.0104 Z -0.1250 I 0.8680 J -0.2380
G03 X 88.5375 Y 208.5746 Z -0.1250 I 0.8383 J 0.3274
G00 Z 5.0000

(End cutting path id: path66)


(Start cutting path id: path66)
(Change tool to Default tool)

G00 Z 5.0000
G00 X 88.9935 Y 210.2376

G01 Z -0.1250 F 100.0000(Penetrate)
G03 X 88.4603 Y 210.0471 Z -0.1250 I 0.0208 J -0.8998 F 400.0000
G03 X 88.1464 Y 209.5759 Z -0.1250 I 0.5540 J -0.7093
G03 X 88.1760 Y 209.0104 Z -0.1250 I 0.8680 J -0.2380
G03 X 88.5375 Y 208.5746 Z -0.1250 I 0.8383 J 0.3274
G00 Z 5.0000

(End cutting path id: path66)


(Start cutting path id: path52)
(Change tool to Default tool)

G00 Z 5.0000
G00 X 90.2018 Y 202.8185

G01 Z -0.1250 F 100.0000(Penetrate)
G02 X 90.5466 Y 202.4552 Z -0.1250 I -0.5298 J -0.8481 F 400.0000
G02 X 90.6720 Y 201.9704 Z -0.1250 I -0.8746 J -0.4849
G02 X 90.5466 Y 201.4855 Z -0.1250 I -1.0000 J -0.0000
G02 X 90.2018 Y 201.1223 Z -0.1250 I -0.8746 J 0.4849
G01 X 83.7518 Y 197.0929 Z -0.1250
G02 X 83.3176 Y 196.9456 Z -0.1250 I -0.5298 J 0.8481
G02 X 82.8633 Y 197.0075 Z -0.1250 I -0.0956 J 0.9954
G02 X 82.4844 Y 197.2658 Z -0.1250 I 0.3587 J 0.9334
G02 X 82.2606 Y 197.6659 Z -0.1250 I 0.7376 J 0.6752
G01 X 81.1079 Y 201.6953 Z -0.1250
G02 X 81.0693 Y 201.9704 Z -0.1250 I 0.9614 J 0.2750
G02 X 81.1079 Y 202.2454 Z -0.1250 I 1.0000 J -0.0000
G01 X 82.2606 Y 206.2748 Z -0.1250
G02 X 82.4844 Y 206.6750 Z -0.1250 I 0.9614 J -0.2750
G02 X 82.8633 Y 206.9332 Z -0.1250 I 0.7376 J -0.6752
G02 X 83.3176 Y 206.9952 Z -0.1250 I 0.3587 J -0.9334
G02 X 83.7518 Y 206.8479 Z -0.1250 I -0.0956 J -0.9954
G01 X 90.2018 Y 202.8185 Z -0.1250
G00 Z 5.0000

(End cutting path id: path52)


(Start cutting path id: path52)
(Change tool to Default tool)

G00 Z 5.0000
G00 X 90.2018 Y 202.8185

G01 Z -0.1250 F 100.0000(Penetrate)
G02 X 90.5466 Y 202.4552 Z -0.1250 I -0.5298 J -0.8481 F 400.0000
G02 X 90.6720 Y 201.9704 Z -0.1250 I -0.8746 J -0.4849
G02 X 90.5466 Y 201.4855 Z -0.1250 I -1.0000 J -0.0000
G02 X 90.2018 Y 201.1223 Z -0.1250 I -0.8746 J 0.4849
G01 X 83.7518 Y 197.0929 Z -0.1250
G02 X 83.3176 Y 196.9456 Z -0.1250 I -0.5298 J 0.8481
G02 X 82.8633 Y 197.0075 Z -0.1250 I -0.0956 J 0.9954
G02 X 82.4844 Y 197.2658 Z -0.1250 I 0.3587 J 0.9334
G02 X 82.2606 Y 197.6659 Z -0.1250 I 0.7376 J 0.6752
G01 X 81.1079 Y 201.6953 Z -0.1250
G02 X 81.0693 Y 201.9704 Z -0.1250 I 0.9614 J 0.2750
G02 X 81.1079 Y 202.2454 Z -0.1250 I 1.0000 J -0.0000
G01 X 82.2606 Y 206.2748 Z -0.1250
G02 X 82.4844 Y 206.6750 Z -0.1250 I 0.9614 J -0.2750
G02 X 82.8633 Y 206.9332 Z -0.1250 I 0.7376 J -0.6752
G02 X 83.3176 Y 206.9952 Z -0.1250 I 0.3587 J -0.9334
G02 X 83.7518 Y 206.8479 Z -0.1250 I -0.0956 J -0.9954
G01 X 90.2018 Y 202.8185 Z -0.1250
G00 Z 5.0000

(End cutting path id: path52)


(Start cutting path id: path74)
(Change tool to Default tool)

G00 Z 5.0000
G00 X 94.2578 Y 205.0010

G01 Z -0.1250 F 100.0000(Penetrate)
G01 X 88.5375 Y 208.5746 Z -0.1250 F 400.0000
G00 Z 5.0000

(End cutting path id: path74)


(Start cutting path id: path74)
(Change tool to Default tool)

G00 Z 5.0000
G00 X 94.2578 Y 205.0010

G01 Z -0.1250 F 100.0000(Penetrate)
G01 X 88.5375 Y 208.5746 Z -0.1250 F 400.0000
G00 Z 5.0000

(End cutting path id: path74)


(Start cutting path id: path60)
(Change tool to Default tool)

G00 Z 5.0000
G00 X 94.2578 Y 205.0010

G01 Z -0.1250 F 100.0000(Penetrate)
G03 X 94.6942 Y 204.8535 Z -0.1250 I 0.5298 J 0.8481 F 400.0000
G03 X 95.1504 Y 204.9173 Z -0.1250 I 0.0934 J 0.9956
G03 X 95.5297 Y 205.1788 Z -0.1250 I -0.3628 J 0.9319
G03 X 95.7514 Y 205.5825 Z -0.1250 I -0.7420 J 0.6703
G00 Z 5.0000

(End cutting path id: path60)


(Start cutting path id: path60)
(Change tool to Default tool)

G00 Z 5.0000
G00 X 94.2578 Y 205.0010

G01 Z -0.1250 F 100.0000(Penetrate)
G03 X 94.6942 Y 204.8535 Z -0.1250 I 0.5298 J 0.8481 F 400.0000
G03 X 95.1504 Y 204.9173 Z -0.1250 I 0.0934 J 0.9956
G03 X 95.5297 Y 205.1788 Z -0.1250 I -0.3628 J 0.9319
G03 X 95.7514 Y 205.5825 Z -0.1250 I -0.7420 J 0.6703
G00 Z 5.0000

(End cutting path id: path60)


(Start cutting path id: path42)
(Change tool to Default tool)

G00 Z 5.0000
G00 X 96.7600 Y 209.2291

G01 Z -0.1250 F 100.0000(Penetrate)
G01 X 95.7514 Y 205.5825 Z -0.1250 F 400.0000
G00 Z 5.0000

(End cutting path id: path42)


(Start cutting path id: path42)
(Change tool to Default tool)

G00 Z 5.0000
G00 X 96.7600 Y 209.2291

G01 Z -0.1250 F 100.0000(Penetrate)
G01 X 95.7514 Y 205.5825 Z -0.1250 F 400.0000
G00 Z 5.0000

(End cutting path id: path42)


(Start cutting path id: path68)
(Change tool to Default tool)

G00 Z 5.0000
G00 X 95.7514 Y 198.3582

G01 Z -0.1250 F 100.0000(Penetrate)
G03 X 95.5297 Y 198.7620 Z -0.1250 I -0.9638 J -0.2666 F 400.0000
G03 X 95.1504 Y 199.0235 Z -0.1250 I -0.7420 J -0.6703
G03 X 94.6942 Y 199.0872 Z -0.1250 I -0.3628 J -0.9319
G03 X 94.2578 Y 198.9397 Z -0.1250 I 0.0934 J -0.9956
G00 Z 5.0000

(End cutting path id: path68)


(Start cutting path id: path68)
(Change tool to Default tool)

G00 Z 5.0000
G00 X 95.7514 Y 198.3582

G01 Z -0.1250 F 100.0000(Penetrate)
G03 X 95.5297 Y 198.7620 Z -0.1250 I -0.9638 J -0.2666 F 400.0000
G03 X 95.1504 Y 199.0235 Z -0.1250 I -0.7420 J -0.6703
G03 X 94.6942 Y 199.0872 Z -0.1250 I -0.3628 J -0.9319
G03 X 94.2578 Y 198.9397 Z -0.1250 I 0.0934 J -0.9956
G00 Z 5.0000

(End cutting path id: path68)


(Start cutting path id: path46)
(Change tool to Default tool)

G00 Z 5.0000
G00 X 95.7514 Y 198.3582

G01 Z -0.1250 F 100.0000(Penetrate)
G01 X 96.7600 Y 194.7117 Z -0.1250 F 400.0000
G00 Z 5.0000

(End cutting path id: path46)


(Start cutting path id: path46)
(Change tool to Default tool)

G00 Z 5.0000
G00 X 95.7514 Y 198.3582

G01 Z -0.1250 F 100.0000(Penetrate)
G01 X 96.7600 Y 194.7117 Z -0.1250 F 400.0000
G00 Z 5.0000

(End cutting path id: path46)


(Start cutting path id: path58)
(Change tool to Default tool)

G00 Z 5.0000
G00 X 95.8790 Y 193.5719

G01 Z -0.1250 F 100.0000(Penetrate)
G03 X 96.2831 Y 193.6609 Z -0.1250 I 0.0136 J 0.8999 F 400.0000
G03 X 96.6047 Y 193.9214 Z -0.1250 I -0.3905 J 0.8108
G03 X 96.7757 Y 194.2982 Z -0.1250 I -0.7121 J 0.5504
G03 X 96.7600 Y 194.7117 Z -0.1250 I -0.8831 J 0.1736
G00 Z 5.0000

(End cutting path id: path58)


(Start cutting path id: path58)
(Change tool to Default tool)

G00 Z 5.0000
G00 X 95.8790 Y 193.5719

G01 Z -0.1250 F 100.0000(Penetrate)
G03 X 96.2831 Y 193.6609 Z -0.1250 I 0.0136 J 0.8999 F 400.0000
G03 X 96.6047 Y 193.9214 Z -0.1250 I -0.3905 J 0.8108
G03 X 96.7757 Y 194.2982 Z -0.1250 I -0.7121 J 0.5504
G03 X 96.7600 Y 194.7117 Z -0.1250 I -0.8831 J 0.1736
G00 Z 5.0000

(End cutting path id: path58)


(Start cutting path id: path44)
(Change tool to Default tool)

G00 Z 5.0000
G00 X 101.5571 Y 198.0526

G01 Z -0.1250 F 100.0000(Penetrate)
G02 X 101.1207 Y 197.9051 Z -0.1250 I -0.5298 J 0.8481 F 400.0000
G02 X 100.6644 Y 197.9689 Z -0.1250 I -0.0934 J 0.9956
G02 X 100.2852 Y 198.2305 Z -0.1250 I 0.3629 J 0.9318
G02 X 100.0635 Y 198.6343 Z -0.1250 I 0.7421 J 0.6702
G01 X 99.2150 Y 201.7040 Z -0.1250
G02 X 99.1789 Y 201.9704 Z -0.1250 I 0.9639 J 0.2664
G02 X 99.2150 Y 202.2368 Z -0.1250 I 1.0000 J 0.0000
G01 X 100.0635 Y 205.3064 Z -0.1250
G02 X 100.2852 Y 205.7103 Z -0.1250 I 0.9639 J -0.2664
G02 X 100.6644 Y 205.9718 Z -0.1250 I 0.7421 J -0.6703
G02 X 101.1207 Y 206.0356 Z -0.1250 I 0.3629 J -0.9318
G02 X 101.5571 Y 205.8881 Z -0.1250 I -0.0934 J -0.9956
G01 X 106.4708 Y 202.8185 Z -0.1250
G02 X 106.8156 Y 202.4552 Z -0.1250 I -0.5298 J -0.8481
G02 X 106.9410 Y 201.9704 Z -0.1250 I -0.8746 J -0.4849
G02 X 106.8156 Y 201.4855 Z -0.1250 I -1.0000 J 0.0000
G02 X 106.4708 Y 201.1223 Z -0.1250 I -0.8746 J 0.4849
G01 X 101.5571 Y 198.0526 Z -0.1250
G00 Z 5.0000

(End cutting path id: path44)


(Start cutting path id: path44)
(Change tool to Default tool)

G00 Z 5.0000
G00 X 101.5571 Y 198.0526

G01 Z -0.1250 F 100.0000(Penetrate)
G02 X 101.1207 Y 197.9051 Z -0.1250 I -0.5298 J 0.8481 F 400.0000
G02 X 100.6644 Y 197.9689 Z -0.1250 I -0.0934 J 0.9956
G02 X 100.2852 Y 198.2305 Z -0.1250 I 0.3629 J 0.9318
G02 X 100.0635 Y 198.6343 Z -0.1250 I 0.7421 J 0.6702
G01 X 99.2150 Y 201.7040 Z -0.1250
G02 X 99.1789 Y 201.9704 Z -0.1250 I 0.9639 J 0.2664
G02 X 99.2150 Y 202.2368 Z -0.1250 I 1.0000 J 0.0000
G01 X 100.0635 Y 205.3064 Z -0.1250
G02 X 100.2852 Y 205.7103 Z -0.1250 I 0.9639 J -0.2664
G02 X 100.6644 Y 205.9718 Z -0.1250 I 0.7421 J -0.6703
G02 X 101.1207 Y 206.0356 Z -0.1250 I 0.3629 J -0.9318
G02 X 101.5571 Y 205.8881 Z -0.1250 I -0.0934 J -0.9956
G01 X 106.4708 Y 202.8185 Z -0.1250
G02 X 106.8156 Y 202.4552 Z -0.1250 I -0.5298 J -0.8481
G02 X 106.9410 Y 201.9704 Z -0.1250 I -0.8746 J -0.4849
G02 X 106.8156 Y 201.4855 Z -0.1250 I -1.0000 J 0.0000
G02 X 106.4708 Y 201.1223 Z -0.1250 I -0.8746 J 0.4849
G01 X 101.5571 Y 198.0526 Z -0.1250
G00 Z 5.0000

(End cutting path id: path44)


(Start cutting path id: path84)
(Change tool to Default tool)

G00 Z 5.0000
G00 X 104.9245 Y 193.4815

G01 Z -0.1250 F 100.0000(Penetrate)
G02 X 104.3847 Y 193.6648 Z -0.1250 I 0.0045 J 0.9000 F 400.0000
G02 X 104.0632 Y 194.1356 Z -0.1250 I 0.5443 J 0.7167
G02 X 104.0892 Y 194.7051 Z -0.1250 I 0.8658 J 0.2459
G02 X 104.4521 Y 195.1448 Z -0.1250 I 0.8398 J -0.3236
G01 X 108.8912 Y 197.9179 Z -0.1250
G02 X 109.4210 Y 198.0698 Z -0.1250 I 0.5298 J -0.8481
G02 X 109.9508 Y 197.9179 Z -0.1250 I -0.0000 J -1.0000
G01 X 114.3899 Y 195.1448 Z -0.1250
G02 X 114.7528 Y 194.7051 Z -0.1250 I -0.4769 J -0.7633
G02 X 114.7788 Y 194.1356 Z -0.1250 I -0.8398 J -0.3236
G02 X 114.4573 Y 193.6648 Z -0.1250 I -0.8658 J 0.2459
G02 X 113.9175 Y 193.4815 Z -0.1250 I -0.5443 J 0.7167
G01 X 104.9245 Y 193.4815 Z -0.1250
G00 Z 5.0000

(End cutting path id: path84)


(Start cutting path id: path84)
(Change tool to Default tool)

G00 Z 5.0000
G00 X 104.9245 Y 193.4815

G01 Z -0.1250 F 100.0000(Penetrate)
G02 X 104.3847 Y 193.6648 Z -0.1250 I 0.0045 J 0.9000 F 400.0000
G02 X 104.0632 Y 194.1356 Z -0.1250 I 0.5443 J 0.7167
G02 X 104.0892 Y 194.7051 Z -0.1250 I 0.8658 J 0.2459
G02 X 104.4521 Y 195.1448 Z -0.1250 I 0.8398 J -0.3236
G01 X 108.8912 Y 197.9179 Z -0.1250
G02 X 109.4210 Y 198.0698 Z -0.1250 I 0.5298 J -0.8481
G02 X 109.9508 Y 197.9179 Z -0.1250 I -0.0000 J -1.0000
G01 X 114.3899 Y 195.1448 Z -0.1250
G02 X 114.7528 Y 194.7051 Z -0.1250 I -0.4769 J -0.7633
G02 X 114.7788 Y 194.1356 Z -0.1250 I -0.8398 J -0.3236
G02 X 114.4573 Y 193.6648 Z -0.1250 I -0.8658 J 0.2459
G02 X 113.9175 Y 193.4815 Z -0.1250 I -0.5443 J 0.7167
G01 X 104.9245 Y 193.4815 Z -0.1250
G00 Z 5.0000

(End cutting path id: path84)


(Start cutting path id: path64)
(Change tool to Default tool)

G00 Z 5.0000
G00 X 88.9935 Y 193.7031

G01 Z -0.1250 F 100.0000(Penetrate)
G03 X 92.4093 Y 193.6311 Z -0.1250 I 19.5166 J 844.7011 F 400.0000
G03 X 95.8790 Y 193.5719 Z -0.1250 I 16.6109 J 871.5385
G00 Z 5.0000

(End cutting path id: path64)


(Start cutting path id: path64)
(Change tool to Default tool)

G00 Z 5.0000
G00 X 88.9935 Y 193.7031

G01 Z -0.1250 F 100.0000(Penetrate)
G03 X 92.4093 Y 193.6311 Z -0.1250 I 19.5166 J 844.7011 F 400.0000
G03 X 95.8790 Y 193.5719 Z -0.1250 I 16.6109 J 871.5385
G00 Z 5.0000

(End cutting path id: path64)


(Start cutting path id: path70)
(Change tool to Default tool)

G00 Z 5.0000
G00 X 88.5375 Y 195.3662

G01 Z -0.1250 F 100.0000(Penetrate)
G03 X 88.1760 Y 194.9303 Z -0.1250 I 0.4768 J -0.7633 F 400.0000
G03 X 88.1463 Y 194.3648 Z -0.1250 I 0.8383 J -0.3275
G03 X 88.4603 Y 193.8936 Z -0.1250 I 0.8680 J 0.2380
G03 X 88.9935 Y 193.7031 Z -0.1250 I 0.5540 J 0.7093
G00 Z 5.0000

(End cutting path id: path70)


(Start cutting path id: path70)
(Change tool to Default tool)

G00 Z 5.0000
G00 X 88.5375 Y 195.3662

G01 Z -0.1250 F 100.0000(Penetrate)
G03 X 88.1760 Y 194.9303 Z -0.1250 I 0.4768 J -0.7633 F 400.0000
G03 X 88.1463 Y 194.3648 Z -0.1250 I 0.8383 J -0.3275
G03 X 88.4603 Y 193.8936 Z -0.1250 I 0.8680 J 0.2380
G03 X 88.9935 Y 193.7031 Z -0.1250 I 0.5540 J 0.7093
G00 Z 5.0000

(End cutting path id: path70)


(Start cutting path id: path56)
(Change tool to Default tool)

G00 Z 5.0000
G00 X 88.5375 Y 195.3662

G01 Z -0.1250 F 100.0000(Penetrate)
G01 X 94.2578 Y 198.9397 Z -0.1250 F 400.0000
G00 Z 5.0000

(End cutting path id: path56)


(Start cutting path id: path56)
(Change tool to Default tool)

G00 Z 5.0000
G00 X 88.5375 Y 195.3662

G01 Z -0.1250 F 100.0000(Penetrate)
G01 X 94.2578 Y 198.9397 Z -0.1250 F 400.0000
G00 Z 5.0000

(End cutting path id: path56)


(Start cutting path id: path62)
(Change tool to Default tool)

G00 Z 5.0000
G00 X 88.4210 Y 185.4704

G01 Z -0.1250 F 100.0000(Penetrate)
G02 X 87.9210 Y 185.6044 Z -0.1250 I 0.0000 J 1.0000 F 400.0000
G02 X 87.5550 Y 185.9704 Z -0.1250 I 0.5000 J 0.8660
G02 X 87.4210 Y 186.4704 Z -0.1250 I 0.8660 J 0.5000
G02 X 87.5550 Y 186.9704 Z -0.1250 I 1.0000 J 0.0000
G02 X 87.9210 Y 187.3364 Z -0.1250 I 0.8660 J -0.5000
G02 X 88.4210 Y 187.4704 Z -0.1250 I 0.5000 J -0.8660
G01 X 125.5210 Y 187.4704 Z -0.1250
G02 X 126.0210 Y 187.3364 Z -0.1250 I -0.0000 J -1.0000
G02 X 126.3870 Y 186.9704 Z -0.1250 I -0.5000 J -0.8660
G02 X 126.5210 Y 186.4704 Z -0.1250 I -0.8660 J -0.5000
G02 X 126.3870 Y 185.9704 Z -0.1250 I -1.0000 J -0.0000
G02 X 126.0210 Y 185.6044 Z -0.1250 I -0.8660 J 0.5000
G02 X 125.5210 Y 185.4704 Z -0.1250 I -0.5000 J 0.8660
G01 X 88.4210 Y 185.4704 Z -0.1250
G00 Z 5.0000

(End cutting path id: path62)


(Start cutting path id: path62)
(Change tool to Default tool)

G00 Z 5.0000
G00 X 88.4210 Y 185.4704

G01 Z -0.1250 F 100.0000(Penetrate)
G02 X 87.9210 Y 185.6044 Z -0.1250 I 0.0000 J 1.0000 F 400.0000
G02 X 87.5550 Y 185.9704 Z -0.1250 I 0.5000 J 0.8660
G02 X 87.4210 Y 186.4704 Z -0.1250 I 0.8660 J 0.5000
G02 X 87.5550 Y 186.9704 Z -0.1250 I 1.0000 J 0.0000
G02 X 87.9210 Y 187.3364 Z -0.1250 I 0.8660 J -0.5000
G02 X 88.4210 Y 187.4704 Z -0.1250 I 0.5000 J -0.8660
G01 X 125.5210 Y 187.4704 Z -0.1250
G02 X 126.0210 Y 187.3364 Z -0.1250 I -0.0000 J -1.0000
G02 X 126.3870 Y 186.9704 Z -0.1250 I -0.5000 J -0.8660
G02 X 126.5210 Y 186.4704 Z -0.1250 I -0.8660 J -0.5000
G02 X 126.3870 Y 185.9704 Z -0.1250 I -1.0000 J -0.0000
G02 X 126.0210 Y 185.6044 Z -0.1250 I -0.8660 J 0.5000
G02 X 125.5210 Y 185.4704 Z -0.1250 I -0.5000 J 0.8660
G01 X 88.4210 Y 185.4704 Z -0.1250
G00 Z 5.0000

(End cutting path id: path62)


(Start cutting path id: path130)
(Change tool to Default tool)

G00 Z 5.0000
G00 X 76.2210 Y 186.7204

G01 Z -0.1250 F 100.0000(Penetrate)
G03 X 76.0139 Y 187.4960 Z -0.1250 I -1.5500 J 0.0016 F 400.0000
G03 X 75.4465 Y 188.0640 Z -0.1250 I -1.3429 J -0.7741
G03 X 74.6710 Y 188.2720 Z -0.1250 I -0.7755 J -1.3421
G03 X 73.8956 Y 188.0640 Z -0.1250 I 0.0000 J -1.5500
G03 X 73.3282 Y 187.4960 Z -0.1250 I 0.7755 J -1.3421
G03 X 73.1210 Y 186.7204 Z -0.1250 I 1.3429 J -0.7741
G03 X 73.3282 Y 185.9447 Z -0.1250 I 1.5500 J -0.0016
G03 X 73.8956 Y 185.3767 Z -0.1250 I 1.3429 J 0.7741
G03 X 74.6710 Y 185.1688 Z -0.1250 I 0.7755 J 1.3421
G03 X 75.4465 Y 185.3767 Z -0.1250 I 0.0000 J 1.5500
G03 X 76.0139 Y 185.9447 Z -0.1250 I -0.7755 J 1.3421
G03 X 76.2210 Y 186.7204 Z -0.1250 I -1.3429 J 0.7741
G01 X 76.2210 Y 186.7204 Z -0.1250
G00 Z 5.0000

(End cutting path id: path130)


(Start cutting path id: path130)
(Change tool to Default tool)

G00 Z 5.0000
G00 X 76.2210 Y 186.7204

G01 Z -0.1250 F 100.0000(Penetrate)
G03 X 76.0139 Y 187.4960 Z -0.1250 I -1.5500 J 0.0016 F 400.0000
G03 X 75.4465 Y 188.0640 Z -0.1250 I -1.3429 J -0.7741
G03 X 74.6710 Y 188.2720 Z -0.1250 I -0.7755 J -1.3421
G03 X 73.8956 Y 188.0640 Z -0.1250 I 0.0000 J -1.5500
G03 X 73.3282 Y 187.4960 Z -0.1250 I 0.7755 J -1.3421
G03 X 73.1210 Y 186.7204 Z -0.1250 I 1.3429 J -0.7741
G03 X 73.3282 Y 185.9447 Z -0.1250 I 1.5500 J -0.0016
G03 X 73.8956 Y 185.3767 Z -0.1250 I 1.3429 J 0.7741
G03 X 74.6710 Y 185.1688 Z -0.1250 I 0.7755 J 1.3421
G03 X 75.4465 Y 185.3767 Z -0.1250 I 0.0000 J 1.5500
G03 X 76.0139 Y 185.9447 Z -0.1250 I -0.7755 J 1.3421
G03 X 76.2210 Y 186.7204 Z -0.1250 I -1.3429 J 0.7741
G01 X 76.2210 Y 186.7204 Z -0.1250
G00 Z 5.0000

(End cutting path id: path130)


(Start cutting path id: path128)
(Change tool to Default tool)

G00 Z 5.0000
G00 X 77.9367 Y 194.4281

G01 Z -0.1250 F 100.0000(Penetrate)
G01 X 71.4118 Y 195.4541 Z -0.1250 F 400.0000
G02 X 70.8762 Y 195.7191 Z -0.1250 I 0.1554 J 0.9879
