(Block-name: Header)
(Block-expand: 0)
(Block-enable: 1)
%
(Header)
(Generated by gcodetools from Inkscape.)
(Using default header. To add your own header create file "header" in the output dir.)
M3
(Header end.)
G21 (All units in mm)

(Start cutting path id: path4-3)
(Change tool to Default tool)

(Block-name: path4-3)
(Block-expand: 0)
(Block-enable: 0)

(End cutting path id: path4-3)


(Start cutting path id: path4-3)
(Change tool to Default tool)

G0 Z5
G0 X72.2513 Y218.33969

G1 Z-0.125 F100
G1 X72.1143 Y218.35699 Z-0.125 F400
G1 X71.9805 Y218.39129 Z-0.125
G1 X71.852 Y218.44209 Z-0.125
G1 X71.731 Y218.50869 Z-0.125
G1 X71.6192 Y218.58989 Z-0.125
G1 X71.5185 Y218.68439 Z-0.125
G1 X71.4305 Y218.79089 Z-0.125
G1 X71.3565 Y218.90759 Z-0.125
G1 X71.2976 Y219.03259 Z-0.125
G1 X71.255 Y219.16379 Z-0.125
G1 X71.2291 Y219.29959 Z-0.125
G1 X71.2201 Y219.43749 Z-0.125
G1 X71.2291 Y219.57539 Z-0.125
G1 X71.255 Y219.71099 Z-0.125
G1 X71.2976 Y219.84239 Z-0.125
G1 X71.3565 Y219.96739 Z-0.125
G1 X71.4305 Y220.08399 Z-0.125
G1 X71.5185 Y220.19039 Z-0.125
G1 X71.6192 Y220.28509 Z-0.125
G1 X71.731 Y220.36629 Z-0.125
G1 X71.852 Y220.43269 Z-0.125
G1 X71.9805 Y220.48369 Z-0.125
G1 X72.1143 Y220.51799 Z-0.125
G1 X72.2513 Y220.53519 Z-0.125
G1 X72.3895 Y220.53519 Z-0.125
G1 X72.5265 Y220.51799 Z-0.125
G1 X72.6603 Y220.48369 Z-0.125
G1 X72.7887 Y220.43269 Z-0.125
G1 X72.9098 Y220.36629 Z-0.125
G1 X73.0216 Y220.28509 Z-0.125
G1 X73.1223 Y220.19039 Z-0.125
G1 X73.2103 Y220.08399 Z-0.125
G1 X73.2843 Y219.96739 Z-0.125
G1 X73.3431 Y219.84239 Z-0.125
G1 X73.3858 Y219.71099 Z-0.125
G1 X73.4117 Y219.57539 Z-0.125
G1 X73.4207 Y219.43749 Z-0.125
G1 X73.4117 Y219.29959 Z-0.125
G1 X73.3858 Y219.16379 Z-0.125
G1 X73.3431 Y219.03259 Z-0.125
G1 X73.2843 Y218.90759 Z-0.125
G1 X73.2103 Y218.79089 Z-0.125
G1 X73.1223 Y218.68439 Z-0.125
G1 X73.0216 Y218.58989 Z-0.125
G1 X72.9098 Y218.50869 Z-0.125
G1 X72.7887 Y218.44209 Z-0.125
G1 X72.6603 Y218.39129 Z-0.125
G1 X72.5265 Y218.35699 Z-0.125
G1 X72.3895 Y218.33969 Z-0.125
G1 X72.2513 Y218.33969 Z-0.125
G0 Z5
(Block-name: path4-3 [in,cut])
(Block-expand: 0)
(Block-enable: 1)
g0 x72.314189 y219.33969
g1 z-0.5 f150
g1 x72.301838 y219.34125 f350
g1 x72.2897 y219.344361
g1 x72.27863 y219.348738
g1 x72.268021 y219.354577
g1 x72.257689 y219.362081
g1 x72.249016 y219.37022
g1 x72.241391 y219.379448
g1 x72.234478 y219.39035
g1 x72.229178 y219.401599
g1 x72.225523 y219.412854
g1 x72.222957 y219.426306
g1 x72.222227 y219.43749
g1 x72.222949 y219.448538
g1 x72.225523 y219.462017
g1 x72.229273 y219.473584
g1 x72.234395 y219.484454
g1 x72.241143 y219.495086
g1 x72.249184 y219.504809
g1 x72.258118 y219.51321
g1 x72.267505 y219.520028
g1 x72.278629 y219.526133
g1 x72.290354 y219.530786
g1 x72.301489 y219.533641
g1 x72.313828 y219.53519
g1 x72.326972 y219.53519
g1 x72.339311 y219.533641
g1 x72.350316 y219.53082
g1 x72.362116 y219.526133
g1 x72.373436 y219.519926
g1 x72.382682 y219.51321
g1 x72.391616 y219.504809
g1 x72.399657 y219.495086
g1 x72.406229 y219.484731
g1 x72.411472 y219.473584
g1 x72.415342 y219.461678
g1 x72.417851 y219.448538
g1 x72.418573 y219.43749
g1 x72.417843 y219.426306
g1 x72.415342 y219.413194
g1 x72.411568 y219.401599
g1 x72.406146 y219.390072
g1 x72.399409 y219.379448
g1 x72.391784 y219.37022
g1 x72.383111 y219.362081
g1 x72.372921 y219.35468
g1 x72.362116 y219.348738
g1 x72.35097 y219.344328
g1 x72.338962 y219.34125
g1 x72.326611 y219.33969
g1 x72.314189 y219.33969
g1 z-1 f150
g1 x72.301838 y219.34125 f350
g1 x72.2897 y219.344361
g1 x72.27863 y219.348738
g1 x72.268021 y219.354577
g1 x72.257689 y219.362081
g1 x72.249016 y219.37022
g1 x72.241391 y219.379448
g1 x72.234478 y219.39035
g1 x72.229178 y219.401599
g1 x72.225523 y219.412854
g1 x72.222957 y219.426306
g1 x72.222227 y219.43749
g1 x72.222949 y219.448538
g1 x72.225523 y219.462017
g1 x72.229273 y219.473584
g1 x72.234395 y219.484454
g1 x72.241143 y219.495086
g1 x72.249184 y219.504809
g1 x72.258118 y219.51321
g1 x72.267505 y219.520028
g1 x72.278629 y219.526133
g1 x72.290354 y219.530786
g1 x72.301489 y219.533641
g1 x72.313828 y219.53519
g1 x72.326972 y219.53519
g1 x72.339311 y219.533641
g1 x72.350316 y219.53082
g1 x72.362116 y219.526133
g1 x72.373436 y219.519926
g1 x72.382682 y219.51321
g1 x72.391616 y219.504809
g1 x72.399657 y219.495086
g1 x72.406229 y219.484731
g1 x72.411472 y219.473584
g1 x72.415342 y219.461678
g1 x72.417851 y219.448538
g1 x72.418573 y219.43749
g1 x72.417843 y219.426306
g1 x72.415342 y219.413194
g1 x72.411568 y219.401599
g1 x72.406146 y219.390072
g1 x72.399409 y219.379448
g1 x72.391784 y219.37022
g1 x72.383111 y219.362081
g1 x72.372921 y219.35468
g1 x72.362116 y219.348738
g1 x72.35097 y219.344328
g1 x72.338962 y219.34125
g1 x72.326611 y219.33969
g1 x72.314189 y219.33969
g1 z-1.5 f150
g1 x72.301838 y219.34125 f350
g1 x72.2897 y219.344361
g1 x72.27863 y219.348738
g1 x72.268021 y219.354577
g1 x72.257689 y219.362081
g1 x72.249016 y219.37022
g1 x72.241391 y219.379448
g1 x72.234478 y219.39035
g1 x72.229178 y219.401599
g1 x72.225523 y219.412854
g1 x72.222957 y219.426306
g1 x72.222227 y219.43749
g1 x72.222949 y219.448538
g1 x72.225523 y219.462017
g1 x72.229273 y219.473584
g1 x72.234395 y219.484454
g1 x72.241143 y219.495086
g1 x72.249184 y219.504809
g1 x72.258118 y219.51321
g1 x72.267505 y219.520028
g1 x72.278629 y219.526133
g1 x72.290354 y219.530786
g1 x72.301489 y219.533641
g1 x72.313828 y219.53519
g1 x72.326972 y219.53519
g1 x72.339311 y219.533641
g1 x72.350316 y219.53082
g1 x72.362116 y219.526133
g1 x72.373436 y219.519926
g1 x72.382682 y219.51321
g1 x72.391616 y219.504809
g1 x72.399657 y219.495086
g1 x72.406229 y219.484731
g1 x72.411472 y219.473584
g1 x72.415342 y219.461678
g1 x72.417851 y219.448538
g1 x72.418573 y219.43749
g1 x72.417843 y219.426306
g1 x72.415342 y219.413194
g1 x72.411568 y219.401599
g1 x72.406146 y219.390072
g1 x72.399409 y219.379448
g1 x72.391784 y219.37022
g1 x72.383111 y219.362081
g1 x72.372921 y219.35468
g1 x72.362116 y219.348738
g1 x72.35097 y219.344328
g1 x72.338962 y219.34125
g1 x72.326611 y219.33969
g1 x72.314189 y219.33969
g1 z-2 f150
g1 x72.301838 y219.34125 f350
g1 x72.2897 y219.344361
g1 x72.27863 y219.348738
g1 x72.268021 y219.354577
g1 x72.257689 y219.362081
g1 x72.249016 y219.37022
g1 x72.241391 y219.379448
g1 x72.234478 y219.39035
g1 x72.229178 y219.401599
g1 x72.225523 y219.412854
g1 x72.222957 y219.426306
g1 x72.222227 y219.43749
g1 x72.222949 y219.448538
g1 x72.225523 y219.462017
g1 x72.229273 y219.473584
g1 x72.234395 y219.484454
g1 x72.241143 y219.495086
g1 x72.249184 y219.504809
g1 x72.258118 y219.51321
g1 x72.267505 y219.520028
g1 x72.278629 y219.526133
g1 x72.290354 y219.530786
g1 x72.301489 y219.533641
g1 x72.313828 y219.53519
g1 x72.326972 y219.53519
g1 x72.339311 y219.533641
g1 x72.350316 y219.53082
g1 x72.362116 y219.526133
g1 x72.373436 y219.519926
g1 x72.382682 y219.51321
g1 x72.391616 y219.504809
g1 x72.399657 y219.495086
g1 x72.406229 y219.484731
g1 x72.411472 y219.473584
g1 x72.415342 y219.461678
g1 x72.417851 y219.448538
g1 x72.418573 y219.43749
g1 x72.417843 y219.426306
g1 x72.415342 y219.413194
g1 x72.411568 y219.401599
g1 x72.406146 y219.390072
g1 x72.399409 y219.379448
g1 x72.391784 y219.37022
g1 x72.383111 y219.362081
g1 x72.372921 y219.35468
g1 x72.362116 y219.348738
g1 x72.35097 y219.344328
g1 x72.338962 y219.34125
g1 x72.326611 y219.33969
g1 x72.314189 y219.33969
g1 z-2.5 f150
g1 x72.301838 y219.34125 f350
g1 x72.2897 y219.344361
g1 x72.27863 y219.348738
g1 x72.268021 y219.354577
g1 x72.257689 y219.362081
g1 x72.249016 y219.37022
g1 x72.241391 y219.379448
g1 x72.234478 y219.39035
g1 x72.229178 y219.401599
g1 x72.225523 y219.412854
g1 x72.222957 y219.426306
g1 x72.222227 y219.43749
g1 x72.222949 y219.448538
g1 x72.225523 y219.462017
g1 x72.229273 y219.473584
g1 x72.234395 y219.484454
g1 x72.241143 y219.495086
g1 x72.249184 y219.504809
g1 x72.258118 y219.51321
g1 x72.267505 y219.520028
g1 x72.278629 y219.526133
g1 x72.290354 y219.530786
g1 x72.301489 y219.533641
g1 x72.313828 y219.53519
g1 x72.326972 y219.53519
g1 x72.339311 y219.533641
g1 x72.350316 y219.53082
g1 x72.362116 y219.526133
g1 x72.373436 y219.519926
g1 x72.382682 y219.51321
g1 x72.391616 y219.504809
g1 x72.399657 y219.495086
g1 x72.406229 y219.484731
g1 x72.411472 y219.473584
g1 x72.415342 y219.461678
g1 x72.417851 y219.448538
g1 x72.418573 y219.43749
g1 x72.417843 y219.426306
g1 x72.415342 y219.413194
g1 x72.411568 y219.401599
g1 x72.406146 y219.390072
g1 x72.399409 y219.379448
g1 x72.391784 y219.37022
g1 x72.383111 y219.362081
g1 x72.372921 y219.35468
g1 x72.362116 y219.348738
g1 x72.35097 y219.344328
g1 x72.338962 y219.34125
g1 x72.326611 y219.33969
g1 x72.314189 y219.33969
g1 z-3 f150
g1 x72.301838 y219.34125 f350
g1 x72.2897 y219.344361
g1 x72.27863 y219.348738
g1 x72.268021 y219.354577
g1 x72.257689 y219.362081
g1 x72.249016 y219.37022
g1 x72.241391 y219.379448
g1 x72.234478 y219.39035
g1 x72.229178 y219.401599
g1 x72.225523 y219.412854
g1 x72.222957 y219.426306
g1 x72.222227 y219.43749
g1 x72.222949 y219.448538
g1 x72.225523 y219.462017
g1 x72.229273 y219.473584
g1 x72.234395 y219.484454
g1 x72.241143 y219.495086
g1 x72.249184 y219.504809
g1 x72.258118 y219.51321
g1 x72.267505 y219.520028
g1 x72.278629 y219.526133
g1 x72.290354 y219.530786
g1 x72.301489 y219.533641
g1 x72.313828 y219.53519
g1 x72.326972 y219.53519
g1 x72.339311 y219.533641
g1 x72.350316 y219.53082
g1 x72.362116 y219.526133
g1 x72.373436 y219.519926
g1 x72.382682 y219.51321
g1 x72.391616 y219.504809
g1 x72.399657 y219.495086
g1 x72.406229 y219.484731
g1 x72.411472 y219.473584
g1 x72.415342 y219.461678
g1 x72.417851 y219.448538
g1 x72.418573 y219.43749
g1 x72.417843 y219.426306
g1 x72.415342 y219.413194
g1 x72.411568 y219.401599
g1 x72.406146 y219.390072
g1 x72.399409 y219.379448
g1 x72.391784 y219.37022
g1 x72.383111 y219.362081
g1 x72.372921 y219.35468
g1 x72.362116 y219.348738
g1 x72.35097 y219.344328
g1 x72.338962 y219.34125
g1 x72.326611 y219.33969
g1 x72.314189 y219.33969
g0 z5
(Block-name: path4-3)
(Block-expand: 0)
(Block-enable: 0)

(End cutting path id: path4-3)


(Start cutting path id: path4-3)
(Change tool to Default tool)

G0 Z5
G0 X72.1948 Y221.94129

G1 Z-0.125 F100
G1 X71.9456 Y221.97279 Z-0.125 F400
G1 X71.7024 Y222.03529 Z-0.125
G1 X71.4688 Y222.12769 Z-0.125
G1 X71.2487 Y222.24869 Z-0.125
G1 X71.0456 Y222.39649 Z-0.125
G1 X70.8625 Y222.56839 Z-0.125
G1 X70.7024 Y222.76189 Z-0.125
G1 X70.5678 Y222.97389 Z-0.125
G1 X70.4608 Y223.20119 Z-0.125
G1 X70.3832 Y223.44009 Z-0.125
G1 X70.3362 Y223.68679 Z-0.125
G1 X70.3204 Y223.93749 Z-0.125
G1 X70.3362 Y224.18819 Z-0.125
G1 X70.3832 Y224.43489 Z-0.125
G1 X70.4608 Y224.67369 Z-0.125
G1 X70.5678 Y224.90089 Z-0.125
G1 X70.7024 Y225.11309 Z-0.125
G1 X70.8625 Y225.30659 Z-0.125
G1 X71.0456 Y225.47849 Z-0.125
G1 X71.2487 Y225.62609 Z-0.125
G1 X71.4688 Y225.74719 Z-0.125
G1 X71.7024 Y225.83949 Z-0.125
G1 X71.9456 Y225.90199 Z-0.125
G1 X72.1948 Y225.93339 Z-0.125
G1 X72.446 Y225.93339 Z-0.125
G1 X72.6952 Y225.90199 Z-0.125
G1 X72.9384 Y225.83949 Z-0.125
G1 X73.172 Y225.74719 Z-0.125
G1 X73.3921 Y225.62609 Z-0.125
G1 X73.5952 Y225.47849 Z-0.125
G1 X73.7783 Y225.30659 Z-0.125
G1 X73.9384 Y225.11309 Z-0.125
G1 X74.073 Y224.90089 Z-0.125
G1 X74.18 Y224.67369 Z-0.125
G1 X74.2576 Y224.43489 Z-0.125
G1 X74.3046 Y224.18819 Z-0.125
G1 X74.3204 Y223.93749 Z-0.125
G1 X74.3046 Y223.68679 Z-0.125
G1 X74.2576 Y223.44009 Z-0.125
G1 X74.18 Y223.20119 Z-0.125
G1 X74.073 Y222.97389 Z-0.125
G1 X73.9384 Y222.76189 Z-0.125
G1 X73.7783 Y222.56839 Z-0.125
G1 X73.5952 Y222.39649 Z-0.125
G1 X73.3921 Y222.24869 Z-0.125
G1 X73.172 Y222.12769 Z-0.125
G1 X72.9384 Y222.03529 Z-0.125
G1 X72.6952 Y221.97279 Z-0.125
G1 X72.446 Y221.94129 Z-0.125
G1 X72.1948 Y221.94129 Z-0.125
G0 Z5
(Block-name: path4-3 [in,cut])
(Block-expand: 0)
(Block-enable: 1)
g0 x72.257752 y222.94129
g1 z-0.5 f150
g1 x72.133497 y222.956996 f350
g1 x72.011971 y222.988227
g1 x71.895275 y223.034386
g1 x71.785924 y223.094502
g1 x71.684516 y223.168298
g1 x71.592845 y223.254362
g1 x71.512932 y223.350946
g1 x71.445756 y223.456751
g1 x71.392411 y223.570072
g1 x71.353743 y223.689115
g1 x71.330274 y223.812306
g1 x71.322384 y223.93749
g1 x71.330274 y224.062674
g1 x71.353732 y224.185804
g1 x71.392358 y224.304671
g1 x71.445802 y224.418151
g1 x71.513069 y224.524199
g1 x71.592845 y224.620618
g1 x71.684281 y224.70646
g1 x71.785782 y224.780225
g1 x71.895275 y224.840469
g1 x72.011791 y224.886506
g1 x72.133305 y224.917734
g1 x72.257554 y224.93339
g1 x72.383246 y224.93339
g1 x72.507495 y224.917734
g1 x72.629009 y224.886506
g1 x72.745525 y224.840469
g1 x72.855018 y224.780225
g1 x72.956519 y224.70646
g1 x73.047955 y224.620618
g1 x73.127731 y224.524199
g1 x73.194998 y224.418151
g1 x73.248442 y224.304671
g1 x73.287068 y224.185804
g1 x73.310526 y224.062674
g1 x73.318416 y223.93749
g1 x73.310526 y223.812306
g1 x73.287057 y223.689115
g1 x73.248389 y223.570072
g1 x73.195044 y223.456751
g1 x73.127868 y223.350946
g1 x73.047955 y223.254362
g1 x72.956284 y223.168298
g1 x72.854876 y223.094502
g1 x72.745525 y223.034386
g1 x72.628829 y222.988227
g1 x72.507303 y222.956996
g1 x72.383048 y222.94129
g1 x72.257752 y222.94129
g1 z-1 f150
g1 x72.133497 y222.956996 f350
g1 x72.011971 y222.988227
g1 x71.895275 y223.034386
g1 x71.785924 y223.094502
g1 x71.684516 y223.168298
g1 x71.592845 y223.254362
g1 x71.512932 y223.350946
g1 x71.445756 y223.456751
g1 x71.392411 y223.570072
g1 x71.353743 y223.689115
g1 x71.330274 y223.812306
g1 x71.322384 y223.93749
g1 x71.330274 y224.062674
g1 x71.353732 y224.185804
g1 x71.392358 y224.304671
g1 x71.445802 y224.418151
g1 x71.513069 y224.524199
g1 x71.592845 y224.620618
g1 x71.684281 y224.70646
g1 x71.785782 y224.780225
g1 x71.895275 y224.840469
g1 x72.011791 y224.886506
g1 x72.133305 y224.917734
g1 x72.257554 y224.93339
g1 x72.383246 y224.93339
g1 x72.507495 y224.917734
g1 x72.629009 y224.886506
g1 x72.745525 y224.840469
g1 x72.855018 y224.780225
g1 x72.956519 y224.70646
g1 x73.047955 y224.620618
g1 x73.127731 y224.524199
g1 x73.194998 y224.418151
g1 x73.248442 y224.304671
g1 x73.287068 y224.185804
g1 x73.310526 y224.062674
g1 x73.318416 y223.93749
g1 x73.310526 y223.812306
g1 x73.287057 y223.689115
g1 x73.248389 y223.570072
g1 x73.195044 y223.456751
g1 x73.127868 y223.350946
g1 x73.047955 y223.254362
g1 x72.956284 y223.168298
g1 x72.854876 y223.094502
g1 x72.745525 y223.034386
g1 x72.628829 y222.988227
g1 x72.507303 y222.956996
g1 x72.383048 y222.94129
g1 x72.257752 y222.94129
g1 z-1.5 f150
g1 x72.133497 y222.956996 f350
g1 x72.011971 y222.988227
g1 x71.895275 y223.034386
g1 x71.785924 y223.094502
g1 x71.684516 y223.168298
g1 x71.592845 y223.254362
g1 x71.512932 y223.350946
g1 x71.445756 y223.456751
g1 x71.392411 y223.570072
g1 x71.353743 y223.689115
g1 x71.330274 y223.812306
g1 x71.322384 y223.93749
g1 x71.330274 y224.062674
g1 x71.353732 y224.185804
g1 x71.392358 y224.304671
g1 x71.445802 y224.418151
g1 x71.513069 y224.524199
g1 x71.592845 y224.620618
g1 x71.684281 y224.70646
g1 x71.785782 y224.780225
g1 x71.895275 y224.840469
g1 x72.011791 y224.886506
g1 x72.133305 y224.917734
g1 x72.257554 y224.93339
g1 x72.383246 y224.93339
g1 x72.507495 y224.917734
g1 x72.629009 y224.886506
g1 x72.745525 y224.840469
g1 x72.855018 y224.780225
g1 x72.956519 y224.70646
g1 x73.047955 y224.620618
g1 x73.127731 y224.524199
g1 x73.194998 y224.418151
g1 x73.248442 y224.304671
g1 x73.287068 y224.185804
g1 x73.310526 y224.062674
g1 x73.318416 y223.93749
g1 x73.310526 y223.812306
g1 x73.287057 y223.689115
g1 x73.248389 y223.570072
g1 x73.195044 y223.456751
g1 x73.127868 y223.350946
g1 x73.047955 y223.254362
g1 x72.956284 y223.168298
g1 x72.854876 y223.094502
g1 x72.745525 y223.034386
g1 x72.628829 y222.988227
g1 x72.507303 y222.956996
g1 x72.383048 y222.94129
g1 x72.257752 y222.94129
g1 z-2 f150
g1 x72.133497 y222.956996 f350
g1 x72.011971 y222.988227
g1 x71.895275 y223.034386
g1 x71.785924 y223.094502
g1 x71.684516 y223.168298
g1 x71.592845 y223.254362
g1 x71.512932 y223.350946
g1 x71.445756 y223.456751
g1 x71.392411 y223.570072
g1 x71.353743 y223.689115
g1 x71.330274 y223.812306
g1 x71.322384 y223.93749
g1 x71.330274 y224.062674
g1 x71.353732 y224.185804
g1 x71.392358 y224.304671
g1 x71.445802 y224.418151
g1 x71.513069 y224.524199
g1 x71.592845 y224.620618
g1 x71.684281 y224.70646
g1 x71.785782 y224.780225
g1 x71.895275 y224.840469
g1 x72.011791 y224.886506
g1 x72.133305 y224.917734
g1 x72.257554 y224.93339
g1 x72.383246 y224.93339
g1 x72.507495 y224.917734
g1 x72.629009 y224.886506
g1 x72.745525 y224.840469
g1 x72.855018 y224.780225
g1 x72.956519 y224.70646
g1 x73.047955 y224.620618
g1 x73.127731 y224.524199
g1 x73.194998 y224.418151
g1 x73.248442 y224.304671
g1 x73.287068 y224.185804
g1 x73.310526 y224.062674
g1 x73.318416 y223.93749
g1 x73.310526 y223.812306
g1 x73.287057 y223.689115
g1 x73.248389 y223.570072
g1 x73.195044 y223.456751
g1 x73.127868 y223.350946
g1 x73.047955 y223.254362
g1 x72.956284 y223.168298
g1 x72.854876 y223.094502
g1 x72.745525 y223.034386
g1 x72.628829 y222.988227
g1 x72.507303 y222.956996
g1 x72.383048 y222.94129
g1 x72.257752 y222.94129
g1 z-2.5 f150
g1 x72.133497 y222.956996 f350
g1 x72.011971 y222.988227
g1 x71.895275 y223.034386
g1 x71.785924 y223.094502
g1 x71.684516 y223.168298
g1 x71.592845 y223.254362
g1 x71.512932 y223.350946
g1 x71.445756 y223.456751
g1 x71.392411 y223.570072
g1 x71.353743 y223.689115
g1 x71.330274 y223.812306
g1 x71.322384 y223.93749
g1 x71.330274 y224.062674
g1 x71.353732 y224.185804
g1 x71.392358 y224.304671
g1 x71.445802 y224.418151
g1 x71.513069 y224.524199
g1 x71.592845 y224.620618
g1 x71.684281 y224.70646
g1 x71.785782 y224.780225
g1 x71.895275 y224.840469
g1 x72.011791 y224.886506
g1 x72.133305 y224.917734
g1 x72.257554 y224.93339
g1 x72.383246 y224.93339
g1 x72.507495 y224.917734
g1 x72.629009 y224.886506
g1 x72.745525 y224.840469
g1 x72.855018 y224.780225
g1 x72.956519 y224.70646
g1 x73.047955 y224.620618
g1 x73.127731 y224.524199
g1 x73.194998 y224.418151
g1 x73.248442 y224.304671
g1 x73.287068 y224.185804
g1 x73.310526 y224.062674
g1 x73.318416 y223.93749
g1 x73.310526 y223.812306
g1 x73.287057 y223.689115
g1 x73.248389 y223.570072
g1 x73.195044 y223.456751
g1 x73.127868 y223.350946
g1 x73.047955 y223.254362
g1 x72.956284 y223.168298
g1 x72.854876 y223.094502
g1 x72.745525 y223.034386
g1 x72.628829 y222.988227
g1 x72.507303 y222.956996
g1 x72.383048 y222.94129
g1 x72.257752 y222.94129
g1 z-3 f150
g1 x72.133497 y222.956996 f350
g1 x72.011971 y222.988227
g1 x71.895275 y223.034386
g1 x71.785924 y223.094502
g1 x71.684516 y223.168298
g1 x71.592845 y223.254362
g1 x71.512932 y223.350946
g1 x71.445756 y223.456751
g1 x71.392411 y223.570072
g1 x71.353743 y223.689115
g1 x71.330274 y223.812306
g1 x71.322384 y223.93749
g1 x71.330274 y224.062674
g1 x71.353732 y224.185804
g1 x71.392358 y224.304671
g1 x71.445802 y224.418151
g1 x71.513069 y224.524199
g1 x71.592845 y224.620618
g1 x71.684281 y224.70646
g1 x71.785782 y224.780225
g1 x71.895275 y224.840469
g1 x72.011791 y224.886506
g1 x72.133305 y224.917734
g1 x72.257554 y224.93339
g1 x72.383246 y224.93339
g1 x72.507495 y224.917734
g1 x72.629009 y224.886506
g1 x72.745525 y224.840469
g1 x72.855018 y224.780225
g1 x72.956519 y224.70646
g1 x73.047955 y224.620618
g1 x73.127731 y224.524199
g1 x73.194998 y224.418151
g1 x73.248442 y224.304671
g1 x73.287068 y224.185804
g1 x73.310526 y224.062674
g1 x73.318416 y223.93749
g1 x73.310526 y223.812306
g1 x73.287057 y223.689115
g1 x73.248389 y223.570072
g1 x73.195044 y223.456751
g1 x73.127868 y223.350946
g1 x73.047955 y223.254362
g1 x72.956284 y223.168298
g1 x72.854876 y223.094502
g1 x72.745525 y223.034386
g1 x72.628829 y222.988227
g1 x72.507303 y222.956996
g1 x72.383048 y222.94129
g1 x72.257752 y222.94129
g0 z5
(Block-name: path4-3)
(Block-expand: 0)
(Block-enable: 0)

(End cutting path id: path4-3)


(Start cutting path id: path4-3)
(Change tool to Default tool)

G0 Z5
G0 X67.7513 Y222.83969

G1 Z-0.125 F100
G1 X67.6143 Y222.85699 Z-0.125 F400
G1 X67.4805 Y222.89129 Z-0.125
G1 X67.352 Y222.94209 Z-0.125
G1 X67.231 Y223.00869 Z-0.125
G1 X67.1192 Y223.08989 Z-0.125
G1 X67.0185 Y223.18439 Z-0.125
G1 X66.9305 Y223.29089 Z-0.125
G1 X66.8565 Y223.40759 Z-0.125
G1 X66.7976 Y223.53259 Z-0.125
G1 X66.755 Y223.66379 Z-0.125
G1 X66.7291 Y223.79959 Z-0.125
G1 X66.7201 Y223.93749 Z-0.125
G1 X66.7291 Y224.07539 Z-0.125
G1 X66.755 Y224.21099 Z-0.125
G1 X66.7976 Y224.34239 Z-0.125
G1 X66.8565 Y224.46739 Z-0.125
G1 X66.9305 Y224.58399 Z-0.125
G1 X67.0185 Y224.69039 Z-0.125
G1 X67.1192 Y224.78509 Z-0.125
G1 X67.231 Y224.86629 Z-0.125
G1 X67.352 Y224.93269 Z-0.125
G1 X67.4805 Y224.98369 Z-0.125
G1 X67.6143 Y225.01799 Z-0.125
G1 X67.7513 Y225.03519 Z-0.125
G1 X67.8895 Y225.03519 Z-0.125
G1 X68.0265 Y225.01799 Z-0.125
G1 X68.1603 Y224.98369 Z-0.125
G1 X68.2887 Y224.93269 Z-0.125
G1 X68.4098 Y224.86629 Z-0.125
G1 X68.5216 Y224.78509 Z-0.125
G1 X68.6223 Y224.69039 Z-0.125
G1 X68.7103 Y224.58399 Z-0.125
G1 X68.7843 Y224.46739 Z-0.125
G1 X68.8431 Y224.34239 Z-0.125
G1 X68.8858 Y224.21099 Z-0.125
G1 X68.9117 Y224.07539 Z-0.125
G1 X68.9207 Y223.93749 Z-0.125
G1 X68.9117 Y223.79959 Z-0.125
G1 X68.8858 Y223.66379 Z-0.125
G1 X68.8431 Y223.53259 Z-0.125
G1 X68.7843 Y223.40759 Z-0.125
G1 X68.7103 Y223.29089 Z-0.125
G1 X68.6223 Y223.18439 Z-0.125
G1 X68.5216 Y223.08989 Z-0.125
G1 X68.4098 Y223.00869 Z-0.125
G1 X68.2887 Y222.94209 Z-0.125
G1 X68.1603 Y222.89129 Z-0.125
G1 X68.0265 Y222.85699 Z-0.125
G1 X67.8895 Y222.83969 Z-0.125
G1 X67.7513 Y222.83969 Z-0.125
G0 Z5
(Block-name: path4-3 [in,cut])
(Block-expand: 0)
(Block-enable: 1)
g0 x67.814189 y223.83969
g1 z-0.5 f150
g1 x67.801838 y223.84125 f350
g1 x67.7897 y223.844361
g1 x67.77863 y223.848738
g1 x67.768021 y223.854577
g1 x67.757689 y223.862081
g1 x67.749016 y223.87022
g1 x67.741391 y223.879448
g1 x67.734478 y223.89035
g1 x67.729178 y223.901599
g1 x67.725523 y223.912854
g1 x67.722957 y223.926306
g1 x67.722227 y223.93749
g1 x67.722949 y223.948538
g1 x67.725523 y223.962017
g1 x67.729273 y223.973584
g1 x67.734395 y223.984454
g1 x67.741143 y223.995086
g1 x67.749184 y224.004809
g1 x67.758118 y224.01321
g1 x67.767505 y224.020028
g1 x67.778629 y224.026133
g1 x67.790354 y224.030786
g1 x67.801489 y224.033641
g1 x67.813828 y224.03519
g1 x67.826972 y224.03519
g1 x67.839311 y224.033641
g1 x67.850316 y224.03082
g1 x67.862116 y224.026133
g1 x67.873436 y224.019926
g1 x67.882682 y224.01321
g1 x67.891616 y224.004809
g1 x67.899657 y223.995086
g1 x67.906229 y223.984731
g1 x67.911472 y223.973584
g1 x67.915342 y223.961678
g1 x67.917851 y223.948538
g1 x67.918573 y223.93749
g1 x67.917843 y223.926306
g1 x67.915342 y223.913194
g1 x67.911568 y223.901599
g1 x67.906146 y223.890072
g1 x67.899409 y223.879448
g1 x67.891784 y223.87022
g1 x67.883111 y223.862081
g1 x67.872921 y223.85468
g1 x67.862116 y223.848738
g1 x67.85097 y223.844328
g1 x67.838962 y223.84125
g1 x67.826611 y223.83969
g1 x67.814189 y223.83969
g1 z-1 f150
g1 x67.801838 y223.84125 f350
g1 x67.7897 y223.844361
g1 x67.77863 y223.848738
g1 x67.768021 y223.854577
g1 x67.757689 y223.862081
g1 x67.749016 y223.87022
g1 x67.741391 y223.879448
g1 x67.734478 y223.89035
g1 x67.729178 y223.901599
g1 x67.725523 y223.912854
g1 x67.722957 y223.926306
g1 x67.722227 y223.93749
g1 x67.722949 y223.948538
g1 x67.725523 y223.962017
g1 x67.729273 y223.973584
g1 x67.734395 y223.984454
g1 x67.741143 y223.995086
g1 x67.749184 y224.004809
g1 x67.758118 y224.01321
g1 x67.767505 y224.020028
g1 x67.778629 y224.026133
g1 x67.790354 y224.030786
g1 x67.801489 y224.033641
g1 x67.813828 y224.03519
g1 x67.826972 y224.03519
g1 x67.839311 y224.033641
g1 x67.850316 y224.03082
g1 x67.862116 y224.026133
g1 x67.873436 y224.019926
g1 x67.882682 y224.01321
g1 x67.891616 y224.004809
g1 x67.899657 y223.995086
g1 x67.906229 y223.984731
g1 x67.911472 y223.973584
g1 x67.915342 y223.961678
g1 x67.917851 y223.948538
g1 x67.918573 y223.93749
g1 x67.917843 y223.926306
g1 x67.915342 y223.913194
g1 x67.911568 y223.901599
g1 x67.906146 y223.890072
g1 x67.899409 y223.879448
g1 x67.891784 y223.87022
g1 x67.883111 y223.862081
g1 x67.872921 y223.85468
g1 x67.862116 y223.848738
g1 x67.85097 y223.844328
g1 x67.838962 y223.84125
g1 x67.826611 y223.83969
g1 x67.814189 y223.83969
g1 z-1.5 f150
g1 x67.801838 y223.84125 f350
g1 x67.7897 y223.844361
g1 x67.77863 y223.848738
g1 x67.768021 y223.854577
g1 x67.757689 y223.862081
g1 x67.749016 y223.87022
g1 x67.741391 y223.879448
g1 x67.734478 y223.89035
g1 x67.729178 y223.901599
g1 x67.725523 y223.912854
g1 x67.722957 y223.926306
g1 x67.722227 y223.93749
g1 x67.722949 y223.948538
g1 x67.725523 y223.962017
g1 x67.729273 y223.973584
g1 x67.734395 y223.984454
g1 x67.741143 y223.995086
g1 x67.749184 y224.004809
g1 x67.758118 y224.01321
g1 x67.767505 y224.020028
g1 x67.778629 y224.026133
g1 x67.790354 y224.030786
g1 x67.801489 y224.033641
g1 x67.813828 y224.03519
g1 x67.826972 y224.03519
g1 x67.839311 y224.033641
g1 x67.850316 y224.03082
g1 x67.862116 y224.026133
g1 x67.873436 y224.019926
g1 x67.882682 y224.01321
g1 x67.891616 y224.004809
g1 x67.899657 y223.995086
g1 x67.906229 y223.984731
g1 x67.911472 y223.973584
g1 x67.915342 y223.961678
g1 x67.917851 y223.948538
g1 x67.918573 y223.93749
g1 x67.917843 y223.926306
g1 x67.915342 y223.913194
g1 x67.911568 y223.901599
g1 x67.906146 y223.890072
g1 x67.899409 y223.879448
g1 x67.891784 y223.87022
g1 x67.883111 y223.862081
g1 x67.872921 y223.85468
g1 x67.862116 y223.848738
g1 x67.85097 y223.844328
g1 x67.838962 y223.84125
g1 x67.826611 y223.83969
g1 x67.814189 y223.83969
g1 z-2 f150
g1 x67.801838 y223.84125 f350
g1 x67.7897 y223.844361
g1 x67.77863 y223.848738
g1 x67.768021 y223.854577
g1 x67.757689 y223.862081
g1 x67.749016 y223.87022
g1 x67.741391 y223.879448
g1 x67.734478 y223.89035
g1 x67.729178 y223.901599
g1 x67.725523 y223.912854
g1 x67.722957 y223.926306
g1 x67.722227 y223.93749
g1 x67.722949 y223.948538
g1 x67.725523 y223.962017
g1 x67.729273 y223.973584
g1 x67.734395 y223.984454
g1 x67.741143 y223.995086
g1 x67.749184 y224.004809
g1 x67.758118 y224.01321
g1 x67.767505 y224.020028
g1 x67.778629 y224.026133
g1 x67.790354 y224.030786
g1 x67.801489 y224.033641
g1 x67.813828 y224.03519
g1 x67.826972 y224.03519
g1 x67.839311 y224.033641
g1 x67.850316 y224.03082
g1 x67.862116 y224.026133
g1 x67.873436 y224.019926
g1 x67.882682 y224.01321
g1 x67.891616 y224.004809
g1 x67.899657 y223.995086
g1 x67.906229 y223.984731
g1 x67.911472 y223.973584
g1 x67.915342 y223.961678
g1 x67.917851 y223.948538
g1 x67.918573 y223.93749
g1 x67.917843 y223.926306
g1 x67.915342 y223.913194
g1 x67.911568 y223.901599
g1 x67.906146 y223.890072
g1 x67.899409 y223.879448
g1 x67.891784 y223.87022
g1 x67.883111 y223.862081
g1 x67.872921 y223.85468
g1 x67.862116 y223.848738
g1 x67.85097 y223.844328
g1 x67.838962 y223.84125
g1 x67.826611 y223.83969
g1 x67.814189 y223.83969
g1 z-2.5 f150
g1 x67.801838 y223.84125 f350
g1 x67.7897 y223.844361
g1 x67.77863 y223.848738
g1 x67.768021 y223.854577
g1 x67.757689 y223.862081
g1 x67.749016 y223.87022
g1 x67.741391 y223.879448
g1 x67.734478 y223.89035
g1 x67.729178 y223.901599
g1 x67.725523 y223.912854
g1 x67.722957 y223.926306
g1 x67.722227 y223.93749
g1 x67.722949 y223.948538
g1 x67.725523 y223.962017
g1 x67.729273 y223.973584
g1 x67.734395 y223.984454
g1 x67.741143 y223.995086
g1 x67.749184 y224.004809
g1 x67.758118 y224.01321
g1 x67.767505 y224.020028
g1 x67.778629 y224.026133
g1 x67.790354 y224.030786
g1 x67.801489 y224.033641
g1 x67.813828 y224.03519
g1 x67.826972 y224.03519
g1 x67.839311 y224.033641
g1 x67.850316 y224.03082
g1 x67.862116 y224.026133
g1 x67.873436 y224.019926
g1 x67.882682 y224.01321
g1 x67.891616 y224.004809
g1 x67.899657 y223.995086
g1 x67.906229 y223.984731
g1 x67.911472 y223.973584
g1 x67.915342 y223.961678
g1 x67.917851 y223.948538
g1 x67.918573 y223.93749
g1 x67.917843 y223.926306
g1 x67.915342 y223.913194
g1 x67.911568 y223.901599
g1 x67.906146 y223.890072
g1 x67.899409 y223.879448
g1 x67.891784 y223.87022
g1 x67.883111 y223.862081
g1 x67.872921 y223.85468
g1 x67.862116 y223.848738
g1 x67.85097 y223.844328
g1 x67.838962 y223.84125
g1 x67.826611 y223.83969
g1 x67.814189 y223.83969
g1 z-3 f150
g1 x67.801838 y223.84125 f350
g1 x67.7897 y223.844361
g1 x67.77863 y223.848738
g1 x67.768021 y223.854577
g1 x67.757689 y223.862081
g1 x67.749016 y223.87022
g1 x67.741391 y223.879448
g1 x67.734478 y223.89035
g1 x67.729178 y223.901599
g1 x67.725523 y223.912854
g1 x67.722957 y223.926306
g1 x67.722227 y223.93749
g1 x67.722949 y223.948538
g1 x67.725523 y223.962017
g1 x67.729273 y223.973584
g1 x67.734395 y223.984454
g1 x67.741143 y223.995086
g1 x67.749184 y224.004809
g1 x67.758118 y224.01321
g1 x67.767505 y224.020028
g1 x67.778629 y224.026133
g1 x67.790354 y224.030786
g1 x67.801489 y224.033641
g1 x67.813828 y224.03519
g1 x67.826972 y224.03519
g1 x67.839311 y224.033641
g1 x67.850316 y224.03082
g1 x67.862116 y224.026133
g1 x67.873436 y224.019926
g1 x67.882682 y224.01321
g1 x67.891616 y224.004809
g1 x67.899657 y223.995086
g1 x67.906229 y223.984731
g1 x67.911472 y223.973584
g1 x67.915342 y223.961678
g1 x67.917851 y223.948538
g1 x67.918573 y223.93749
g1 x67.917843 y223.926306
g1 x67.915342 y223.913194
g1 x67.911568 y223.901599
g1 x67.906146 y223.890072
g1 x67.899409 y223.879448
g1 x67.891784 y223.87022
g1 x67.883111 y223.862081
g1 x67.872921 y223.85468
g1 x67.862116 y223.848738
g1 x67.85097 y223.844328
g1 x67.838962 y223.84125
g1 x67.826611 y223.83969
g1 x67.814189 y223.83969
g0 z5
(Block-name: path4-3)
(Block-expand: 0)
(Block-enable: 0)

(End cutting path id: path4-3)


(Start cutting path id: path4-3)
(Change tool to Default tool)

G0 Z5
G0 X72.2513 Y227.33969

G1 Z-0.125 F100
G1 X72.1143 Y227.35699 Z-0.125 F400
G1 X71.9805 Y227.39129 Z-0.125
G1 X71.852 Y227.44209 Z-0.125
G1 X71.731 Y227.50869 Z-0.125
G1 X71.6192 Y227.58989 Z-0.125
G1 X71.5185 Y227.68439 Z-0.125
G1 X71.4305 Y227.79089 Z-0.125
G1 X71.3565 Y227.90759 Z-0.125
G1 X71.2976 Y228.03259 Z-0.125
G1 X71.255 Y228.16379 Z-0.125
G1 X71.2291 Y228.29959 Z-0.125
G1 X71.2201 Y228.43749 Z-0.125
G1 X71.2291 Y228.57539 Z-0.125
G1 X71.255 Y228.71099 Z-0.125
G1 X71.2976 Y228.84239 Z-0.125
G1 X71.3565 Y228.96739 Z-0.125
G1 X71.4305 Y229.08399 Z-0.125
G1 X71.5185 Y229.19039 Z-0.125
G1 X71.6192 Y229.28509 Z-0.125
G1 X71.731 Y229.36629 Z-0.125
G1 X71.852 Y229.43269 Z-0.125
G1 X71.9805 Y229.48369 Z-0.125
G1 X72.1143 Y229.51799 Z-0.125
G1 X72.2513 Y229.53519 Z-0.125
G1 X72.3895 Y229.53519 Z-0.125
G1 X72.5265 Y229.51799 Z-0.125
G1 X72.6603 Y229.48369 Z-0.125
G1 X72.7887 Y229.43269 Z-0.125
G1 X72.9098 Y229.36629 Z-0.125
G1 X73.0216 Y229.28509 Z-0.125
G1 X73.1223 Y229.19039 Z-0.125
G1 X73.2103 Y229.08399 Z-0.125
G1 X73.2843 Y228.96739 Z-0.125
G1 X73.3431 Y228.84239 Z-0.125
G1 X73.3858 Y228.71099 Z-0.125
G1 X73.4117 Y228.57539 Z-0.125
G1 X73.4207 Y228.43749 Z-0.125
G1 X73.4117 Y228.29959 Z-0.125
G1 X73.3858 Y228.16379 Z-0.125
G1 X73.3431 Y228.03259 Z-0.125
G1 X73.2843 Y227.90759 Z-0.125
G1 X73.2103 Y227.79089 Z-0.125
G1 X73.1223 Y227.68439 Z-0.125
G1 X73.0216 Y227.58989 Z-0.125
G1 X72.9098 Y227.50869 Z-0.125
G1 X72.7887 Y227.44209 Z-0.125
G1 X72.6603 Y227.39129 Z-0.125
G1 X72.5265 Y227.35699 Z-0.125
G1 X72.3895 Y227.33969 Z-0.125
G1 X72.2513 Y227.33969 Z-0.125
G0 Z5
(Block-name: path4-3 [in,cut])
(Block-expand: 0)
(Block-enable: 1)
g0 x72.314189 y228.33969
g1 z-0.5 f150
g1 x72.301838 y228.34125 f350
g1 x72.2897 y228.344361
g1 x72.27863 y228.348738
g1 x72.268021 y228.354577
g1 x72.257689 y228.362081
g1 x72.249016 y228.37022
g1 x72.241391 y228.379448
g1 x72.234478 y228.39035
g1 x72.229178 y228.401599
g1 x72.225523 y228.412854
g1 x72.222957 y228.426306
g1 x72.222227 y228.43749
g1 x72.222949 y228.448538
g1 x72.225523 y228.462017
g1 x72.229273 y228.473584
g1 x72.234395 y228.484454
g1 x72.241143 y228.495086
g1 x72.249184 y228.504809
g1 x72.258118 y228.51321
g1 x72.267505 y228.520028
g1 x72.278629 y228.526133
g1 x72.290354 y228.530786
g1 x72.301489 y228.533641
g1 x72.313828 y228.53519
g1 x72.326972 y228.53519
g1 x72.339311 y228.533641
g1 x72.350316 y228.53082
g1 x72.362116 y228.526133
g1 x72.373436 y228.519926
g1 x72.382682 y228.51321
g1 x72.391616 y228.504809
g1 x72.399657 y228.495086
g1 x72.406229 y228.484731
g1 x72.411472 y228.473584
g1 x72.415342 y228.461678
g1 x72.417851 y228.448538
g1 x72.418573 y228.43749
g1 x72.417843 y228.426306
g1 x72.415342 y228.413194
g1 x72.411568 y228.401599
g1 x72.406146 y228.390072
g1 x72.399409 y228.379448
g1 x72.391784 y228.37022
g1 x72.383111 y228.362081
g1 x72.372921 y228.35468
g1 x72.362116 y228.348738
g1 x72.35097 y228.344328
g1 x72.338962 y228.34125
g1 x72.326611 y228.33969
g1 x72.314189 y228.33969
g1 z-1 f150
g1 x72.301838 y228.34125 f350
g1 x72.2897 y228.344361
g1 x72.27863 y228.348738
g1 x72.268021 y228.354577
g1 x72.257689 y228.362081
g1 x72.249016 y228.37022
g1 x72.241391 y228.379448
g1 x72.234478 y228.39035
g1 x72.229178 y228.401599
g1 x72.225523 y228.412854
g1 x72.222957 y228.426306
g1 x72.222227 y228.43749
g1 x72.222949 y228.448538
g1 x72.225523 y228.462017
g1 x72.229273 y228.473584
g1 x72.234395 y228.484454
g1 x72.241143 y228.495086
g1 x72.249184 y228.504809
g1 x72.258118 y228.51321
g1 x72.267505 y228.520028
g1 x72.278629 y228.526133
g1 x72.290354 y228.530786
g1 x72.301489 y228.533641
g1 x72.313828 y228.53519
g1 x72.326972 y228.53519
g1 x72.339311 y228.533641
g1 x72.350316 y228.53082
g1 x72.362116 y228.526133
g1 x72.373436 y228.519926
g1 x72.382682 y228.51321
g1 x72.391616 y228.504809
g1 x72.399657 y228.495086
g1 x72.406229 y228.484731
g1 x72.411472 y228.473584
g1 x72.415342 y228.461678
g1 x72.417851 y228.448538
g1 x72.418573 y228.43749
g1 x72.417843 y228.426306
g1 x72.415342 y228.413194
g1 x72.411568 y228.401599
g1 x72.406146 y228.390072
g1 x72.399409 y228.379448
g1 x72.391784 y228.37022
g1 x72.383111 y228.362081
g1 x72.372921 y228.35468
g1 x72.362116 y228.348738
g1 x72.35097 y228.344328
g1 x72.338962 y228.34125
g1 x72.326611 y228.33969
g1 x72.314189 y228.33969
g1 z-1.5 f150
g1 x72.301838 y228.34125 f350
g1 x72.2897 y228.344361
g1 x72.27863 y228.348738
g1 x72.268021 y228.354577
g1 x72.257689 y228.362081
g1 x72.249016 y228.37022
g1 x72.241391 y228.379448
g1 x72.234478 y228.39035
g1 x72.229178 y228.401599
g1 x72.225523 y228.412854
g1 x72.222957 y228.426306
g1 x72.222227 y228.43749
g1 x72.222949 y228.448538
g1 x72.225523 y228.462017
g1 x72.229273 y228.473584
g1 x72.234395 y228.484454
g1 x72.241143 y228.495086
g1 x72.249184 y228.504809
g1 x72.258118 y228.51321
g1 x72.267505 y228.520028
g1 x72.278629 y228.526133
g1 x72.290354 y228.530786
g1 x72.301489 y228.533641
g1 x72.313828 y228.53519
g1 x72.326972 y228.53519
g1 x72.339311 y228.533641
g1 x72.350316 y228.53082
g1 x72.362116 y228.526133
g1 x72.373436 y228.519926
g1 x72.382682 y228.51321
g1 x72.391616 y228.504809
g1 x72.399657 y228.495086
g1 x72.406229 y228.484731
g1 x72.411472 y228.473584
g1 x72.415342 y228.461678
g1 x72.417851 y228.448538
g1 x72.418573 y228.43749
g1 x72.417843 y228.426306
g1 x72.415342 y228.413194
g1 x72.411568 y228.401599
g1 x72.406146 y228.390072
g1 x72.399409 y228.379448
g1 x72.391784 y228.37022
g1 x72.383111 y228.362081
g1 x72.372921 y228.35468
g1 x72.362116 y228.348738
g1 x72.35097 y228.344328
g1 x72.338962 y228.34125
g1 x72.326611 y228.33969
g1 x72.314189 y228.33969
g1 z-2 f150
g1 x72.301838 y228.34125 f350
g1 x72.2897 y228.344361
g1 x72.27863 y228.348738
g1 x72.268021 y228.354577
g1 x72.257689 y228.362081
g1 x72.249016 y228.37022
g1 x72.241391 y228.379448
g1 x72.234478 y228.39035
g1 x72.229178 y228.401599
g1 x72.225523 y228.412854
g1 x72.222957 y228.426306
g1 x72.222227 y228.43749
g1 x72.222949 y228.448538
g1 x72.225523 y228.462017
g1 x72.229273 y228.473584
g1 x72.234395 y228.484454
g1 x72.241143 y228.495086
g1 x72.249184 y228.504809
g1 x72.258118 y228.51321
g1 x72.267505 y228.520028
g1 x72.278629 y228.526133
g1 x72.290354 y228.530786
g1 x72.301489 y228.533641
g1 x72.313828 y228.53519
g1 x72.326972 y228.53519
g1 x72.339311 y228.533641
g1 x72.350316 y228.53082
g1 x72.362116 y228.526133
g1 x72.373436 y228.519926
g1 x72.382682 y228.51321
g1 x72.391616 y228.504809
g1 x72.399657 y228.495086
g1 x72.406229 y228.484731
g1 x72.411472 y228.473584
g1 x72.415342 y228.461678
g1 x72.417851 y228.448538
g1 x72.418573 y228.43749
g1 x72.417843 y228.426306
g1 x72.415342 y228.413194
g1 x72.411568 y228.401599
g1 x72.406146 y228.390072
g1 x72.399409 y228.379448
g1 x72.391784 y228.37022
g1 x72.383111 y228.362081
g1 x72.372921 y228.35468
g1 x72.362116 y228.348738
g1 x72.35097 y228.344328
g1 x72.338962 y228.34125
g1 x72.326611 y228.33969
g1 x72.314189 y228.33969
g1 z-2.5 f150
g1 x72.301838 y228.34125 f350
g1 x72.2897 y228.344361
g1 x72.27863 y228.348738
g1 x72.268021 y228.354577
g1 x72.257689 y228.362081
g1 x72.249016 y228.37022
g1 x72.241391 y228.379448
g1 x72.234478 y228.39035
g1 x72.229178 y228.401599
g1 x72.225523 y228.412854
g1 x72.222957 y228.426306
g1 x72.222227 y228.43749
g1 x72.222949 y228.448538
g1 x72.225523 y228.462017
g1 x72.229273 y228.473584
g1 x72.234395 y228.484454
g1 x72.241143 y228.495086
g1 x72.249184 y228.504809
g1 x72.258118 y228.51321
g1 x72.267505 y228.520028
g1 x72.278629 y228.526133
g1 x72.290354 y228.530786
g1 x72.301489 y228.533641
g1 x72.313828 y228.53519
g1 x72.326972 y228.53519
g1 x72.339311 y228.533641
g1 x72.350316 y228.53082
g1 x72.362116 y228.526133
g1 x72.373436 y228.519926
g1 x72.382682 y228.51321
g1 x72.391616 y228.504809
g1 x72.399657 y228.495086
g1 x72.406229 y228.484731
g1 x72.411472 y228.473584
g1 x72.415342 y228.461678
g1 x72.417851 y228.448538
g1 x72.418573 y228.43749
g1 x72.417843 y228.426306
g1 x72.415342 y228.413194
g1 x72.411568 y228.401599
g1 x72.406146 y228.390072
g1 x72.399409 y228.379448
g1 x72.391784 y228.37022
g1 x72.383111 y228.362081
g1 x72.372921 y228.35468
g1 x72.362116 y228.348738
g1 x72.35097 y228.344328
g1 x72.338962 y228.34125
g1 x72.326611 y228.33969
g1 x72.314189 y228.33969
g1 z-3 f150
g1 x72.301838 y228.34125 f350
g1 x72.2897 y228.344361
g1 x72.27863 y228.348738
g1 x72.268021 y228.354577
g1 x72.257689 y228.362081
g1 x72.249016 y228.37022
g1 x72.241391 y228.379448
g1 x72.234478 y228.39035
g1 x72.229178 y228.401599
g1 x72.225523 y228.412854
g1 x72.222957 y228.426306
g1 x72.222227 y228.43749
g1 x72.222949 y228.448538
g1 x72.225523 y228.462017
g1 x72.229273 y228.473584
g1 x72.234395 y228.484454
g1 x72.241143 y228.495086
g1 x72.249184 y228.504809
g1 x72.258118 y228.51321
g1 x72.267505 y228.520028
g1 x72.278629 y228.526133
g1 x72.290354 y228.530786
g1 x72.301489 y228.533641
g1 x72.313828 y228.53519
g1 x72.326972 y228.53519
g1 x72.339311 y228.533641
g1 x72.350316 y228.53082
g1 x72.362116 y228.526133
g1 x72.373436 y228.519926
g1 x72.382682 y228.51321
g1 x72.391616 y228.504809
g1 x72.399657 y228.495086
g1 x72.406229 y228.484731
g1 x72.411472 y228.473584
g1 x72.415342 y228.461678
g1 x72.417851 y228.448538
g1 x72.418573 y228.43749
g1 x72.417843 y228.426306
g1 x72.415342 y228.413194
g1 x72.411568 y228.401599
g1 x72.406146 y228.390072
g1 x72.399409 y228.379448
g1 x72.391784 y228.37022
g1 x72.383111 y228.362081
g1 x72.372921 y228.35468
g1 x72.362116 y228.348738
g1 x72.35097 y228.344328
g1 x72.338962 y228.34125
g1 x72.326611 y228.33969
g1 x72.314189 y228.33969
g0 z5
(Block-name: path4-3)
(Block-expand: 0)
(Block-enable: 0)

(End cutting path id: path4-3)


(Start cutting path id: path4-3)
(Change tool to Default tool)

G0 Z5
G0 X76.7513 Y222.83969

G1 Z-0.125 F100
G1 X76.6143 Y222.85699 Z-0.125 F400
G1 X76.4805 Y222.89129 Z-0.125
G1 X76.352 Y222.94209 Z-0.125
G1 X76.231 Y223.00869 Z-0.125
G1 X76.1192 Y223.08989 Z-0.125
G1 X76.0185 Y223.18439 Z-0.125
G1 X75.9305 Y223.29089 Z-0.125
G1 X75.8565 Y223.40759 Z-0.125
G1 X75.7976 Y223.53259 Z-0.125
G1 X75.755 Y223.66379 Z-0.125
G1 X75.7291 Y223.79959 Z-0.125
G1 X75.7201 Y223.93749 Z-0.125
G1 X75.7291 Y224.07539 Z-0.125
G1 X75.755 Y224.21099 Z-0.125
G1 X75.7976 Y224.34239 Z-0.125
G1 X75.8565 Y224.46739 Z-0.125
G1 X75.9305 Y224.58399 Z-0.125
G1 X76.0185 Y224.69039 Z-0.125
G1 X76.1192 Y224.78509 Z-0.125
G1 X76.231 Y224.86629 Z-0.125
G1 X76.352 Y224.93269 Z-0.125
G1 X76.4805 Y224.98369 Z-0.125
G1 X76.6143 Y225.01799 Z-0.125
G1 X76.7513 Y225.03519 Z-0.125
G1 X76.8895 Y225.03519 Z-0.125
G1 X77.0265 Y225.01799 Z-0.125
G1 X77.1603 Y224.98369 Z-0.125
G1 X77.2887 Y224.93269 Z-0.125
G1 X77.4098 Y224.86629 Z-0.125
G1 X77.5216 Y224.78509 Z-0.125
G1 X77.6223 Y224.69039 Z-0.125
G1 X77.7103 Y224.58399 Z-0.125
G1 X77.7843 Y224.46739 Z-0.125
G1 X77.8431 Y224.34239 Z-0.125
G1 X77.8858 Y224.21099 Z-0.125
G1 X77.9117 Y224.07539 Z-0.125
G1 X77.9207 Y223.93749 Z-0.125
G1 X77.9117 Y223.79959 Z-0.125
G1 X77.8858 Y223.66379 Z-0.125
G1 X77.8431 Y223.53259 Z-0.125
G1 X77.7843 Y223.40759 Z-0.125
G1 X77.7103 Y223.29089 Z-0.125
G1 X77.6223 Y223.18439 Z-0.125
G1 X77.5216 Y223.08989 Z-0.125
G1 X77.4098 Y223.00869 Z-0.125
G1 X77.2887 Y222.94209 Z-0.125
G1 X77.1603 Y222.89129 Z-0.125
G1 X77.0265 Y222.85699 Z-0.125
G1 X76.8895 Y222.83969 Z-0.125
G1 X76.7513 Y222.83969 Z-0.125
G0 Z5
(Block-name: path4-3 [in,cut])
(Block-expand: 0)
(Block-enable: 1)
g0 x76.814189 y223.83969
g1 z-0.5 f150
g1 x76.801838 y223.84125 f350
g1 x76.7897 y223.844361
g1 x76.77863 y223.848738
g1 x76.768021 y223.854577
g1 x76.757689 y223.862081
g1 x76.749016 y223.87022
g1 x76.741391 y223.879448
g1 x76.734478 y223.89035
g1 x76.729178 y223.901599
g1 x76.725523 y223.912854
g1 x76.722957 y223.926306
g1 x76.722227 y223.93749
g1 x76.722949 y223.948538
g1 x76.725523 y223.962017
g1 x76.729273 y223.973584
g1 x76.734395 y223.984454
g1 x76.741143 y223.995086
g1 x76.749184 y224.004809
g1 x76.758118 y224.01321
g1 x76.767505 y224.020028
g1 x76.778629 y224.026133
g1 x76.790354 y224.030786
g1 x76.801489 y224.033641
g1 x76.813828 y224.03519
g1 x76.826972 y224.03519
g1 x76.839311 y224.033641
g1 x76.850316 y224.03082
g1 x76.862116 y224.026133
g1 x76.873436 y224.019926
g1 x76.882682 y224.01321
g1 x76.891616 y224.004809
g1 x76.899657 y223.995086
g1 x76.906229 y223.984731
g1 x76.911472 y223.973584
g1 x76.915342 y223.961678
g1 x76.917851 y223.948538
g1 x76.918573 y223.93749
g1 x76.917843 y223.926306
g1 x76.915342 y223.913194
g1 x76.911568 y223.901599
g1 x76.906146 y223.890072
g1 x76.899409 y223.879448
g1 x76.891784 y223.87022
g1 x76.883111 y223.862081
g1 x76.872921 y223.85468
g1 x76.862116 y223.848738
g1 x76.85097 y223.844328
g1 x76.838962 y223.84125
g1 x76.826611 y223.83969
g1 x76.814189 y223.83969
g1 z-1 f150
g1 x76.801838 y223.84125 f350
g1 x76.7897 y223.844361
g1 x76.77863 y223.848738
g1 x76.768021 y223.854577
g1 x76.757689 y223.862081
g1 x76.749016 y223.87022
g1 x76.741391 y223.879448
g1 x76.734478 y223.89035
g1 x76.729178 y223.901599
g1 x76.725523 y223.912854
g1 x76.722957 y223.926306
g1 x76.722227 y223.93749
g1 x76.722949 y223.948538
g1 x76.725523 y223.962017
g1 x76.729273 y223.973584
g1 x76.734395 y223.984454
g1 x76.741143 y223.995086
g1 x76.749184 y224.004809
g1 x76.758118 y224.01321
g1 x76.767505 y224.020028
g1 x76.778629 y224.026133
g1 x76.790354 y224.030786
g1 x76.801489 y224.033641
g1 x76.813828 y224.03519
g1 x76.826972 y224.03519
g1 x76.839311 y224.033641
g1 x76.850316 y224.03082
g1 x76.862116 y224.026133
g1 x76.873436 y224.019926
g1 x76.882682 y224.01321
g1 x76.891616 y224.004809
g1 x76.899657 y223.995086
g1 x76.906229 y223.984731
g1 x76.911472 y223.973584
g1 x76.915342 y223.961678
g1 x76.917851 y223.948538
g1 x76.918573 y223.93749
g1 x76.917843 y223.926306
g1 x76.915342 y223.913194
g1 x76.911568 y223.901599
g1 x76.906146 y223.890072
g1 x76.899409 y223.879448
g1 x76.891784 y223.87022
g1 x76.883111 y223.862081
g1 x76.872921 y223.85468
g1 x76.862116 y223.848738
g1 x76.85097 y223.844328
g1 x76.838962 y223.84125
g1 x76.826611 y223.83969
g1 x76.814189 y223.83969
g1 z-1.5 f150
g1 x76.801838 y223.84125 f350
g1 x76.7897 y223.844361
g1 x76.77863 y223.848738
g1 x76.768021 y223.854577
g1 x76.757689 y223.862081
g1 x76.749016 y223.87022
g1 x76.741391 y223.879448
g1 x76.734478 y223.89035
g1 x76.729178 y223.901599
g1 x76.725523 y223.912854
g1 x76.722957 y223.926306
g1 x76.722227 y223.93749
g1 x76.722949 y223.948538
g1 x76.725523 y223.962017
g1 x76.729273 y223.973584
g1 x76.734395 y223.984454
g1 x76.741143 y223.995086
g1 x76.749184 y224.004809
g1 x76.758118 y224.01321
g1 x76.767505 y224.020028
g1 x76.778629 y224.026133
g1 x76.790354 y224.030786
g1 x76.801489 y224.033641
g1 x76.813828 y224.03519
g1 x76.826972 y224.03519
g1 x76.839311 y224.033641
g1 x76.850316 y224.03082
g1 x76.862116 y224.026133
g1 x76.873436 y224.019926
g1 x76.882682 y224.01321
g1 x76.891616 y224.004809
g1 x76.899657 y223.995086
g1 x76.906229 y223.984731
g1 x76.911472 y223.973584
g1 x76.915342 y223.961678
g1 x76.917851 y223.948538
g1 x76.918573 y223.93749
g1 x76.917843 y223.926306
g1 x76.915342 y223.913194
g1 x76.911568 y223.901599
g1 x76.906146 y223.890072
g1 x76.899409 y223.879448
g1 x76.891784 y223.87022
g1 x76.883111 y223.862081
g1 x76.872921 y223.85468
g1 x76.862116 y223.848738
g1 x76.85097 y223.844328
g1 x76.838962 y223.84125
g1 x76.826611 y223.83969
g1 x76.814189 y223.83969
g1 z-2 f150
g1 x76.801838 y223.84125 f350
g1 x76.7897 y223.844361
g1 x76.77863 y223.848738
g1 x76.768021 y223.854577
g1 x76.757689 y223.862081
g1 x76.749016 y223.87022
g1 x76.741391 y223.879448
g1 x76.734478 y223.89035
g1 x76.729178 y223.901599
g1 x76.725523 y223.912854
g1 x76.722957 y223.926306
g1 x76.722227 y223.93749
g1 x76.722949 y223.948538
g1 x76.725523 y223.962017
g1 x76.729273 y223.973584
g1 x76.734395 y223.984454
g1 x76.741143 y223.995086
g1 x76.749184 y224.004809
g1 x76.758118 y224.01321
g1 x76.767505 y224.020028
g1 x76.778629 y224.026133
g1 x76.790354 y224.030786
g1 x76.801489 y224.033641
g1 x76.813828 y224.03519
g1 x76.826972 y224.03519
g1 x76.839311 y224.033641
g1 x76.850316 y224.03082
g1 x76.862116 y224.026133
g1 x76.873436 y224.019926
g1 x76.882682 y224.01321
g1 x76.891616 y224.004809
g1 x76.899657 y223.995086
g1 x76.906229 y223.984731
g1 x76.911472 y223.973584
g1 x76.915342 y223.961678
g1 x76.917851 y223.948538
g1 x76.918573 y223.93749
g1 x76.917843 y223.926306
g1 x76.915342 y223.913194
g1 x76.911568 y223.901599
g1 x76.906146 y223.890072
g1 x76.899409 y223.879448
g1 x76.891784 y223.87022
g1 x76.883111 y223.862081
g1 x76.872921 y223.85468
g1 x76.862116 y223.848738
g1 x76.85097 y223.844328
g1 x76.838962 y223.84125
g1 x76.826611 y223.83969
g1 x76.814189 y223.83969
g1 z-2.5 f150
g1 x76.801838 y223.84125 f350
g1 x76.7897 y223.844361
g1 x76.77863 y223.848738
g1 x76.768021 y223.854577
g1 x76.757689 y223.862081
g1 x76.749016 y223.87022
g1 x76.741391 y223.879448
g1 x76.734478 y223.89035
g1 x76.729178 y223.901599
g1 x76.725523 y223.912854
g1 x76.722957 y223.926306
g1 x76.722227 y223.93749
g1 x76.722949 y223.948538
g1 x76.725523 y223.962017
g1 x76.729273 y223.973584
g1 x76.734395 y223.984454
g1 x76.741143 y223.995086
g1 x76.749184 y224.004809
g1 x76.758118 y224.01321
g1 x76.767505 y224.020028
g1 x76.778629 y224.026133
g1 x76.790354 y224.030786
g1 x76.801489 y224.033641
g1 x76.813828 y224.03519
g1 x76.826972 y224.03519
g1 x76.839311 y224.033641
g1 x76.850316 y224.03082
g1 x76.862116 y224.026133
g1 x76.873436 y224.019926
g1 x76.882682 y224.01321
g1 x76.891616 y224.004809
g1 x76.899657 y223.995086
g1 x76.906229 y223.984731
g1 x76.911472 y223.973584
g1 x76.915342 y223.961678
g1 x76.917851 y223.948538
g1 x76.918573 y223.93749
g1 x76.917843 y223.926306
g1 x76.915342 y223.913194
g1 x76.911568 y223.901599
g1 x76.906146 y223.890072
g1 x76.899409 y223.879448
g1 x76.891784 y223.87022
g1 x76.883111 y223.862081
g1 x76.872921 y223.85468
g1 x76.862116 y223.848738
g1 x76.85097 y223.844328
g1 x76.838962 y223.84125
g1 x76.826611 y223.83969
g1 x76.814189 y223.83969
g1 z-3 f150
g1 x76.801838 y223.84125 f350
g1 x76.7897 y223.844361
g1 x76.77863 y223.848738
g1 x76.768021 y223.854577
g1 x76.757689 y223.862081
g1 x76.749016 y223.87022
g1 x76.741391 y223.879448
g1 x76.734478 y223.89035
g1 x76.729178 y223.901599
g1 x76.725523 y223.912854
g1 x76.722957 y223.926306
g1 x76.722227 y223.93749
g1 x76.722949 y223.948538
g1 x76.725523 y223.962017
g1 x76.729273 y223.973584
g1 x76.734395 y223.984454
g1 x76.741143 y223.995086
g1 x76.749184 y224.004809
g1 x76.758118 y224.01321
g1 x76.767505 y224.020028
g1 x76.778629 y224.026133
g1 x76.790354 y224.030786
g1 x76.801489 y224.033641
g1 x76.813828 y224.03519
g1 x76.826972 y224.03519
g1 x76.839311 y224.033641
g1 x76.850316 y224.03082
g1 x76.862116 y224.026133
g1 x76.873436 y224.019926
g1 x76.882682 y224.01321
g1 x76.891616 y224.004809
g1 x76.899657 y223.995086
g1 x76.906229 y223.984731
g1 x76.911472 y223.973584
g1 x76.915342 y223.961678
g1 x76.917851 y223.948538
g1 x76.918573 y223.93749
g1 x76.917843 y223.926306
g1 x76.915342 y223.913194
g1 x76.911568 y223.901599
g1 x76.906146 y223.890072
g1 x76.899409 y223.879448
g1 x76.891784 y223.87022
g1 x76.883111 y223.862081
g1 x76.872921 y223.85468
g1 x76.862116 y223.848738
g1 x76.85097 y223.844328
g1 x76.838962 y223.84125
g1 x76.826611 y223.83969
g1 x76.814189 y223.83969
g0 z5
(Block-name: path4)
(Block-expand: 0)
(Block-enable: 0)

(End cutting path id: path4-3)


(Start cutting path id: path4)
(Change tool to Default tool)

G0 Z5
G0 X68.0087 Y206.23229

G1 Z-0.125 F100
G1 X67.8716 Y206.24969 Z-0.125 F400
G1 X67.7378 Y206.28409 Z-0.125
G1 X67.6094 Y206.33479 Z-0.125
G1 X67.4883 Y206.40149 Z-0.125
G1 X67.3766 Y206.48269 Z-0.125
G1 X67.2759 Y206.57709 Z-0.125
G1 X67.1878 Y206.68359 Z-0.125
G1 X67.1138 Y206.80019 Z-0.125
G1 X67.055 Y206.92519 Z-0.125
G1 X67.0123 Y207.05659 Z-0.125
G1 X66.9864 Y207.19239 Z-0.125
G1 X66.9774 Y207.33029 Z-0.125
G1 X66.9864 Y207.46809 Z-0.125
G1 X67.0123 Y207.60369 Z-0.125
G1 X67.055 Y207.73509 Z-0.125
G1 X67.1138 Y207.86009 Z-0.125
G1 X67.1878 Y207.97679 Z-0.125
G1 X67.2759 Y208.08309 Z-0.125
G1 X67.3766 Y208.17779 Z-0.125
G1 X67.4883 Y208.25889 Z-0.125
G1 X67.6094 Y208.32549 Z-0.125
G1 X67.7378 Y208.37639 Z-0.125
G1 X67.8716 Y208.41079 Z-0.125
G1 X68.0087 Y208.42809 Z-0.125
G1 X68.1468 Y208.42809 Z-0.125
G1 X68.2839 Y208.41079 Z-0.125
G1 X68.4177 Y208.37639 Z-0.125
G1 X68.5461 Y208.32549 Z-0.125
G1 X68.6672 Y208.25889 Z-0.125
G1 X68.7789 Y208.17779 Z-0.125
G1 X68.8796 Y208.08309 Z-0.125
G1 X68.9677 Y207.97679 Z-0.125
G1 X69.0417 Y207.86009 Z-0.125
G1 X69.1005 Y207.73509 Z-0.125
G1 X69.1432 Y207.60369 Z-0.125
G1 X69.1691 Y207.46809 Z-0.125
G1 X69.1781 Y207.33029 Z-0.125
G1 X69.1691 Y207.19239 Z-0.125
G1 X69.1432 Y207.05659 Z-0.125
G1 X69.1005 Y206.92519 Z-0.125
G1 X69.0417 Y206.80019 Z-0.125
G1 X68.9677 Y206.68359 Z-0.125
G1 X68.8796 Y206.57709 Z-0.125
G1 X68.7789 Y206.48269 Z-0.125
G1 X68.6672 Y206.40149 Z-0.125
G1 X68.5461 Y206.33479 Z-0.125
G1 X68.4177 Y206.28409 Z-0.125
G1 X68.2839 Y206.24969 Z-0.125
G1 X68.1468 Y206.23229 Z-0.125
G1 X68.0087 Y206.23229 Z-0.125
G0 Z5
(Block-name: path4 [in,cut])
(Block-expand: 0)
(Block-enable: 1)
g0 x68.071904 y207.23229
g1 z-0.5 f150
g1 x68.059792 y207.233827 f350
g1 x68.047129 y207.237083
g1 x68.035984 y207.241484
g1 x68.025624 y207.24719
g1 x68.01503 y207.254891
g1 x68.006043 y207.263316
g1 x67.998417 y207.272535
g1 x67.991871 y207.282849
g1 x67.986628 y207.293996
g1 x67.9828 y207.305773
g1 x67.980257 y207.319106
g1 x67.979529 y207.330266
g1 x67.980244 y207.341214
g1 x67.982758 y207.354378
g1 x67.986628 y207.366284
g1 x67.991954 y207.377608
g1 x67.998292 y207.387604
g1 x68.006212 y207.397159
g1 x68.015459 y207.405855
g1 x68.025109 y207.412861
g1 x68.03628 y207.419005
g1 x68.047784 y207.423566
g1 x68.059443 y207.426563
g1 x68.071543 y207.42809
g1 x68.083957 y207.42809
g1 x68.096057 y207.426563
g1 x68.107716 y207.423566
g1 x68.11922 y207.419005
g1 x68.130391 y207.412861
g1 x68.140041 y207.405855
g1 x68.149288 y207.397159
g1 x68.157208 y207.387604
g1 x68.163546 y207.377608
g1 x68.168872 y207.366284
g1 x68.172742 y207.354378
g1 x68.175256 y207.341214
g1 x68.175971 y207.330266
g1 x68.175243 y207.319106
g1 x68.1727 y207.305773
g1 x68.168872 y207.293996
g1 x68.163629 y207.282849
g1 x68.157083 y207.272535
g1 x68.149457 y207.263316
g1 x68.14047 y207.254891
g1 x68.129876 y207.24719
g1 x68.119516 y207.241484
g1 x68.108371 y207.237083
g1 x68.095708 y207.233827
g1 x68.083596 y207.23229
g1 x68.071904 y207.23229
g1 z-1 f150
g1 x68.059792 y207.233827 f350
g1 x68.047129 y207.237083
g1 x68.035984 y207.241484
g1 x68.025624 y207.24719
g1 x68.01503 y207.254891
g1 x68.006043 y207.263316
g1 x67.998417 y207.272535
g1 x67.991871 y207.282849
g1 x67.986628 y207.293996
g1 x67.9828 y207.305773
g1 x67.980257 y207.319106
g1 x67.979529 y207.330266
g1 x67.980244 y207.341214
g1 x67.982758 y207.354378
g1 x67.986628 y207.366284
g1 x67.991954 y207.377608
g1 x67.998292 y207.387604
g1 x68.006212 y207.397159
g1 x68.015459 y207.405855
g1 x68.025109 y207.412861
g1 x68.03628 y207.419005
g1 x68.047784 y207.423566
g1 x68.059443 y207.426563
g1 x68.071543 y207.42809
g1 x68.083957 y207.42809
g1 x68.096057 y207.426563
g1 x68.107716 y207.423566
g1 x68.11922 y207.419005
g1 x68.130391 y207.412861
g1 x68.140041 y207.405855
g1 x68.149288 y207.397159
g1 x68.157208 y207.387604
g1 x68.163546 y207.377608
g1 x68.168872 y207.366284
g1 x68.172742 y207.354378
g1 x68.175256 y207.341214
g1 x68.175971 y207.330266
g1 x68.175243 y207.319106
g1 x68.1727 y207.305773
g1 x68.168872 y207.293996
g1 x68.163629 y207.282849
g1 x68.157083 y207.272535
g1 x68.149457 y207.263316
g1 x68.14047 y207.254891
g1 x68.129876 y207.24719
g1 x68.119516 y207.241484
g1 x68.108371 y207.237083
g1 x68.095708 y207.233827
g1 x68.083596 y207.23229
g1 x68.071904 y207.23229
g1 z-1.5 f150
g1 x68.059792 y207.233827 f350
g1 x68.047129 y207.237083
g1 x68.035984 y207.241484
g1 x68.025624 y207.24719
g1 x68.01503 y207.254891
g1 x68.006043 y207.263316
g1 x67.998417 y207.272535
g1 x67.991871 y207.282849
g1 x67.986628 y207.293996
g1 x67.9828 y207.305773
g1 x67.980257 y207.319106
g1 x67.979529 y207.330266
g1 x67.980244 y207.341214
g1 x67.982758 y207.354378
g1 x67.986628 y207.366284
g1 x67.991954 y207.377608
g1 x67.998292 y207.387604
g1 x68.006212 y207.397159
g1 x68.015459 y207.405855
g1 x68.025109 y207.412861
g1 x68.03628 y207.419005
g1 x68.047784 y207.423566
g1 x68.059443 y207.426563
g1 x68.071543 y207.42809
g1 x68.083957 y207.42809
g1 x68.096057 y207.426563
g1 x68.107716 y207.423566
g1 x68.11922 y207.419005
g1 x68.130391 y207.412861
g1 x68.140041 y207.405855
g1 x68.149288 y207.397159
g1 x68.157208 y207.387604
g1 x68.163546 y207.377608
g1 x68.168872 y207.366284
g1 x68.172742 y207.354378
g1 x68.175256 y207.341214
g1 x68.175971 y207.330266
g1 x68.175243 y207.319106
g1 x68.1727 y207.305773
g1 x68.168872 y207.293996
g1 x68.163629 y207.282849
g1 x68.157083 y207.272535
g1 x68.149457 y207.263316
g1 x68.14047 y207.254891
g1 x68.129876 y207.24719
g1 x68.119516 y207.241484
g1 x68.108371 y207.237083
g1 x68.095708 y207.233827
g1 x68.083596 y207.23229
g1 x68.071904 y207.23229
g1 z-2 f150
g1 x68.059792 y207.233827 f350
g1 x68.047129 y207.237083
g1 x68.035984 y207.241484
g1 x68.025624 y207.24719
g1 x68.01503 y207.254891
g1 x68.006043 y207.263316
g1 x67.998417 y207.272535
g1 x67.991871 y207.282849
g1 x67.986628 y207.293996
g1 x67.9828 y207.305773
g1 x67.980257 y207.319106
g1 x67.979529 y207.330266
g1 x67.980244 y207.341214
g1 x67.982758 y207.354378
g1 x67.986628 y207.366284
g1 x67.991954 y207.377608
g1 x67.998292 y207.387604
g1 x68.006212 y207.397159
g1 x68.015459 y207.405855
g1 x68.025109 y207.412861
g1 x68.03628 y207.419005
g1 x68.047784 y207.423566
g1 x68.059443 y207.426563
g1 x68.071543 y207.42809
g1 x68.083957 y207.42809
g1 x68.096057 y207.426563
g1 x68.107716 y207.423566
g1 x68.11922 y207.419005
g1 x68.130391 y207.412861
g1 x68.140041 y207.405855
g1 x68.149288 y207.397159
g1 x68.157208 y207.387604
g1 x68.163546 y207.377608
g1 x68.168872 y207.366284
g1 x68.172742 y207.354378
g1 x68.175256 y207.341214
g1 x68.175971 y207.330266
g1 x68.175243 y207.319106
g1 x68.1727 y207.305773
g1 x68.168872 y207.293996
g1 x68.163629 y207.282849
g1 x68.157083 y207.272535
g1 x68.149457 y207.263316
g1 x68.14047 y207.254891
g1 x68.129876 y207.24719
g1 x68.119516 y207.241484
g1 x68.108371 y207.237083
g1 x68.095708 y207.233827
g1 x68.083596 y207.23229
g1 x68.071904 y207.23229
g1 z-2.5 f150
g1 x68.059792 y207.233827 f350
g1 x68.047129 y207.237083
g1 x68.035984 y207.241484
g1 x68.025624 y207.24719
g1 x68.01503 y207.254891
g1 x68.006043 y207.263316
g1 x67.998417 y207.272535
g1 x67.991871 y207.282849
g1 x67.986628 y207.293996
g1 x67.9828 y207.305773
g1 x67.980257 y207.319106
g1 x67.979529 y207.330266
g1 x67.980244 y207.341214
g1 x67.982758 y207.354378
g1 x67.986628 y207.366284
g1 x67.991954 y207.377608
g1 x67.998292 y207.387604
g1 x68.006212 y207.397159
g1 x68.015459 y207.405855
g1 x68.025109 y207.412861
g1 x68.03628 y207.419005
g1 x68.047784 y207.423566
g1 x68.059443 y207.426563
g1 x68.071543 y207.42809
g1 x68.083957 y207.42809
g1 x68.096057 y207.426563
g1 x68.107716 y207.423566
g1 x68.11922 y207.419005
g1 x68.130391 y207.412861
g1 x68.140041 y207.405855
g1 x68.149288 y207.397159
g1 x68.157208 y207.387604
g1 x68.163546 y207.377608
g1 x68.168872 y207.366284
g1 x68.172742 y207.354378
g1 x68.175256 y207.341214
g1 x68.175971 y207.330266
g1 x68.175243 y207.319106
g1 x68.1727 y207.305773
g1 x68.168872 y207.293996
g1 x68.163629 y207.282849
g1 x68.157083 y207.272535
g1 x68.149457 y207.263316
g1 x68.14047 y207.254891
g1 x68.129876 y207.24719
g1 x68.119516 y207.241484
g1 x68.108371 y207.237083
g1 x68.095708 y207.233827
g1 x68.083596 y207.23229
g1 x68.071904 y207.23229
g1 z-3 f150
g1 x68.059792 y207.233827 f350
g1 x68.047129 y207.237083
g1 x68.035984 y207.241484
g1 x68.025624 y207.24719
g1 x68.01503 y207.254891
g1 x68.006043 y207.263316
g1 x67.998417 y207.272535
g1 x67.991871 y207.282849
g1 x67.986628 y207.293996
g1 x67.9828 y207.305773
g1 x67.980257 y207.319106
g1 x67.979529 y207.330266
g1 x67.980244 y207.341214
g1 x67.982758 y207.354378
g1 x67.986628 y207.366284
g1 x67.991954 y207.377608
g1 x67.998292 y207.387604
g1 x68.006212 y207.397159
g1 x68.015459 y207.405855
g1 x68.025109 y207.412861
g1 x68.03628 y207.419005
g1 x68.047784 y207.423566
g1 x68.059443 y207.426563
g1 x68.071543 y207.42809
g1 x68.083957 y207.42809
g1 x68.096057 y207.426563
g1 x68.107716 y207.423566
g1 x68.11922 y207.419005
g1 x68.130391 y207.412861
g1 x68.140041 y207.405855
g1 x68.149288 y207.397159
g1 x68.157208 y207.387604
g1 x68.163546 y207.377608
g1 x68.168872 y207.366284
g1 x68.172742 y207.354378
g1 x68.175256 y207.341214
g1 x68.175971 y207.330266
g1 x68.175243 y207.319106
g1 x68.1727 y207.305773
g1 x68.168872 y207.293996
g1 x68.163629 y207.282849
g1 x68.157083 y207.272535
g1 x68.149457 y207.263316
g1 x68.14047 y207.254891
g1 x68.129876 y207.24719
g1 x68.119516 y207.241484
g1 x68.108371 y207.237083
g1 x68.095708 y207.233827
g1 x68.083596 y207.23229
g1 x68.071904 y207.23229
g0 z5
(Block-name: path4)
(Block-expand: 0)
(Block-enable: 0)

(End cutting path id: path4)


(Start cutting path id: path4)
(Change tool to Default tool)

G0 Z5
G0 X67.9522 Y200.83409

G1 Z-0.125 F100
G1 X67.703 Y200.86559 Z-0.125 F400
G1 X67.4597 Y200.92799 Z-0.125
G1 X67.2262 Y201.02049 Z-0.125
G1 X67.0061 Y201.14149 Z-0.125
G1 X66.8029 Y201.28909 Z-0.125
G1 X66.6198 Y201.46109 Z-0.125
G1 X66.4597 Y201.65459 Z-0.125
G1 X66.3251 Y201.86659 Z-0.125
G1 X66.2182 Y202.09389 Z-0.125
G1 X66.1406 Y202.33279 Z-0.125
G1 X66.0935 Y202.57949 Z-0.125
G1 X66.0777 Y202.83019 Z-0.125
G1 X66.0935 Y203.08079 Z-0.125
G1 X66.1406 Y203.32749 Z-0.125
G1 X66.2182 Y203.56639 Z-0.125
G1 X66.3251 Y203.79369 Z-0.125
G1 X66.4597 Y204.00569 Z-0.125
G1 X66.6198 Y204.19919 Z-0.125
G1 X66.8029 Y204.37119 Z-0.125
G1 X67.0061 Y204.51879 Z-0.125
G1 X67.2262 Y204.63979 Z-0.125
G1 X67.4597 Y204.73219 Z-0.125
G1 X67.703 Y204.79469 Z-0.125
G1 X67.9522 Y204.82619 Z-0.125
G1 X68.2033 Y204.82619 Z-0.125
G1 X68.4525 Y204.79469 Z-0.125
G1 X68.6958 Y204.73219 Z-0.125
G1 X68.9293 Y204.63979 Z-0.125
G1 X69.1494 Y204.51879 Z-0.125
G1 X69.3526 Y204.37119 Z-0.125
G1 X69.5357 Y204.19919 Z-0.125
G1 X69.6958 Y204.00569 Z-0.125
G1 X69.8304 Y203.79369 Z-0.125
G1 X69.9373 Y203.56639 Z-0.125
G1 X70.0149 Y203.32749 Z-0.125
G1 X70.062 Y203.08079 Z-0.125
G1 X70.0777 Y202.83019 Z-0.125
G1 X70.062 Y202.57949 Z-0.125
G1 X70.0149 Y202.33279 Z-0.125
G1 X69.9373 Y202.09389 Z-0.125
G1 X69.8304 Y201.86659 Z-0.125
G1 X69.6958 Y201.65459 Z-0.125
G1 X69.5357 Y201.46109 Z-0.125
G1 X69.3526 Y201.28909 Z-0.125
G1 X69.1494 Y201.14149 Z-0.125
G1 X68.9293 Y201.02049 Z-0.125
G1 X68.6958 Y200.92799 Z-0.125
G1 X68.4525 Y200.86559 Z-0.125
G1 X68.2033 Y200.83409 Z-0.125
G1 X67.9522 Y200.83409 Z-0.125
G0 Z5
(Block-name: path4 [in,cut])
(Block-expand: 0)
(Block-enable: 1)
g0 x68.015152 y201.83409
g1 z-0.5 f150
g1 x67.890656 y201.849827 f350
g1 x67.769296 y201.880953
g1 x67.652902 y201.927061
g1 x67.542937 y201.987514
g1 x67.441613 y202.061114
g1 x67.350238 y202.14695
g1 x67.270232 y202.243646
g1 x67.203153 y202.349298
g1 x67.149867 y202.4626
g1 x67.111083 y202.582002
g1 x67.087561 y202.705202
g1 x67.079685 y202.830177
g1 x67.087559 y202.955066
g1 x67.111083 y203.078278
g1 x67.149867 y203.19768
g1 x67.203153 y203.310982
g1 x67.270232 y203.416634
g1 x67.350238 y203.51333
g1 x67.441613 y203.599166
g1 x67.542937 y203.672766
g1 x67.652739 y203.733129
g1 x67.769296 y203.779253
g1 x67.890848 y203.810477
g1 x68.015152 y203.82619
g1 x68.140348 y203.82619
g1 x68.264652 y203.810477
g1 x68.386204 y203.779253
g1 x68.502761 y203.733129
g1 x68.612563 y203.672766
g1 x68.713887 y203.599166
g1 x68.805262 y203.51333
g1 x68.885268 y203.416634
g1 x68.952347 y203.310982
g1 x69.005633 y203.19768
g1 x69.044417 y203.078278
g1 x69.067904 y202.955262
g1 x69.07574 y202.830178
g1 x69.067901 y202.705006
g1 x69.044417 y202.582002
g1 x69.005633 y202.4626
g1 x68.952347 y202.349298
g1 x68.885268 y202.243646
g1 x68.805262 y202.14695
g1 x68.713887 y202.061114
g1 x68.612563 y201.987514
g1 x68.502598 y201.927061
g1 x68.386204 y201.880953
g1 x68.264844 y201.849827
g1 x68.140348 y201.83409
g1 x68.015152 y201.83409
g1 z-1 f150
g1 x67.890656 y201.849827 f350
g1 x67.769296 y201.880953
g1 x67.652902 y201.927061
g1 x67.542937 y201.987514
g1 x67.441613 y202.061114
g1 x67.350238 y202.14695
g1 x67.270232 y202.243646
g1 x67.203153 y202.349298
g1 x67.149867 y202.4626
g1 x67.111083 y202.582002
g1 x67.087561 y202.705202
g1 x67.079685 y202.830177
g1 x67.087559 y202.955066
g1 x67.111083 y203.078278
g1 x67.149867 y203.19768
g1 x67.203153 y203.310982
g1 x67.270232 y203.416634
g1 x67.350238 y203.51333
g1 x67.441613 y203.599166
g1 x67.542937 y203.672766
g1 x67.652739 y203.733129
g1 x67.769296 y203.779253
g1 x67.890848 y203.810477
g1 x68.015152 y203.82619
g1 x68.140348 y203.82619
g1 x68.264652 y203.810477
g1 x68.386204 y203.779253
g1 x68.502761 y203.733129
g1 x68.612563 y203.672766
g1 x68.713887 y203.599166
g1 x68.805262 y203.51333
g1 x68.885268 y203.416634
g1 x68.952347 y203.310982
g1 x69.005633 y203.19768
g1 x69.044417 y203.078278
g1 x69.067904 y202.955262
g1 x69.07574 y202.830178
g1 x69.067901 y202.705006
g1 x69.044417 y202.582002
g1 x69.005633 y202.4626
g1 x68.952347 y202.349298
g1 x68.885268 y202.243646
g1 x68.805262 y202.14695
g1 x68.713887 y202.061114
g1 x68.612563 y201.987514
g1 x68.502598 y201.927061
g1 x68.386204 y201.880953
g1 x68.264844 y201.849827
g1 x68.140348 y201.83409
g1 x68.015152 y201.83409
g1 z-1.5 f150
g1 x67.890656 y201.849827 f350
g1 x67.769296 y201.880953
g1 x67.652902 y201.927061
g1 x67.542937 y201.987514
g1 x67.441613 y202.061114
g1 x67.350238 y202.14695
g1 x67.270232 y202.243646
g1 x67.203153 y202.349298
g1 x67.149867 y202.4626
g1 x67.111083 y202.582002
g1 x67.087561 y202.705202
g1 x67.079685 y202.830177
g1 x67.087559 y202.955066
g1 x67.111083 y203.078278
g1 x67.149867 y203.19768
g1 x67.203153 y203.310982
g1 x67.270232 y203.416634
g1 x67.350238 y203.51333
g1 x67.441613 y203.599166
g1 x67.542937 y203.672766
g1 x67.652739 y203.733129
g1 x67.769296 y203.779253
g1 x67.890848 y203.810477
g1 x68.015152 y203.82619
g1 x68.140348 y203.82619
g1 x68.264652 y203.810477
g1 x68.386204 y203.779253
g1 x68.502761 y203.733129
g1 x68.612563 y203.672766
g1 x68.713887 y203.599166
g1 x68.805262 y203.51333
g1 x68.885268 y203.416634
g1 x68.952347 y203.310982
g1 x69.005633 y203.19768
g1 x69.044417 y203.078278
g1 x69.067904 y202.955262
g1 x69.07574 y202.830178
g1 x69.067901 y202.705006
g1 x69.044417 y202.582002
g1 x69.005633 y202.4626
g1 x68.952347 y202.349298
g1 x68.885268 y202.243646
g1 x68.805262 y202.14695
g1 x68.713887 y202.061114
g1 x68.612563 y201.987514
g1 x68.502598 y201.927061
g1 x68.386204 y201.880953
g1 x68.264844 y201.849827
g1 x68.140348 y201.83409
g1 x68.015152 y201.83409
g1 z-2 f150
g1 x67.890656 y201.849827 f350
g1 x67.769296 y201.880953
g1 x67.652902 y201.927061
g1 x67.542937 y201.987514
g1 x67.441613 y202.061114
g1 x67.350238 y202.14695
g1 x67.270232 y202.243646
g1 x67.203153 y202.349298
g1 x67.149867 y202.4626
g1 x67.111083 y202.582002
g1 x67.087561 y202.705202
g1 x67.079685 y202.830177
g1 x67.087559 y202.955066
g1 x67.111083 y203.078278
g1 x67.149867 y203.19768
g1 x67.203153 y203.310982
g1 x67.270232 y203.416634
g1 x67.350238 y203.51333
g1 x67.441613 y203.599166
g1 x67.542937 y203.672766
g1 x67.652739 y203.733129
g1 x67.769296 y203.779253
g1 x67.890848 y203.810477
g1 x68.015152 y203.82619
g1 x68.140348 y203.82619
g1 x68.264652 y203.810477
g1 x68.386204 y203.779253
g1 x68.502761 y203.733129
g1 x68.612563 y203.672766
g1 x68.713887 y203.599166
g1 x68.805262 y203.51333
g1 x68.885268 y203.416634
g1 x68.952347 y203.310982
g1 x69.005633 y203.19768
g1 x69.044417 y203.078278
g1 x69.067904 y202.955262
g1 x69.07574 y202.830178
g1 x69.067901 y202.705006
g1 x69.044417 y202.582002
g1 x69.005633 y202.4626
g1 x68.952347 y202.349298
g1 x68.885268 y202.243646
g1 x68.805262 y202.14695
g1 x68.713887 y202.061114
g1 x68.612563 y201.987514
g1 x68.502598 y201.927061
g1 x68.386204 y201.880953
g1 x68.264844 y201.849827
g1 x68.140348 y201.83409
g1 x68.015152 y201.83409
g1 z-2.5 f150
g1 x67.890656 y201.849827 f350
g1 x67.769296 y201.880953
g1 x67.652902 y201.927061
g1 x67.542937 y201.987514
g1 x67.441613 y202.061114
g1 x67.350238 y202.14695
g1 x67.270232 y202.243646
g1 x67.203153 y202.349298
g1 x67.149867 y202.4626
g1 x67.111083 y202.582002
g1 x67.087561 y202.705202
g1 x67.079685 y202.830177
g1 x67.087559 y202.955066
g1 x67.111083 y203.078278
g1 x67.149867 y203.19768
g1 x67.203153 y203.310982
g1 x67.270232 y203.416634
g1 x67.350238 y203.51333
g1 x67.441613 y203.599166
g1 x67.542937 y203.672766
g1 x67.652739 y203.733129
g1 x67.769296 y203.779253
g1 x67.890848 y203.810477
g1 x68.015152 y203.82619
g1 x68.140348 y203.82619
g1 x68.264652 y203.810477
g1 x68.386204 y203.779253
g1 x68.502761 y203.733129
g1 x68.612563 y203.672766
g1 x68.713887 y203.599166
g1 x68.805262 y203.51333
g1 x68.885268 y203.416634
g1 x68.952347 y203.310982
g1 x69.005633 y203.19768
g1 x69.044417 y203.078278
g1 x69.067904 y202.955262
g1 x69.07574 y202.830178
g1 x69.067901 y202.705006
g1 x69.044417 y202.582002
g1 x69.005633 y202.4626
g1 x68.952347 y202.349298
g1 x68.885268 y202.243646
g1 x68.805262 y202.14695
g1 x68.713887 y202.061114
g1 x68.612563 y201.987514
g1 x68.502598 y201.927061
g1 x68.386204 y201.880953
g1 x68.264844 y201.849827
g1 x68.140348 y201.83409
g1 x68.015152 y201.83409
g1 z-3 f150
g1 x67.890656 y201.849827 f350
g1 x67.769296 y201.880953
g1 x67.652902 y201.927061
g1 x67.542937 y201.987514
g1 x67.441613 y202.061114
g1 x67.350238 y202.14695
g1 x67.270232 y202.243646
g1 x67.203153 y202.349298
g1 x67.149867 y202.4626
g1 x67.111083 y202.582002
g1 x67.087561 y202.705202
g1 x67.079685 y202.830177
g1 x67.087559 y202.955066
g1 x67.111083 y203.078278
g1 x67.149867 y203.19768
g1 x67.203153 y203.310982
g1 x67.270232 y203.416634
g1 x67.350238 y203.51333
g1 x67.441613 y203.599166
g1 x67.542937 y203.672766
g1 x67.652739 y203.733129
g1 x67.769296 y203.779253
g1 x67.890848 y203.810477
g1 x68.015152 y203.82619
g1 x68.140348 y203.82619
g1 x68.264652 y203.810477
g1 x68.386204 y203.779253
g1 x68.502761 y203.733129
g1 x68.612563 y203.672766
g1 x68.713887 y203.599166
g1 x68.805262 y203.51333
g1 x68.885268 y203.416634
g1 x68.952347 y203.310982
g1 x69.005633 y203.19768
g1 x69.044417 y203.078278
g1 x69.067904 y202.955262
g1 x69.07574 y202.830178
g1 x69.067901 y202.705006
g1 x69.044417 y202.582002
g1 x69.005633 y202.4626
g1 x68.952347 y202.349298
g1 x68.885268 y202.243646
g1 x68.805262 y202.14695
g1 x68.713887 y202.061114
g1 x68.612563 y201.987514
g1 x68.502598 y201.927061
g1 x68.386204 y201.880953
g1 x68.264844 y201.849827
g1 x68.140348 y201.83409
g1 x68.015152 y201.83409
g0 z5
(Block-name: path4)
(Block-expand: 0)
(Block-enable: 0)

(End cutting path id: path4)


(Start cutting path id: path4)
(Change tool to Default tool)

G0 Z5
G0 X68.0087 Y197.23229

G1 Z-0.125 F100
G1 X67.8716 Y197.24969 Z-0.125 F400
G1 X67.7378 Y197.28409 Z-0.125
G1 X67.6094 Y197.33479 Z-0.125
G1 X67.4883 Y197.40149 Z-0.125
G1 X67.3766 Y197.48269 Z-0.125
G1 X67.2759 Y197.57709 Z-0.125
G1 X67.1878 Y197.68359 Z-0.125
G1 X67.1138 Y197.80019 Z-0.125
G1 X67.055 Y197.92529 Z-0.125
G1 X67.0123 Y198.05659 Z-0.125
G1 X66.9864 Y198.19239 Z-0.125
G1 X66.9774 Y198.33019 Z-0.125
G1 X66.9864 Y198.46809 Z-0.125
G1 X67.0123 Y198.60369 Z-0.125
G1 X67.055 Y198.73509 Z-0.125
G1 X67.1138 Y198.86019 Z-0.125
G1 X67.1878 Y198.97679 Z-0.125
G1 X67.2759 Y199.08309 Z-0.125
G1 X67.3766 Y199.17779 Z-0.125
G1 X67.4883 Y199.25889 Z-0.125
G1 X67.6094 Y199.32549 Z-0.125
G1 X67.7378 Y199.37639 Z-0.125
G1 X67.8716 Y199.41079 Z-0.125
G1 X68.0087 Y199.42809 Z-0.125
G1 X68.1468 Y199.42809 Z-0.125
G1 X68.2839 Y199.41079 Z-0.125
G1 X68.4177 Y199.37639 Z-0.125
G1 X68.5461 Y199.32549 Z-0.125
G1 X68.6672 Y199.25889 Z-0.125
G1 X68.7789 Y199.17779 Z-0.125
G1 X68.8796 Y199.08309 Z-0.125
G1 X68.9677 Y198.97679 Z-0.125
G1 X69.0417 Y198.86019 Z-0.125
G1 X69.1005 Y198.73509 Z-0.125
G1 X69.1432 Y198.60369 Z-0.125
G1 X69.1691 Y198.46809 Z-0.125
G1 X69.1781 Y198.33019 Z-0.125
G1 X69.1691 Y198.19239 Z-0.125
G1 X69.1432 Y198.05659 Z-0.125
G1 X69.1005 Y197.92529 Z-0.125
G1 X69.0417 Y197.80019 Z-0.125
G1 X68.9677 Y197.68359 Z-0.125
G1 X68.8796 Y197.57709 Z-0.125
G1 X68.7789 Y197.48269 Z-0.125
G1 X68.6672 Y197.40149 Z-0.125
G1 X68.5461 Y197.33479 Z-0.125
G1 X68.4177 Y197.28409 Z-0.125
G1 X68.2839 Y197.24969 Z-0.125
G1 X68.1468 Y197.23229 Z-0.125
G1 X68.0087 Y197.23229 Z-0.125
G0 Z5
(Block-name: path4 [in,cut])
(Block-expand: 0)
(Block-enable: 1)
g0 x68.071904 y198.23229
g1 z-0.5 f150
g1 x68.059792 y198.233827 f350
g1 x68.047129 y198.237083
g1 x68.035984 y198.241484
g1 x68.025624 y198.24719
g1 x68.01503 y198.254891
g1 x68.006043 y198.263316
g1 x67.998417 y198.272535
g1 x67.991954 y198.282718
g1 x67.986627 y198.29405
g1 x67.982779 y198.305883
g1 x67.980253 y198.31913
g1 x67.979529 y198.330214
g1 x67.980249 y198.341238
g1 x67.982758 y198.354378
g1 x67.986675 y198.366431
g1 x67.991954 y198.377662
g1 x67.998168 y198.387454
g1 x68.006212 y198.397159
g1 x68.015459 y198.405855
g1 x68.025109 y198.412861
g1 x68.03628 y198.419005
g1 x68.047784 y198.423566
g1 x68.059443 y198.426563
g1 x68.071543 y198.42809
g1 x68.083957 y198.42809
g1 x68.096057 y198.426563
g1 x68.107716 y198.423566
g1 x68.11922 y198.419005
g1 x68.130391 y198.412861
g1 x68.140041 y198.405855
g1 x68.149288 y198.397159
g1 x68.157332 y198.387454
g1 x68.163546 y198.377662
g1 x68.168825 y198.366431
g1 x68.172742 y198.354378
g1 x68.175251 y198.341238
g1 x68.175971 y198.330214
g1 x68.175247 y198.31913
g1 x68.172721 y198.305883
g1 x68.168873 y198.29405
g1 x68.163546 y198.282718
g1 x68.157083 y198.272535
g1 x68.149457 y198.263316
g1 x68.14047 y198.254891
g1 x68.129876 y198.24719
g1 x68.119516 y198.241484
g1 x68.108371 y198.237083
g1 x68.095708 y198.233827
g1 x68.083596 y198.23229
g1 x68.071904 y198.23229
g1 z-1 f150
g1 x68.059792 y198.233827 f350
g1 x68.047129 y198.237083
g1 x68.035984 y198.241484
g1 x68.025624 y198.24719
g1 x68.01503 y198.254891
g1 x68.006043 y198.263316
g1 x67.998417 y198.272535
g1 x67.991954 y198.282718
g1 x67.986627 y198.29405
g1 x67.982779 y198.305883
g1 x67.980253 y198.31913
g1 x67.979529 y198.330214
g1 x67.980249 y198.341238
g1 x67.982758 y198.354378
g1 x67.986675 y198.366431
g1 x67.991954 y198.377662
g1 x67.998168 y198.387454
g1 x68.006212 y198.397159
g1 x68.015459 y198.405855
g1 x68.025109 y198.412861
g1 x68.03628 y198.419005
g1 x68.047784 y198.423566
g1 x68.059443 y198.426563
g1 x68.071543 y198.42809
g1 x68.083957 y198.42809
g1 x68.096057 y198.426563
g1 x68.107716 y198.423566
g1 x68.11922 y198.419005
g1 x68.130391 y198.412861
g1 x68.140041 y198.405855
g1 x68.149288 y198.397159
g1 x68.157332 y198.387454
g1 x68.163546 y198.377662
g1 x68.168825 y198.366431
g1 x68.172742 y198.354378
g1 x68.175251 y198.341238
g1 x68.175971 y198.330214
g1 x68.175247 y198.31913
g1 x68.172721 y198.305883
g1 x68.168873 y198.29405
g1 x68.163546 y198.282718
g1 x68.157083 y198.272535
g1 x68.149457 y198.263316
g1 x68.14047 y198.254891
g1 x68.129876 y198.24719
g1 x68.119516 y198.241484
g1 x68.108371 y198.237083
g1 x68.095708 y198.233827
g1 x68.083596 y198.23229
g1 x68.071904 y198.23229
g1 z-1.5 f150
g1 x68.059792 y198.233827 f350
g1 x68.047129 y198.237083
g1 x68.035984 y198.241484
g1 x68.025624 y198.24719
g1 x68.01503 y198.254891
g1 x68.006043 y198.263316
g1 x67.998417 y198.272535
g1 x67.991954 y198.282718
g1 x67.986627 y198.29405
g1 x67.982779 y198.305883
g1 x67.980253 y198.31913
g1 x67.979529 y198.330214
g1 x67.980249 y198.341238
g1 x67.982758 y198.354378
g1 x67.986675 y198.366431
g1 x67.991954 y198.377662
g1 x67.998168 y198.387454
g1 x68.006212 y198.397159
g1 x68.015459 y198.405855
g1 x68.025109 y198.412861
g1 x68.03628 y198.419005
g1 x68.047784 y198.423566
g1 x68.059443 y198.426563
g1 x68.071543 y198.42809
g1 x68.083957 y198.42809
g1 x68.096057 y198.426563
g1 x68.107716 y198.423566
g1 x68.11922 y198.419005
g1 x68.130391 y198.412861
g1 x68.140041 y198.405855
g1 x68.149288 y198.397159
g1 x68.157332 y198.387454
g1 x68.163546 y198.377662
g1 x68.168825 y198.366431
g1 x68.172742 y198.354378
g1 x68.175251 y198.341238
g1 x68.175971 y198.330214
g1 x68.175247 y198.31913
g1 x68.172721 y198.305883
g1 x68.168873 y198.29405
g1 x68.163546 y198.282718
g1 x68.157083 y198.272535
g1 x68.149457 y198.263316
g1 x68.14047 y198.254891
g1 x68.129876 y198.24719
g1 x68.119516 y198.241484
g1 x68.108371 y198.237083
g1 x68.095708 y198.233827
g1 x68.083596 y198.23229
g1 x68.071904 y198.23229
g1 z-2 f150
g1 x68.059792 y198.233827 f350
g1 x68.047129 y198.237083
g1 x68.035984 y198.241484
g1 x68.025624 y198.24719
g1 x68.01503 y198.254891
g1 x68.006043 y198.263316
g1 x67.998417 y198.272535
g1 x67.991954 y198.282718
g1 x67.986627 y198.29405
g1 x67.982779 y198.305883
g1 x67.980253 y198.31913
g1 x67.979529 y198.330214
g1 x67.980249 y198.341238
g1 x67.982758 y198.354378
g1 x67.986675 y198.366431
g1 x67.991954 y198.377662
g1 x67.998168 y198.387454
g1 x68.006212 y198.397159
g1 x68.015459 y198.405855
g1 x68.025109 y198.412861
g1 x68.03628 y198.419005
g1 x68.047784 y198.423566
g1 x68.059443 y198.426563
g1 x68.071543 y198.42809
g1 x68.083957 y198.42809
g1 x68.096057 y198.426563
g1 x68.107716 y198.423566
g1 x68.11922 y198.419005
g1 x68.130391 y198.412861
g1 x68.140041 y198.405855
g1 x68.149288 y198.397159
g1 x68.157332 y198.387454
g1 x68.163546 y198.377662
g1 x68.168825 y198.366431
g1 x68.172742 y198.354378
g1 x68.175251 y198.341238
g1 x68.175971 y198.330214
g1 x68.175247 y198.31913
g1 x68.172721 y198.305883
g1 x68.168873 y198.29405
g1 x68.163546 y198.282718
g1 x68.157083 y198.272535
g1 x68.149457 y198.263316
g1 x68.14047 y198.254891
g1 x68.129876 y198.24719
g1 x68.119516 y198.241484
g1 x68.108371 y198.237083
g1 x68.095708 y198.233827
g1 x68.083596 y198.23229
g1 x68.071904 y198.23229
g1 z-2.5 f150
g1 x68.059792 y198.233827 f350
g1 x68.047129 y198.237083
g1 x68.035984 y198.241484
g1 x68.025624 y198.24719
g1 x68.01503 y198.254891
g1 x68.006043 y198.263316
g1 x67.998417 y198.272535
g1 x67.991954 y198.282718
g1 x67.986627 y198.29405
g1 x67.982779 y198.305883
g1 x67.980253 y198.31913
g1 x67.979529 y198.330214
g1 x67.980249 y198.341238
g1 x67.982758 y198.354378
g1 x67.986675 y198.366431
g1 x67.991954 y198.377662
g1 x67.998168 y198.387454
g1 x68.006212 y198.397159
g1 x68.015459 y198.405855
g1 x68.025109 y198.412861
g1 x68.03628 y198.419005
g1 x68.047784 y198.423566
g1 x68.059443 y198.426563
g1 x68.071543 y198.42809
g1 x68.083957 y198.42809
g1 x68.096057 y198.426563
g1 x68.107716 y198.423566
g1 x68.11922 y198.419005
g1 x68.130391 y198.412861
g1 x68.140041 y198.405855
g1 x68.149288 y198.397159
g1 x68.157332 y198.387454
g1 x68.163546 y198.377662
g1 x68.168825 y198.366431
g1 x68.172742 y198.354378
g1 x68.175251 y198.341238
g1 x68.175971 y198.330214
g1 x68.175247 y198.31913
g1 x68.172721 y198.305883
g1 x68.168873 y198.29405
g1 x68.163546 y198.282718
g1 x68.157083 y198.272535
g1 x68.149457 y198.263316
g1 x68.14047 y198.254891
g1 x68.129876 y198.24719
g1 x68.119516 y198.241484
g1 x68.108371 y198.237083
g1 x68.095708 y198.233827
g1 x68.083596 y198.23229
g1 x68.071904 y198.23229
g1 z-3 f150
g1 x68.059792 y198.233827 f350
g1 x68.047129 y198.237083
g1 x68.035984 y198.241484
g1 x68.025624 y198.24719
g1 x68.01503 y198.254891
g1 x68.006043 y198.263316
g1 x67.998417 y198.272535
g1 x67.991954 y198.282718
g1 x67.986627 y198.29405
g1 x67.982779 y198.305883
g1 x67.980253 y198.31913
g1 x67.979529 y198.330214
g1 x67.980249 y198.341238
g1 x67.982758 y198.354378
g1 x67.986675 y198.366431
g1 x67.991954 y198.377662
g1 x67.998168 y198.387454
g1 x68.006212 y198.397159
g1 x68.015459 y198.405855
g1 x68.025109 y198.412861
g1 x68.03628 y198.419005
g1 x68.047784 y198.423566
g1 x68.059443 y198.426563
g1 x68.071543 y198.42809
g1 x68.083957 y198.42809
g1 x68.096057 y198.426563
g1 x68.107716 y198.423566
g1 x68.11922 y198.419005
g1 x68.130391 y198.412861
g1 x68.140041 y198.405855
g1 x68.149288 y198.397159
g1 x68.157332 y198.387454
g1 x68.163546 y198.377662
g1 x68.168825 y198.366431
g1 x68.172742 y198.354378
g1 x68.175251 y198.341238
g1 x68.175971 y198.330214
g1 x68.175247 y198.31913
g1 x68.172721 y198.305883
g1 x68.168873 y198.29405
g1 x68.163546 y198.282718
g1 x68.157083 y198.272535
g1 x68.149457 y198.263316
g1 x68.14047 y198.254891
g1 x68.129876 y198.24719
g1 x68.119516 y198.241484
g1 x68.108371 y198.237083
g1 x68.095708 y198.233827
g1 x68.083596 y198.23229
g1 x68.071904 y198.23229
g0 z5
(Block-name: path4)
(Block-expand: 0)
(Block-enable: 0)

(End cutting path id: path4)


(Start cutting path id: path4)
(Change tool to Default tool)

G0 Z5
G0 X72.5087 Y201.73229

G1 Z-0.125 F100
G1 X72.3716 Y201.74959 Z-0.125 F400
G1 X72.2378 Y201.78399 Z-0.125
G1 X72.1094 Y201.83479 Z-0.125
G1 X71.9883 Y201.90139 Z-0.125
G1 X71.8766 Y201.98259 Z-0.125
G1 X71.7759 Y202.07709 Z-0.125
G1 X71.6878 Y202.18359 Z-0.125
G1 X71.6138 Y202.30019 Z-0.125
G1 X71.555 Y202.42519 Z-0.125
G1 X71.5123 Y202.55659 Z-0.125
G1 X71.4864 Y202.69229 Z-0.125
G1 X71.4774 Y202.83019 Z-0.125
G1 X71.4864 Y202.96799 Z-0.125
G1 X71.5123 Y203.10369 Z-0.125
G1 X71.555 Y203.23509 Z-0.125
G1 X71.6138 Y203.36009 Z-0.125
G1 X71.6878 Y203.47669 Z-0.125
G1 X71.7759 Y203.58309 Z-0.125
G1 X71.8766 Y203.67769 Z-0.125
G1 X71.9883 Y203.75889 Z-0.125
G1 X72.1094 Y203.82549 Z-0.125
G1 X72.2378 Y203.87629 Z-0.125
G1 X72.3716 Y203.91069 Z-0.125
G1 X72.5087 Y203.92799 Z-0.125
G1 X72.6468 Y203.92799 Z-0.125
G1 X72.7839 Y203.91069 Z-0.125
G1 X72.9177 Y203.87629 Z-0.125
G1 X73.0461 Y203.82549 Z-0.125
G1 X73.1672 Y203.75889 Z-0.125
G1 X73.2789 Y203.67769 Z-0.125
G1 X73.3796 Y203.58309 Z-0.125
G1 X73.4677 Y203.47669 Z-0.125
G1 X73.5417 Y203.36009 Z-0.125
G1 X73.6005 Y203.23509 Z-0.125
G1 X73.6432 Y203.10369 Z-0.125
G1 X73.6691 Y202.96799 Z-0.125
G1 X73.6781 Y202.83019 Z-0.125
G1 X73.6691 Y202.69229 Z-0.125
G1 X73.6432 Y202.55659 Z-0.125
G1 X73.6005 Y202.42519 Z-0.125
G1 X73.5417 Y202.30019 Z-0.125
G1 X73.4677 Y202.18359 Z-0.125
G1 X73.3796 Y202.07709 Z-0.125
G1 X73.2789 Y201.98259 Z-0.125
G1 X73.1672 Y201.90139 Z-0.125
G1 X73.0461 Y201.83479 Z-0.125
G1 X72.9177 Y201.78399 Z-0.125
G1 X72.7839 Y201.74959 Z-0.125
G1 X72.6468 Y201.73229 Z-0.125
G1 X72.5087 Y201.73229 Z-0.125
G0 Z5
(Block-name: path4 [in,cut])
(Block-expand: 0)
(Block-enable: 1)
g0 x72.571543 y202.73229
g1 z-0.5 f150
g1 x72.559443 y202.733817 f350
g1 x72.547457 y202.736899
g1 x72.535984 y202.741438
g1 x72.525366 y202.747277
g1 x72.515245 y202.754635
g1 x72.506212 y202.763112
g1 x72.498417 y202.772535
g1 x72.491871 y202.782849
g1 x72.486628 y202.793996
g1 x72.482779 y202.805837
g1 x72.480253 y202.819074
g1 x72.479529 y202.830166
g1 x72.480249 y202.841182
g1 x72.482779 y202.854443
g1 x72.486628 y202.866284
g1 x72.491871 y202.877431
g1 x72.498293 y202.88755
g1 x72.506212 y202.897114
g1 x72.515459 y202.905801
g1 x72.525366 y202.913003
g1 x72.535984 y202.918842
g1 x72.547457 y202.923381
g1 x72.559443 y202.926463
g1 x72.571543 y202.92799
g1 x72.583957 y202.92799
g1 x72.596057 y202.926463
g1 x72.608043 y202.923381
g1 x72.619516 y202.918842
g1 x72.630134 y202.913003
g1 x72.640041 y202.905801
g1 x72.649288 y202.897114
g1 x72.657207 y202.88755
g1 x72.663629 y202.877431
g1 x72.668872 y202.866284
g1 x72.672721 y202.854443
g1 x72.675251 y202.841182
g1 x72.675971 y202.830166
g1 x72.675247 y202.819074
g1 x72.672721 y202.805837
g1 x72.668872 y202.793996
g1 x72.663629 y202.782849
g1 x72.657083 y202.772535
g1 x72.649288 y202.763112
g1 x72.640255 y202.754635
g1 x72.630134 y202.747277
g1 x72.619516 y202.741438
g1 x72.608043 y202.736899
g1 x72.596057 y202.733817
g1 x72.583957 y202.73229
g1 x72.571543 y202.73229
g1 z-1 f150
g1 x72.559443 y202.733817 f350
g1 x72.547457 y202.736899
g1 x72.535984 y202.741438
g1 x72.525366 y202.747277
g1 x72.515245 y202.754635
g1 x72.506212 y202.763112
g1 x72.498417 y202.772535
g1 x72.491871 y202.782849
g1 x72.486628 y202.793996
g1 x72.482779 y202.805837
g1 x72.480253 y202.819074
g1 x72.479529 y202.830166
g1 x72.480249 y202.841182
g1 x72.482779 y202.854443
g1 x72.486628 y202.866284
g1 x72.491871 y202.877431
g1 x72.498293 y202.88755
g1 x72.506212 y202.897114
g1 x72.515459 y202.905801
g1 x72.525366 y202.913003
g1 x72.535984 y202.918842
g1 x72.547457 y202.923381
g1 x72.559443 y202.926463
g1 x72.571543 y202.92799
g1 x72.583957 y202.92799
g1 x72.596057 y202.926463
g1 x72.608043 y202.923381
g1 x72.619516 y202.918842
g1 x72.630134 y202.913003
g1 x72.640041 y202.905801
g1 x72.649288 y202.897114
g1 x72.657207 y202.88755
g1 x72.663629 y202.877431
g1 x72.668872 y202.866284
g1 x72.672721 y202.854443
g1 x72.675251 y202.841182
g1 x72.675971 y202.830166
g1 x72.675247 y202.819074
g1 x72.672721 y202.805837
g1 x72.668872 y202.793996
g1 x72.663629 y202.782849
g1 x72.657083 y202.772535
g1 x72.649288 y202.763112
g1 x72.640255 y202.754635
g1 x72.630134 y202.747277
g1 x72.619516 y202.741438
g1 x72.608043 y202.736899
g1 x72.596057 y202.733817
g1 x72.583957 y202.73229
g1 x72.571543 y202.73229
g1 z-1.5 f150
g1 x72.559443 y202.733817 f350
g1 x72.547457 y202.736899
g1 x72.535984 y202.741438
g1 x72.525366 y202.747277
g1 x72.515245 y202.754635
g1 x72.506212 y202.763112
g1 x72.498417 y202.772535
g1 x72.491871 y202.782849
g1 x72.486628 y202.793996
g1 x72.482779 y202.805837
g1 x72.480253 y202.819074
g1 x72.479529 y202.830166
g1 x72.480249 y202.841182
g1 x72.482779 y202.854443
g1 x72.486628 y202.866284
g1 x72.491871 y202.877431
g1 x72.498293 y202.88755
g1 x72.506212 y202.897114
g1 x72.515459 y202.905801
g1 x72.525366 y202.913003
g1 x72.535984 y202.918842
g1 x72.547457 y202.923381
g1 x72.559443 y202.926463
g1 x72.571543 y202.92799
g1 x72.583957 y202.92799
g1 x72.596057 y202.926463
g1 x72.608043 y202.923381
g1 x72.619516 y202.918842
g1 x72.630134 y202.913003
g1 x72.640041 y202.905801
g1 x72.649288 y202.897114
g1 x72.657207 y202.88755
g1 x72.663629 y202.877431
g1 x72.668872 y202.866284
g1 x72.672721 y202.854443
g1 x72.675251 y202.841182
g1 x72.675971 y202.830166
g1 x72.675247 y202.819074
g1 x72.672721 y202.805837
g1 x72.668872 y202.793996
g1 x72.663629 y202.782849
g1 x72.657083 y202.772535
g1 x72.649288 y202.763112
g1 x72.640255 y202.754635
g1 x72.630134 y202.747277
g1 x72.619516 y202.741438
g1 x72.608043 y202.736899
g1 x72.596057 y202.733817
g1 x72.583957 y202.73229
g1 x72.571543 y202.73229
g1 z-2 f150
g1 x72.559443 y202.733817 f350
g1 x72.547457 y202.736899
g1 x72.535984 y202.741438
g1 x72.525366 y202.747277
g1 x72.515245 y202.754635
g1 x72.506212 y202.763112
g1 x72.498417 y202.772535
g1 x72.491871 y202.782849
g1 x72.486628 y202.793996
g1 x72.482779 y202.805837
g1 x72.480253 y202.819074
g1 x72.479529 y202.830166
g1 x72.480249 y202.841182
g1 x72.482779 y202.854443
g1 x72.486628 y202.866284
g1 x72.491871 y202.877431
g1 x72.498293 y202.88755
g1 x72.506212 y202.897114
g1 x72.515459 y202.905801
g1 x72.525366 y202.913003
g1 x72.535984 y202.918842
g1 x72.547457 y202.923381
g1 x72.559443 y202.926463
g1 x72.571543 y202.92799
g1 x72.583957 y202.92799
g1 x72.596057 y202.926463
g1 x72.608043 y202.923381
g1 x72.619516 y202.918842
g1 x72.630134 y202.913003
g1 x72.640041 y202.905801
g1 x72.649288 y202.897114
g1 x72.657207 y202.88755
g1 x72.663629 y202.877431
g1 x72.668872 y202.866284
g1 x72.672721 y202.854443
g1 x72.675251 y202.841182
g1 x72.675971 y202.830166
g1 x72.675247 y202.819074
g1 x72.672721 y202.805837
g1 x72.668872 y202.793996
g1 x72.663629 y202.782849
g1 x72.657083 y202.772535
g1 x72.649288 y202.763112
g1 x72.640255 y202.754635
g1 x72.630134 y202.747277
g1 x72.619516 y202.741438
g1 x72.608043 y202.736899
g1 x72.596057 y202.733817
g1 x72.583957 y202.73229
g1 x72.571543 y202.73229
g1 z-2.5 f150
g1 x72.559443 y202.733817 f350
g1 x72.547457 y202.736899
g1 x72.535984 y202.741438
g1 x72.525366 y202.747277
g1 x72.515245 y202.754635
g1 x72.506212 y202.763112
g1 x72.498417 y202.772535
g1 x72.491871 y202.782849
g1 x72.486628 y202.793996
g1 x72.482779 y202.805837
g1 x72.480253 y202.819074
g1 x72.479529 y202.830166
g1 x72.480249 y202.841182
g1 x72.482779 y202.854443
g1 x72.486628 y202.866284
g1 x72.491871 y202.877431
g1 x72.498293 y202.88755
g1 x72.506212 y202.897114
g1 x72.515459 y202.905801
g1 x72.525366 y202.913003
g1 x72.535984 y202.918842
g1 x72.547457 y202.923381
g1 x72.559443 y202.926463
g1 x72.571543 y202.92799
g1 x72.583957 y202.92799
g1 x72.596057 y202.926463
g1 x72.608043 y202.923381
g1 x72.619516 y202.918842
g1 x72.630134 y202.913003
g1 x72.640041 y202.905801
g1 x72.649288 y202.897114
g1 x72.657207 y202.88755
g1 x72.663629 y202.877431
g1 x72.668872 y202.866284
g1 x72.672721 y202.854443
g1 x72.675251 y202.841182
g1 x72.675971 y202.830166
g1 x72.675247 y202.819074
g1 x72.672721 y202.805837
g1 x72.668872 y202.793996
g1 x72.663629 y202.782849
g1 x72.657083 y202.772535
g1 x72.649288 y202.763112
g1 x72.640255 y202.754635
g1 x72.630134 y202.747277
g1 x72.619516 y202.741438
g1 x72.608043 y202.736899
g1 x72.596057 y202.733817
g1 x72.583957 y202.73229
g1 x72.571543 y202.73229
g1 z-3 f150
g1 x72.559443 y202.733817 f350
g1 x72.547457 y202.736899
g1 x72.535984 y202.741438
g1 x72.525366 y202.747277
g1 x72.515245 y202.754635
g1 x72.506212 y202.763112
g1 x72.498417 y202.772535
g1 x72.491871 y202.782849
g1 x72.486628 y202.793996
g1 x72.482779 y202.805837
g1 x72.480253 y202.819074
g1 x72.479529 y202.830166
g1 x72.480249 y202.841182
g1 x72.482779 y202.854443
g1 x72.486628 y202.866284
g1 x72.491871 y202.877431
g1 x72.498293 y202.88755
g1 x72.506212 y202.897114
g1 x72.515459 y202.905801
g1 x72.525366 y202.913003
g1 x72.535984 y202.918842
g1 x72.547457 y202.923381
g1 x72.559443 y202.926463
g1 x72.571543 y202.92799
g1 x72.583957 y202.92799
g1 x72.596057 y202.926463
g1 x72.608043 y202.923381
g1 x72.619516 y202.918842
g1 x72.630134 y202.913003
g1 x72.640041 y202.905801
g1 x72.649288 y202.897114
g1 x72.657207 y202.88755
g1 x72.663629 y202.877431
g1 x72.668872 y202.866284
g1 x72.672721 y202.854443
g1 x72.675251 y202.841182
g1 x72.675971 y202.830166
g1 x72.675247 y202.819074
g1 x72.672721 y202.805837
g1 x72.668872 y202.793996
g1 x72.663629 y202.782849
g1 x72.657083 y202.772535
g1 x72.649288 y202.763112
g1 x72.640255 y202.754635
g1 x72.630134 y202.747277
g1 x72.619516 y202.741438
g1 x72.608043 y202.736899
g1 x72.596057 y202.733817
g1 x72.583957 y202.73229
g1 x72.571543 y202.73229
g0 z5
(Block-name: path4)
(Block-expand: 0)
(Block-enable: 0)

(End cutting path id: path4)


(Start cutting path id: path4)
(Change tool to Default tool)

G0 Z5
G0 X63.5087 Y201.73229

G1 Z-0.125 F100
G1 X63.3716 Y201.74959 Z-0.125 F400
G1 X63.2378 Y201.78399 Z-0.125
G1 X63.1094 Y201.83479 Z-0.125
G1 X62.9883 Y201.90139 Z-0.125
G1 X62.8766 Y201.98259 Z-0.125
G1 X62.7759 Y202.07709 Z-0.125
G1 X62.6878 Y202.18359 Z-0.125
G1 X62.6138 Y202.30019 Z-0.125
G1 X62.555 Y202.42519 Z-0.125
G1 X62.5123 Y202.55659 Z-0.125
G1 X62.4864 Y202.69229 Z-0.125
G1 X62.4774 Y202.83019 Z-0.125
G1 X62.4864 Y202.96799 Z-0.125
G1 X62.5123 Y203.10369 Z-0.125
G1 X62.555 Y203.23509 Z-0.125
G1 X62.6138 Y203.36009 Z-0.125
G1 X62.6878 Y203.47669 Z-0.125
G1 X62.7759 Y203.58309 Z-0.125
G1 X62.8766 Y203.67769 Z-0.125
G1 X62.9883 Y203.75889 Z-0.125
G1 X63.1094 Y203.82549 Z-0.125
G1 X63.2378 Y203.87629 Z-0.125
G1 X63.3716 Y203.91069 Z-0.125
G1 X63.5087 Y203.92799 Z-0.125
G1 X63.6468 Y203.92799 Z-0.125
G1 X63.7839 Y203.91069 Z-0.125
G1 X63.9177 Y203.87629 Z-0.125
G1 X64.0461 Y203.82549 Z-0.125
G1 X64.1672 Y203.75889 Z-0.125
G1 X64.2789 Y203.67769 Z-0.125
G1 X64.3796 Y203.58309 Z-0.125
G1 X64.4677 Y203.47669 Z-0.125
G1 X64.5417 Y203.36009 Z-0.125
G1 X64.6005 Y203.23509 Z-0.125
G1 X64.6432 Y203.10369 Z-0.125
G1 X64.6691 Y202.96799 Z-0.125
G1 X64.6781 Y202.83019 Z-0.125
G1 X64.6691 Y202.69229 Z-0.125
G1 X64.6432 Y202.55659 Z-0.125
G1 X64.6005 Y202.42519 Z-0.125
G1 X64.5417 Y202.30019 Z-0.125
G1 X64.4677 Y202.18359 Z-0.125
G1 X64.3796 Y202.07709 Z-0.125
G1 X64.2789 Y201.98259 Z-0.125
G1 X64.1672 Y201.90139 Z-0.125
G1 X64.0461 Y201.83479 Z-0.125
G1 X63.9177 Y201.78399 Z-0.125
G1 X63.7839 Y201.74959 Z-0.125
G1 X63.6468 Y201.73229 Z-0.125
G1 X63.5087 Y201.73229 Z-0.125
G0 Z5
(Block-name: path4 [in,cut])
(Block-expand: 0)
(Block-enable: 1)
g0 x63.571543 y202.73229
g1 z-0.5 f150
g1 x63.559443 y202.733817 f350
g1 x63.547457 y202.736899
g1 x63.535984 y202.741438
g1 x63.525366 y202.747277
g1 x63.515245 y202.754635
g1 x63.506212 y202.763112
g1 x63.498417 y202.772535
g1 x63.491871 y202.782849
g1 x63.486628 y202.793996
g1 x63.482779 y202.805837
g1 x63.480253 y202.819074
g1 x63.479529 y202.830166
g1 x63.480249 y202.841182
g1 x63.482779 y202.854443
g1 x63.486628 y202.866284
g1 x63.491871 y202.877431
g1 x63.498293 y202.88755
g1 x63.506212 y202.897114
g1 x63.515459 y202.905801
g1 x63.525366 y202.913003
g1 x63.535984 y202.918842
g1 x63.547457 y202.923381
g1 x63.559443 y202.926463
g1 x63.571543 y202.92799
g1 x63.583957 y202.92799
g1 x63.596057 y202.926463
g1 x63.608043 y202.923381
g1 x63.619516 y202.918842
g1 x63.630134 y202.913003
g1 x63.640041 y202.905801
g1 x63.649288 y202.897114
g1 x63.657207 y202.88755
g1 x63.663629 y202.877431
g1 x63.668872 y202.866284
g1 x63.672721 y202.854443
g1 x63.675251 y202.841182
g1 x63.675971 y202.830166
g1 x63.675247 y202.819074
g1 x63.672721 y202.805837
g1 x63.668872 y202.793996
g1 x63.663629 y202.782849
g1 x63.657083 y202.772535
g1 x63.649288 y202.763112
g1 x63.640255 y202.754635
g1 x63.630134 y202.747277
g1 x63.619516 y202.741438
g1 x63.608043 y202.736899
g1 x63.596057 y202.733817
g1 x63.583957 y202.73229
g1 x63.571543 y202.73229
g1 z-1 f150
g1 x63.559443 y202.733817 f350
g1 x63.547457 y202.736899
g1 x63.535984 y202.741438
g1 x63.525366 y202.747277
g1 x63.515245 y202.754635
g1 x63.506212 y202.763112
g1 x63.498417 y202.772535
g1 x63.491871 y202.782849
g1 x63.486628 y202.793996
g1 x63.482779 y202.805837
g1 x63.480253 y202.819074
g1 x63.479529 y202.830166
g1 x63.480249 y202.841182
g1 x63.482779 y202.854443
g1 x63.486628 y202.866284
g1 x63.491871 y202.877431
g1 x63.498293 y202.88755
g1 x63.506212 y202.897114
g1 x63.515459 y202.905801
g1 x63.525366 y202.913003
g1 x63.535984 y202.918842
g1 x63.547457 y202.923381
g1 x63.559443 y202.926463
g1 x63.571543 y202.92799
g1 x63.583957 y202.92799
g1 x63.596057 y202.926463
g1 x63.608043 y202.923381
g1 x63.619516 y202.918842
g1 x63.630134 y202.913003
g1 x63.640041 y202.905801
g1 x63.649288 y202.897114
g1 x63.657207 y202.88755
g1 x63.663629 y202.877431
g1 x63.668872 y202.866284
g1 x63.672721 y202.854443
g1 x63.675251 y202.841182
g1 x63.675971 y202.830166
g1 x63.675247 y202.819074
g1 x63.672721 y202.805837
g1 x63.668872 y202.793996
g1 x63.663629 y202.782849
g1 x63.657083 y202.772535
g1 x63.649288 y202.763112
g1 x63.640255 y202.754635
g1 x63.630134 y202.747277
g1 x63.619516 y202.741438
g1 x63.608043 y202.736899
g1 x63.596057 y202.733817
g1 x63.583957 y202.73229
g1 x63.571543 y202.73229
g1 z-1.5 f150
g1 x63.559443 y202.733817 f350
g1 x63.547457 y202.736899
g1 x63.535984 y202.741438
g1 x63.525366 y202.747277
g1 x63.515245 y202.754635
g1 x63.506212 y202.763112
g1 x63.498417 y202.772535
g1 x63.491871 y202.782849
g1 x63.486628 y202.793996
g1 x63.482779 y202.805837
g1 x63.480253 y202.819074
g1 x63.479529 y202.830166
g1 x63.480249 y202.841182
g1 x63.482779 y202.854443
g1 x63.486628 y202.866284
g1 x63.491871 y202.877431
g1 x63.498293 y202.88755
g1 x63.506212 y202.897114
g1 x63.515459 y202.905801
g1 x63.525366 y202.913003
g1 x63.535984 y202.918842
g1 x63.547457 y202.923381
g1 x63.559443 y202.926463
g1 x63.571543 y202.92799
g1 x63.583957 y202.92799
g1 x63.596057 y202.926463
g1 x63.608043 y202.923381
g1 x63.619516 y202.918842
g1 x63.630134 y202.913003
g1 x63.640041 y202.905801
g1 x63.649288 y202.897114
g1 x63.657207 y202.88755
g1 x63.663629 y202.877431
g1 x63.668872 y202.866284
g1 x63.672721 y202.854443
g1 x63.675251 y202.841182
g1 x63.675971 y202.830166
g1 x63.675247 y202.819074
g1 x63.672721 y202.805837
g1 x63.668872 y202.793996
g1 x63.663629 y202.782849
g1 x63.657083 y202.772535
g1 x63.649288 y202.763112
g1 x63.640255 y202.754635
g1 x63.630134 y202.747277
g1 x63.619516 y202.741438
g1 x63.608043 y202.736899
g1 x63.596057 y202.733817
g1 x63.583957 y202.73229
g1 x63.571543 y202.73229
g1 z-2 f150
g1 x63.559443 y202.733817 f350
g1 x63.547457 y202.736899
g1 x63.535984 y202.741438
g1 x63.525366 y202.747277
g1 x63.515245 y202.754635
g1 x63.506212 y202.763112
g1 x63.498417 y202.772535
g1 x63.491871 y202.782849
g1 x63.486628 y202.793996
g1 x63.482779 y202.805837
g1 x63.480253 y202.819074
g1 x63.479529 y202.830166
g1 x63.480249 y202.841182
g1 x63.482779 y202.854443
g1 x63.486628 y202.866284
g1 x63.491871 y202.877431
g1 x63.498293 y202.88755
g1 x63.506212 y202.897114
g1 x63.515459 y202.905801
g1 x63.525366 y202.913003
g1 x63.535984 y202.918842
g1 x63.547457 y202.923381
g1 x63.559443 y202.926463
g1 x63.571543 y202.92799
g1 x63.583957 y202.92799
g1 x63.596057 y202.926463
g1 x63.608043 y202.923381
g1 x63.619516 y202.918842
g1 x63.630134 y202.913003
g1 x63.640041 y202.905801
g1 x63.649288 y202.897114
g1 x63.657207 y202.88755
g1 x63.663629 y202.877431
g1 x63.668872 y202.866284
g1 x63.672721 y202.854443
g1 x63.675251 y202.841182
g1 x63.675971 y202.830166
g1 x63.675247 y202.819074
g1 x63.672721 y202.805837
g1 x63.668872 y202.793996
g1 x63.663629 y202.782849
g1 x63.657083 y202.772535
g1 x63.649288 y202.763112
g1 x63.640255 y202.754635
g1 x63.630134 y202.747277
g1 x63.619516 y202.741438
g1 x63.608043 y202.736899
g1 x63.596057 y202.733817
g1 x63.583957 y202.73229
g1 x63.571543 y202.73229
g1 z-2.5 f150
g1 x63.559443 y202.733817 f350
g1 x63.547457 y202.736899
g1 x63.535984 y202.741438
g1 x63.525366 y202.747277
g1 x63.515245 y202.754635
g1 x63.506212 y202.763112
g1 x63.498417 y202.772535
g1 x63.491871 y202.782849
g1 x63.486628 y202.793996
g1 x63.482779 y202.805837
g1 x63.480253 y202.819074
g1 x63.479529 y202.830166
g1 x63.480249 y202.841182
g1 x63.482779 y202.854443
g1 x63.486628 y202.866284
g1 x63.491871 y202.877431
g1 x63.498293 y202.88755
g1 x63.506212 y202.897114
g1 x63.515459 y202.905801
g1 x63.525366 y202.913003
g1 x63.535984 y202.918842
g1 x63.547457 y202.923381
g1 x63.559443 y202.926463
g1 x63.571543 y202.92799
g1 x63.583957 y202.92799
g1 x63.596057 y202.926463
g1 x63.608043 y202.923381
g1 x63.619516 y202.918842
g1 x63.630134 y202.913003
g1 x63.640041 y202.905801
g1 x63.649288 y202.897114
g1 x63.657207 y202.88755
g1 x63.663629 y202.877431
g1 x63.668872 y202.866284
g1 x63.672721 y202.854443
g1 x63.675251 y202.841182
g1 x63.675971 y202.830166
g1 x63.675247 y202.819074
g1 x63.672721 y202.805837
g1 x63.668872 y202.793996
g1 x63.663629 y202.782849
g1 x63.657083 y202.772535
g1 x63.649288 y202.763112
g1 x63.640255 y202.754635
g1 x63.630134 y202.747277
g1 x63.619516 y202.741438
g1 x63.608043 y202.736899
g1 x63.596057 y202.733817
g1 x63.583957 y202.73229
g1 x63.571543 y202.73229
g1 z-3 f150
g1 x63.559443 y202.733817 f350
g1 x63.547457 y202.736899
g1 x63.535984 y202.741438
g1 x63.525366 y202.747277
g1 x63.515245 y202.754635
g1 x63.506212 y202.763112
g1 x63.498417 y202.772535
g1 x63.491871 y202.782849
g1 x63.486628 y202.793996
g1 x63.482779 y202.805837
g1 x63.480253 y202.819074
g1 x63.479529 y202.830166
g1 x63.480249 y202.841182
g1 x63.482779 y202.854443
g1 x63.486628 y202.866284
g1 x63.491871 y202.877431
g1 x63.498293 y202.88755
g1 x63.506212 y202.897114
g1 x63.515459 y202.905801
g1 x63.525366 y202.913003
g1 x63.535984 y202.918842
g1 x63.547457 y202.923381
g1 x63.559443 y202.926463
g1 x63.571543 y202.92799
g1 x63.583957 y202.92799
g1 x63.596057 y202.926463
g1 x63.608043 y202.923381
g1 x63.619516 y202.918842
g1 x63.630134 y202.913003
g1 x63.640041 y202.905801
g1 x63.649288 y202.897114
g1 x63.657207 y202.88755
g1 x63.663629 y202.877431
g1 x63.668872 y202.866284
g1 x63.672721 y202.854443
g1 x63.675251 y202.841182
g1 x63.675971 y202.830166
g1 x63.675247 y202.819074
g1 x63.672721 y202.805837
g1 x63.668872 y202.793996
g1 x63.663629 y202.782849
g1 x63.657083 y202.772535
g1 x63.649288 y202.763112
g1 x63.640255 y202.754635
g1 x63.630134 y202.747277
g1 x63.619516 y202.741438
g1 x63.608043 y202.736899
g1 x63.596057 y202.733817
g1 x63.583957 y202.73229
g1 x63.571543 y202.73229
g0 z5
(Block-name: path4)
(Block-expand: 0)
(Block-enable: 0)

(End cutting path id: path4)


(Start cutting path id: path4)
(Change tool to Default tool)

G0 Z5
G0 X105.2529 Y163.95769

G1 Z-0.125 F100
G1 X105.0536 Y163.98279 Z-0.125 F400
G1 X104.859 Y164.03279 Z-0.125
G1 X104.6722 Y164.10679 Z-0.125
G1 X104.4961 Y164.20359 Z-0.125
G1 X104.3335 Y164.32169 Z-0.125
G1 X104.1871 Y164.45919 Z-0.125
G1 X104.059 Y164.61409 Z-0.125
G1 X103.9513 Y164.78369 Z-0.125
G1 X103.8658 Y164.96549 Z-0.125
G1 X103.8037 Y165.15659 Z-0.125
G1 X103.766 Y165.35399 Z-0.125
G1 X103.7534 Y165.55449 Z-0.125
G1 X103.766 Y165.75499 Z-0.125
G1 X103.8037 Y165.95239 Z-0.125
G1 X103.8658 Y166.14349 Z-0.125
G1 X103.9513 Y166.32529 Z-0.125
G1 X104.059 Y166.49489 Z-0.125
G1 X104.1871 Y166.64979 Z-0.125
G1 X104.3335 Y166.78729 Z-0.125
G1 X104.4961 Y166.90549 Z-0.125
G1 X104.6722 Y167.00229 Z-0.125
G1 X104.859 Y167.07629 Z-0.125
G1 X105.0536 Y167.12619 Z-0.125
G1 X105.2529 Y167.15129 Z-0.125
G1 X105.4539 Y167.15129 Z-0.125
G1 X105.6532 Y167.12619 Z-0.125
G1 X105.8478 Y167.07629 Z-0.125
G1 X106.0347 Y167.00229 Z-0.125
G1 X106.2107 Y166.90549 Z-0.125
G1 X106.3733 Y166.78729 Z-0.125
G1 X106.5198 Y166.64979 Z-0.125
G1 X106.6478 Y166.49489 Z-0.125
G1 X106.7555 Y166.32529 Z-0.125
G1 X106.8411 Y166.14349 Z-0.125
G1 X106.9031 Y165.95239 Z-0.125
G1 X106.9408 Y165.75499 Z-0.125
G1 X106.9534 Y165.55449 Z-0.125
G1 X106.9408 Y165.35399 Z-0.125
G1 X106.9031 Y165.15659 Z-0.125
G1 X106.8411 Y164.96549 Z-0.125
G1 X106.7555 Y164.78369 Z-0.125
G1 X106.6478 Y164.61409 Z-0.125
G1 X106.5198 Y164.45919 Z-0.125
G1 X106.3733 Y164.32169 Z-0.125
G1 X106.2107 Y164.20359 Z-0.125
G1 X106.0347 Y164.10679 Z-0.125
G1 X105.8478 Y164.03279 Z-0.125
G1 X105.6532 Y163.98279 Z-0.125
G1 X105.4539 Y163.95769 Z-0.125
G1 X105.2529 Y163.95769 Z-0.125
G0 Z5
(Block-name: path4 [in,cut])
(Block-expand: 0)
(Block-enable: 1)
g0 x105.315623 y164.95769
g1 z-0.5 f150
g1 x105.24125 y164.967057 f350
g1 x105.168799 y164.985672
g1 x105.09888 y165.01337
g1 x105.032902 y165.049637
g1 x104.972163 y165.093753
g1 x104.917597 y165.145002
g1 x104.86957 y165.203077
g1 x104.829337 y165.266434
g1 x104.797441 y165.334255
g1 x104.774161 y165.405892
g1 x104.760076 y165.479643
g1 x104.755373 y165.55449
g1 x104.760076 y165.629337
g1 x104.774161 y165.703088
g1 x104.797441 y165.774725
g1 x104.829337 y165.842546
g1 x104.86957 y165.905903
g1 x104.917597 y165.963978
g1 x104.97231 y166.015365
g1 x105.033079 y166.05954
g1 x105.09888 y166.09571
g1 x105.168574 y166.123319
g1 x105.24101 y166.141893
g1 x105.315623 y166.15129
g1 x105.391177 y166.15129
g1 x105.46579 y166.141893
g1 x105.538315 y166.123296
g1 x105.607989 y166.09571
g1 x105.673624 y166.059611
g1 x105.734628 y166.015264
g1 x105.789272 y165.963978
g1 x105.837127 y165.906066
g1 x105.877585 y165.842355
g1 x105.909428 y165.774725
g1 x105.932594 y165.703321
g1 x105.946724 y165.629337
g1 x105.951427 y165.55449
g1 x105.946724 y165.479643
