(Block-name: Header)
(Block-expand: 0)
(Block-enable: 1)
%
(Header)
(Generated by gcodetools from Inkscape.)
(Using default header. To add your own header create file "header" in the output dir.)
M3
(Header end.)
G21 (All units in mm)

(Start cutting path id: path167-3-7)
(Change tool to Default tool)

(Block-name: path167-3-7 [cut])
(Block-expand: 0)
(Block-enable: 1)
g0 x128.026557 y206.954649
g1 z-1 f300
g1 x128.026557 y207.954649 f650
g1 x133.026557 y207.954649
g1 x133.026557 y206.954649
g1 x128.026557 y206.954649
g1 z-2 f300
g1 x128.026557 y207.954649 f650
g1 x133.026557 y207.954649
g1 x133.026557 y206.954649
g1 x128.026557 y206.954649
g1 z-3 f300
g1 x128.026557 y207.954649 f650
g1 x133.026557 y207.954649
g1 x133.026557 y206.954649
g1 x128.026557 y206.954649
g0 z5
(Block-name: path167-3 [cut])
(Block-expand: 0)
(Block-enable: 1)
g0 x128.443457 y167.931049
g1 z-1 f300
g1 x128.443457 y168.931049 f650
g1 x133.443457 y168.931049
g1 x133.443457 y167.931049
g1 x128.443457 y167.931049
g1 z-2 f300
g1 x128.443457 y168.931049 f650
g1 x133.443457 y168.931049
g1 x133.443457 y167.931049
g1 x128.443457 y167.931049
g1 z-3 f300
g1 x128.443457 y168.931049 f650
g1 x133.443457 y168.931049
g1 x133.443457 y167.931049
g1 x128.443457 y167.931049
g0 z5
(Block-name: path167-3-7)
(Block-expand: 0)
(Block-enable: 0)

(End cutting path id: path167-3-7)


(Start cutting path id: path167-3-7)
(Change tool to Default tool)

G0 Z5
G0 X134.957457 Y198.856849

G1 Z-0.125 F100
G1 X134.820357 Y198.874149 Z-0.125 F400
G1 X134.686657 Y198.908449 Z-0.125
G1 X134.558157 Y198.959349 Z-0.125
G1 X134.437157 Y199.025849 Z-0.125
G1 X134.325357 Y199.107049 Z-0.125
G1 X134.224657 Y199.201649 Z-0.125
G1 X134.136657 Y199.308049 Z-0.125
G1 X134.062657 Y199.424749 Z-0.125
G1 X134.003857 Y199.549749 Z-0.125
G1 X133.961157 Y199.681049 Z-0.125
G1 X133.935257 Y199.816749 Z-0.125
G1 X133.926257 Y199.954649 Z-0.125
G1 X133.935257 Y200.092549 Z-0.125
G1 X133.961157 Y200.228249 Z-0.125
G1 X134.003857 Y200.359549 Z-0.125
G1 X134.062657 Y200.484549 Z-0.125
G1 X134.136657 Y200.601249 Z-0.125
G1 X134.224657 Y200.707649 Z-0.125
G1 X134.325357 Y200.802249 Z-0.125
G1 X134.437157 Y200.883449 Z-0.125
G1 X134.558157 Y200.949949 Z-0.125
G1 X134.686657 Y201.000849 Z-0.125
G1 X134.820357 Y201.035149 Z-0.125
G1 X134.957457 Y201.052449 Z-0.125
G1 X135.095557 Y201.052449 Z-0.125
G1 X135.232657 Y201.035149 Z-0.125
G1 X135.366457 Y201.000849 Z-0.125
G1 X135.494857 Y200.949949 Z-0.125
G1 X135.615957 Y200.883449 Z-0.125
G1 X135.727657 Y200.802249 Z-0.125
G1 X135.828357 Y200.707649 Z-0.125
G1 X135.916457 Y200.601249 Z-0.125
G1 X135.990457 Y200.484549 Z-0.125
G1 X136.049257 Y200.359549 Z-0.125
G1 X136.091957 Y200.228249 Z-0.125
G1 X136.117857 Y200.092549 Z-0.125
G1 X136.126857 Y199.954649 Z-0.125
G1 X136.117857 Y199.816749 Z-0.125
G1 X136.091957 Y199.681049 Z-0.125
G1 X136.049257 Y199.549749 Z-0.125
G1 X135.990457 Y199.424749 Z-0.125
G1 X135.916457 Y199.308049 Z-0.125
G1 X135.828357 Y199.201649 Z-0.125
G1 X135.727657 Y199.107049 Z-0.125
G1 X135.615957 Y199.025849 Z-0.125
G1 X135.494857 Y198.959349 Z-0.125
G1 X135.366457 Y198.908449 Z-0.125
G1 X135.232657 Y198.874149 Z-0.125
G1 X135.095557 Y198.856849 Z-0.125
G1 X134.957457 Y198.856849 Z-0.125
G0 Z5
(Block-name: path167-3-7 [in,cut])
(Block-expand: 0)
(Block-enable: 1)
g0 x135.0203 y199.856849
g1 z-1 f300
g1 x135.007941 y199.858409 f650
g1 x134.996268 y199.861403
g1 x134.984787 y199.865951
g1 x134.97392 y199.871923
g1 x134.96406 y199.879084
g1 x134.955173 y199.887434
g1 x134.947424 y199.896803
g1 x134.940811 y199.907231
g1 x134.935437 y199.918656
g1 x134.931615 y199.930407
g1 x134.92911 y199.943533
g1 x134.928384 y199.954649
g1 x134.92911 y199.965765
g1 x134.931615 y199.978891
g1 x134.935437 y199.990642
g1 x134.940811 y200.002067
g1 x134.947424 y200.012495
g1 x134.955173 y200.021864
g1 x134.96406 y200.030214
g1 x134.97392 y200.037375
g1 x134.984787 y200.043347
g1 x134.996268 y200.047895
g1 x135.007941 y200.050889
g1 x135.0203 y200.052449
g1 x135.032714 y200.052449
g1 x135.045163 y200.050878
g1 x135.0568 y200.047895
g1 x135.068273 y200.043347
g1 x135.079148 y200.037375
g1 x135.088798 y200.03036
g1 x135.098045 y200.021673
g1 x135.10584 y200.012258
g1 x135.112303 y200.002067
g1 x135.117677 y199.990642
g1 x135.121499 y199.978891
g1 x135.124004 y199.965765
g1 x135.12473 y199.954649
g1 x135.124004 y199.943533
g1 x135.121499 y199.930407
g1 x135.117677 y199.918656
g1 x135.112303 y199.907231
g1 x135.10584 y199.89704
g1 x135.098045 y199.887625
g1 x135.088798 y199.878938
g1 x135.079148 y199.871923
g1 x135.068273 y199.865951
g1 x135.0568 y199.861403
g1 x135.045163 y199.85842
g1 x135.032714 y199.856849
g1 x135.0203 y199.856849
g1 z-2 f300
g1 x135.007941 y199.858409 f650
g1 x134.996268 y199.861403
g1 x134.984787 y199.865951
g1 x134.97392 y199.871923
g1 x134.96406 y199.879084
g1 x134.955173 y199.887434
g1 x134.947424 y199.896803
g1 x134.940811 y199.907231
g1 x134.935437 y199.918656
g1 x134.931615 y199.930407
g1 x134.92911 y199.943533
g1 x134.928384 y199.954649
g1 x134.92911 y199.965765
g1 x134.931615 y199.978891
g1 x134.935437 y199.990642
g1 x134.940811 y200.002067
g1 x134.947424 y200.012495
g1 x134.955173 y200.021864
g1 x134.96406 y200.030214
g1 x134.97392 y200.037375
g1 x134.984787 y200.043347
g1 x134.996268 y200.047895
g1 x135.007941 y200.050889
g1 x135.0203 y200.052449
g1 x135.032714 y200.052449
g1 x135.045163 y200.050878
g1 x135.0568 y200.047895
g1 x135.068273 y200.043347
g1 x135.079148 y200.037375
g1 x135.088798 y200.03036
g1 x135.098045 y200.021673
g1 x135.10584 y200.012258
g1 x135.112303 y200.002067
g1 x135.117677 y199.990642
g1 x135.121499 y199.978891
g1 x135.124004 y199.965765
g1 x135.12473 y199.954649
g1 x135.124004 y199.943533
g1 x135.121499 y199.930407
g1 x135.117677 y199.918656
g1 x135.112303 y199.907231
g1 x135.10584 y199.89704
g1 x135.098045 y199.887625
g1 x135.088798 y199.878938
g1 x135.079148 y199.871923
g1 x135.068273 y199.865951
g1 x135.0568 y199.861403
g1 x135.045163 y199.85842
g1 x135.032714 y199.856849
g1 x135.0203 y199.856849
g1 z-3 f300
g1 x135.007941 y199.858409 f650
g1 x134.996268 y199.861403
g1 x134.984787 y199.865951
g1 x134.97392 y199.871923
g1 x134.96406 y199.879084
g1 x134.955173 y199.887434
g1 x134.947424 y199.896803
g1 x134.940811 y199.907231
g1 x134.935437 y199.918656
g1 x134.931615 y199.930407
g1 x134.92911 y199.943533
g1 x134.928384 y199.954649
g1 x134.92911 y199.965765
g1 x134.931615 y199.978891
g1 x134.935437 y199.990642
g1 x134.940811 y200.002067
g1 x134.947424 y200.012495
g1 x134.955173 y200.021864
g1 x134.96406 y200.030214
g1 x134.97392 y200.037375
g1 x134.984787 y200.043347
g1 x134.996268 y200.047895
g1 x135.007941 y200.050889
g1 x135.0203 y200.052449
g1 x135.032714 y200.052449
g1 x135.045163 y200.050878
g1 x135.0568 y200.047895
g1 x135.068273 y200.043347
g1 x135.079148 y200.037375
g1 x135.088798 y200.03036
g1 x135.098045 y200.021673
g1 x135.10584 y200.012258
g1 x135.112303 y200.002067
g1 x135.117677 y199.990642
g1 x135.121499 y199.978891
g1 x135.124004 y199.965765
g1 x135.12473 y199.954649
g1 x135.124004 y199.943533
g1 x135.121499 y199.930407
g1 x135.117677 y199.918656
g1 x135.112303 y199.907231
g1 x135.10584 y199.89704
g1 x135.098045 y199.887625
g1 x135.088798 y199.878938
g1 x135.079148 y199.871923
g1 x135.068273 y199.865951
g1 x135.0568 y199.861403
g1 x135.045163 y199.85842
g1 x135.032714 y199.856849
g1 x135.0203 y199.856849
g0 z5
(Block-name: path167-3-7)
(Block-expand: 0)
(Block-enable: 0)

(End cutting path id: path167-3-7)


(Start cutting path id: path167-3-7)
(Change tool to Default tool)

G0 Z5
G0 X114.957457 Y198.856849

G1 Z-0.125 F100
G1 X114.820457 Y198.874149 Z-0.125 F400
G1 X114.686657 Y198.908449 Z-0.125
G1 X114.558157 Y198.959349 Z-0.125
G1 X114.437157 Y199.025849 Z-0.125
G1 X114.325357 Y199.107049 Z-0.125
G1 X114.224657 Y199.201649 Z-0.125
G1 X114.136657 Y199.308049 Z-0.125
G1 X114.062657 Y199.424749 Z-0.125
G1 X114.003757 Y199.549749 Z-0.125
G1 X113.961157 Y199.681049 Z-0.125
G1 X113.935257 Y199.816749 Z-0.125
G1 X113.926257 Y199.954649 Z-0.125
G1 X113.935257 Y200.092549 Z-0.125
G1 X113.961157 Y200.228249 Z-0.125
G1 X114.003757 Y200.359549 Z-0.125
G1 X114.062657 Y200.484549 Z-0.125
G1 X114.136657 Y200.601249 Z-0.125
G1 X114.224657 Y200.707649 Z-0.125
G1 X114.325357 Y200.802249 Z-0.125
G1 X114.437157 Y200.883449 Z-0.125
G1 X114.558157 Y200.949949 Z-0.125
G1 X114.686657 Y201.000849 Z-0.125
G1 X114.820457 Y201.035149 Z-0.125
G1 X114.957457 Y201.052449 Z-0.125
G1 X115.095657 Y201.052449 Z-0.125
G1 X115.232657 Y201.035149 Z-0.125
G1 X115.366457 Y201.000849 Z-0.125
G1 X115.494957 Y200.949949 Z-0.125
G1 X115.615957 Y200.883449 Z-0.125
G1 X115.727757 Y200.802249 Z-0.125
G1 X115.828457 Y200.707649 Z-0.125
G1 X115.916457 Y200.601249 Z-0.125
G1 X115.990457 Y200.484549 Z-0.125
G1 X116.049357 Y200.359549 Z-0.125
G1 X116.091957 Y200.228249 Z-0.125
G1 X116.117857 Y200.092549 Z-0.125
G1 X116.126857 Y199.954649 Z-0.125
G1 X116.117857 Y199.816749 Z-0.125
G1 X116.091957 Y199.681049 Z-0.125
G1 X116.049357 Y199.549749 Z-0.125
G1 X115.990457 Y199.424749 Z-0.125
G1 X115.916457 Y199.308049 Z-0.125
G1 X115.828457 Y199.201649 Z-0.125
G1 X115.727757 Y199.107049 Z-0.125
G1 X115.615957 Y199.025849 Z-0.125
G1 X115.494957 Y198.959349 Z-0.125
G1 X115.366457 Y198.908449 Z-0.125
G1 X115.232657 Y198.874149 Z-0.125
G1 X115.095657 Y198.856849 Z-0.125
G1 X114.957457 Y198.856849 Z-0.125
G0 Z5
(Block-name: path167-3-7 [in,cut])
(Block-expand: 0)
(Block-enable: 1)
g0 x115.020346 y199.856849
g1 z-1 f300
g1 x115.007995 y199.858409 f650
g1 x114.996184 y199.861436
g1 x114.984787 y199.865951
g1 x114.97392 y199.871923
g1 x114.96406 y199.879084
g1 x114.955173 y199.887434
g1 x114.947424 y199.896803
g1 x114.940635 y199.907509
g1 x114.935382 y199.918656
g1 x114.93168 y199.930067
g1 x114.92911 y199.943533
g1 x114.928384 y199.954649
g1 x114.92911 y199.965765
g1 x114.93168 y199.979231
g1 x114.935382 y199.990642
g1 x114.940635 y200.001789
g1 x114.947424 y200.012495
g1 x114.955173 y200.021864
g1 x114.96406 y200.030214
g1 x114.97392 y200.037375
g1 x114.984787 y200.043347
g1 x114.996184 y200.047862
g1 x115.007995 y200.050889
g1 x115.020346 y200.052449
g1 x115.032768 y200.052449
g1 x115.045119 y200.050889
g1 x115.05693 y200.047862
g1 x115.068327 y200.043347
g1 x115.079194 y200.037375
g1 x115.089054 y200.030214
g1 x115.097941 y200.021864
g1 x115.10569 y200.012495
g1 x115.112479 y200.001789
g1 x115.117732 y199.990642
g1 x115.121434 y199.979231
g1 x115.124004 y199.965765
g1 x115.12473 y199.954649
g1 x115.124004 y199.943533
g1 x115.121434 y199.930067
g1 x115.117732 y199.918656
g1 x115.112479 y199.907509
g1 x115.10569 y199.896803
g1 x115.097941 y199.887434
g1 x115.089054 y199.879084
g1 x115.079194 y199.871923
g1 x115.068327 y199.865951
g1 x115.05693 y199.861436
g1 x115.045119 y199.858409
g1 x115.032768 y199.856849
g1 x115.020346 y199.856849
g1 z-2 f300
g1 x115.007995 y199.858409 f650
g1 x114.996184 y199.861436
g1 x114.984787 y199.865951
g1 x114.97392 y199.871923
g1 x114.96406 y199.879084
g1 x114.955173 y199.887434
g1 x114.947424 y199.896803
g1 x114.940635 y199.907509
g1 x114.935382 y199.918656
g1 x114.93168 y199.930067
g1 x114.92911 y199.943533
g1 x114.928384 y199.954649
g1 x114.92911 y199.965765
g1 x114.93168 y199.979231
g1 x114.935382 y199.990642
g1 x114.940635 y200.001789
g1 x114.947424 y200.012495
g1 x114.955173 y200.021864
g1 x114.96406 y200.030214
g1 x114.97392 y200.037375
g1 x114.984787 y200.043347
g1 x114.996184 y200.047862
g1 x115.007995 y200.050889
g1 x115.020346 y200.052449
g1 x115.032768 y200.052449
g1 x115.045119 y200.050889
g1 x115.05693 y200.047862
g1 x115.068327 y200.043347
g1 x115.079194 y200.037375
g1 x115.089054 y200.030214
g1 x115.097941 y200.021864
g1 x115.10569 y200.012495
g1 x115.112479 y200.001789
g1 x115.117732 y199.990642
g1 x115.121434 y199.979231
g1 x115.124004 y199.965765
g1 x115.12473 y199.954649
g1 x115.124004 y199.943533
g1 x115.121434 y199.930067
g1 x115.117732 y199.918656
g1 x115.112479 y199.907509
g1 x115.10569 y199.896803
g1 x115.097941 y199.887434
g1 x115.089054 y199.879084
g1 x115.079194 y199.871923
g1 x115.068327 y199.865951
g1 x115.05693 y199.861436
g1 x115.045119 y199.858409
g1 x115.032768 y199.856849
g1 x115.020346 y199.856849
g1 z-3 f300
g1 x115.007995 y199.858409 f650
g1 x114.996184 y199.861436
g1 x114.984787 y199.865951
g1 x114.97392 y199.871923
g1 x114.96406 y199.879084
g1 x114.955173 y199.887434
g1 x114.947424 y199.896803
g1 x114.940635 y199.907509
g1 x114.935382 y199.918656
g1 x114.93168 y199.930067
g1 x114.92911 y199.943533
g1 x114.928384 y199.954649
g1 x114.92911 y199.965765
g1 x114.93168 y199.979231
g1 x114.935382 y199.990642
g1 x114.940635 y200.001789
g1 x114.947424 y200.012495
g1 x114.955173 y200.021864
g1 x114.96406 y200.030214
g1 x114.97392 y200.037375
g1 x114.984787 y200.043347
g1 x114.996184 y200.047862
g1 x115.007995 y200.050889
g1 x115.020346 y200.052449
g1 x115.032768 y200.052449
g1 x115.045119 y200.050889
g1 x115.05693 y200.047862
g1 x115.068327 y200.043347
g1 x115.079194 y200.037375
g1 x115.089054 y200.030214
g1 x115.097941 y200.021864
g1 x115.10569 y200.012495
g1 x115.112479 y200.001789
g1 x115.117732 y199.990642
g1 x115.121434 y199.979231
g1 x115.124004 y199.965765
g1 x115.12473 y199.954649
g1 x115.124004 y199.943533
g1 x115.121434 y199.930067
g1 x115.117732 y199.918656
g1 x115.112479 y199.907509
g1 x115.10569 y199.896803
g1 x115.097941 y199.887434
g1 x115.089054 y199.879084
g1 x115.079194 y199.871923
g1 x115.068327 y199.865951
g1 x115.05693 y199.861436
g1 x115.045119 y199.858409
g1 x115.032768 y199.856849
g1 x115.020346 y199.856849
g0 z5
(Block-name: path167-3-7)
(Block-expand: 0)
(Block-enable: 0)

(End cutting path id: path167-3-7)


(Start cutting path id: path167-3-7)
(Change tool to Default tool)

G0 Z5
G0 X94.963757 Y198.956649

G1 Z-0.125 F100
G1 X94.839157 Y198.972349 Z-0.125 F400
G1 X94.717557 Y199.003549 Z-0.125
G1 X94.600757 Y199.049849 Z-0.125
G1 X94.490757 Y199.110349 Z-0.125
G1 X94.389157 Y199.184149 Z-0.125
G1 X94.297557 Y199.270049 Z-0.125
G1 X94.217557 Y199.366849 Z-0.125
G1 X94.150257 Y199.472849 Z-0.125
G1 X94.096757 Y199.586549 Z-0.125
G1 X94.057957 Y199.705949 Z-0.125
G1 X94.034457 Y199.829349 Z-0.125
G1 X94.026457 Y199.954649 Z-0.125
G1 X94.034457 Y200.079949 Z-0.125
G1 X94.057957 Y200.203349 Z-0.125
G1 X94.096757 Y200.322749 Z-0.125
G1 X94.150257 Y200.436449 Z-0.125
G1 X94.217557 Y200.542449 Z-0.125
G1 X94.297557 Y200.639149 Z-0.125
G1 X94.389157 Y200.725149 Z-0.125
G1 X94.490757 Y200.798949 Z-0.125
G1 X94.600757 Y200.859449 Z-0.125
G1 X94.717557 Y200.905649 Z-0.125
G1 X94.839157 Y200.936949 Z-0.125
G1 X94.963757 Y200.952649 Z-0.125
G1 X95.089357 Y200.952649 Z-0.125
G1 X95.213957 Y200.936949 Z-0.125
G1 X95.335557 Y200.905649 Z-0.125
G1 X95.452357 Y200.859449 Z-0.125
G1 X95.562357 Y200.798949 Z-0.125
G1 X95.663957 Y200.725149 Z-0.125
G1 X95.755557 Y200.639149 Z-0.125
G1 X95.835557 Y200.542449 Z-0.125
G1 X95.902857 Y200.436449 Z-0.125
G1 X95.956357 Y200.322749 Z-0.125
G1 X95.995157 Y200.203349 Z-0.125
G1 X96.018657 Y200.079949 Z-0.125
G1 X96.026657 Y199.954649 Z-0.125
G1 X96.018657 Y199.829349 Z-0.125
G1 X95.995157 Y199.705949 Z-0.125
G1 X95.956357 Y199.586549 Z-0.125
G1 X95.902857 Y199.472849 Z-0.125
G1 X95.835557 Y199.366849 Z-0.125
G1 X95.755557 Y199.270049 Z-0.125
G1 X95.663957 Y199.184149 Z-0.125
G1 X95.562357 Y199.110349 Z-0.125
G1 X95.452357 Y199.049849 Z-0.125
G1 X95.335557 Y199.003549 Z-0.125
G1 X95.213957 Y198.972349 Z-0.125
G1 X95.089357 Y198.956649 Z-0.125
G1 X94.963757 Y198.956649 Z-0.125
G0 Z5
(Block-name: path167-3-7 [in,cut])
(Block-expand: 0)
(Block-enable: 1)
g0 x95.020235 y199.856649
g1 z-1 f300
g1 x95.020124 y199.854882 f650
g1 x95.020235 y199.856649
g1 x95.007919 y199.858201
g1 x95.007585 y199.856449
g1 x95.007919 y199.858201
g1 x94.996332 y199.861174
g1 x94.995777 y199.859466
g1 x94.996332 y199.861174
g1 x94.984958 y199.865683
g1 x94.984203 y199.864078
g1 x94.984958 y199.865683
g1 x94.973981 y199.87172
g1 x94.973032 y199.870225
g1 x94.973981 y199.87172
g1 x94.963687 y199.879197
g1 x94.962563 y199.877838
g1 x94.963687 y199.879197
g1 x94.95489 y199.887447
g1 x94.953569 y199.886205
g1 x94.95489 y199.887447
g1 x94.947172 y199.896786
g1 x94.945748 y199.895752
g1 x94.947172 y199.896786
g1 x94.940459 y199.907359
g1 x94.938894 y199.906499
g1 x94.940459 y199.907359
g1 x94.935207 y199.918521
g1 x94.933554 y199.917866
g1 x94.935207 y199.918521
g1 x94.931446 y199.930094
g1 x94.929713 y199.929649
g1 x94.931446 y199.930094
g1 x94.929056 y199.942644
g1 x94.927325 y199.942424
g1 x94.929056 y199.942644
g1 x94.92829 y199.954649
g1 x94.926457 y199.954649
g1 x94.92829 y199.954649
g1 x94.929056 y199.966654
g1 x94.927325 y199.966874
g1 x94.929056 y199.966654
g1 x94.931446 y199.979204
g1 x94.929713 y199.979649
g1 x94.931446 y199.979204
g1 x94.935207 y199.990777
g1 x94.933554 y199.991432
g1 x94.935207 y199.990777
g1 x94.940459 y200.001939
g1 x94.938894 y200.002799
g1 x94.940459 y200.001939
g1 x94.947049 y200.012319
g1 x94.945614 y200.013362
g1 x94.947049 y200.012319
g1 x94.95489 y200.021797
g1 x94.953591 y200.023016
g1 x94.95489 y200.021797
g1 x94.963899 y200.030255
g1 x94.962765 y200.031626
g1 x94.963899 y200.030255
g1 x94.973981 y200.037578
g1 x94.973032 y200.039073
g1 x94.973981 y200.037578
g1 x94.984665 y200.043454
g1 x94.983901 y200.045078
g1 x94.984665 y200.043454
g1 x94.996333 y200.048069
g1 x94.995791 y200.049737
g1 x94.996333 y200.048069
g1 x95.008264 y200.051141
g1 x95.007926 y200.052914
g1 x95.008264 y200.051141
g1 x95.020235 y200.052649
g1 x95.020124 y200.054416
g1 x95.020235 y200.052649
g1 x95.032879 y200.052649
g1 x95.03299 y200.054416
g1 x95.032879 y200.052649
g1 x95.04485 y200.051141
g1 x95.045188 y200.052914
g1 x95.04485 y200.051141
g1 x95.056781 y200.048069
g1 x95.057323 y200.049737
g1 x95.056781 y200.048069
g1 x95.068449 y200.043454
g1 x95.069213 y200.045078
g1 x95.068449 y200.043454
g1 x95.079133 y200.037578
g1 x95.080082 y200.039073
g1 x95.079133 y200.037578
g1 x95.089215 y200.030255
g1 x95.090349 y200.031626
g1 x95.089215 y200.030255
g1 x95.098224 y200.021797
g1 x95.099523 y200.023016
g1 x95.098224 y200.021797
g1 x95.106065 y200.012319
g1 x95.1075 y200.013362
g1 x95.106065 y200.012319
g1 x95.112655 y200.001939
g1 x95.11422 y200.002799
g1 x95.112655 y200.001939
g1 x95.117907 y199.990777
g1 x95.11956 y199.991432
g1 x95.117907 y199.990777
g1 x95.121668 y199.979204
g1 x95.123401 y199.979649
g1 x95.121668 y199.979204
g1 x95.124058 y199.966654
g1 x95.125789 y199.966874
g1 x95.124058 y199.966654
g1 x95.124824 y199.954649
g1 x95.126657 y199.954649
g1 x95.124824 y199.954649
g1 x95.124058 y199.942644
g1 x95.125789 y199.942424
g1 x95.124058 y199.942644
g1 x95.121668 y199.930094
g1 x95.123401 y199.929649
g1 x95.121668 y199.930094
g1 x95.117907 y199.918521
g1 x95.11956 y199.917866
g1 x95.117907 y199.918521
g1 x95.112655 y199.907359
g1 x95.11422 y199.906499
g1 x95.112655 y199.907359
g1 x95.105942 y199.896786
g1 x95.107366 y199.895752
g1 x95.105942 y199.896786
g1 x95.098224 y199.887447
g1 x95.099545 y199.886205
g1 x95.098224 y199.887447
g1 x95.089427 y199.879197
g1 x95.090551 y199.877838
g1 x95.089427 y199.879197
g1 x95.079133 y199.87172
g1 x95.080082 y199.870225
g1 x95.079133 y199.87172
g1 x95.068156 y199.865683
g1 x95.068911 y199.864078
g1 x95.068156 y199.865683
g1 x95.056782 y199.861174
g1 x95.057337 y199.859466
g1 x95.056782 y199.861174
g1 x95.045195 y199.858201
g1 x95.045529 y199.856449
g1 x95.045195 y199.858201
g1 x95.032879 y199.856649
g1 x95.03299 y199.854882
g1 x95.032879 y199.856649
g1 x95.020235 y199.856649
g1 z-2 f300
g1 x95.020124 y199.854882 f650
g1 x95.020235 y199.856649
g1 x95.007919 y199.858201
g1 x95.007585 y199.856449
g1 x95.007919 y199.858201
g1 x94.996332 y199.861174
g1 x94.995777 y199.859466
g1 x94.996332 y199.861174
g1 x94.984958 y199.865683
g1 x94.984203 y199.864078
g1 x94.984958 y199.865683
g1 x94.973981 y199.87172
g1 x94.973032 y199.870225
g1 x94.973981 y199.87172
g1 x94.963687 y199.879197
g1 x94.962563 y199.877838
g1 x94.963687 y199.879197
g1 x94.95489 y199.887447
g1 x94.953569 y199.886205
g1 x94.95489 y199.887447
g1 x94.947172 y199.896786
g1 x94.945748 y199.895752
g1 x94.947172 y199.896786
g1 x94.940459 y199.907359
g1 x94.938894 y199.906499
g1 x94.940459 y199.907359
g1 x94.935207 y199.918521
g1 x94.933554 y199.917866
g1 x94.935207 y199.918521
g1 x94.931446 y199.930094
g1 x94.929713 y199.929649
g1 x94.931446 y199.930094
g1 x94.929056 y199.942644
g1 x94.927325 y199.942424
g1 x94.929056 y199.942644
g1 x94.92829 y199.954649
g1 x94.926457 y199.954649
g1 x94.92829 y199.954649
g1 x94.929056 y199.966654
g1 x94.927325 y199.966874
g1 x94.929056 y199.966654
g1 x94.931446 y199.979204
g1 x94.929713 y199.979649
g1 x94.931446 y199.979204
g1 x94.935207 y199.990777
g1 x94.933554 y199.991432
g1 x94.935207 y199.990777
g1 x94.940459 y200.001939
g1 x94.938894 y200.002799
g1 x94.940459 y200.001939
g1 x94.947049 y200.012319
g1 x94.945614 y200.013362
g1 x94.947049 y200.012319
g1 x94.95489 y200.021797
g1 x94.953591 y200.023016
g1 x94.95489 y200.021797
g1 x94.963899 y200.030255
g1 x94.962765 y200.031626
g1 x94.963899 y200.030255
g1 x94.973981 y200.037578
g1 x94.973032 y200.039073
g1 x94.973981 y200.037578
g1 x94.984665 y200.043454
g1 x94.983901 y200.045078
g1 x94.984665 y200.043454
g1 x94.996333 y200.048069
g1 x94.995791 y200.049737
g1 x94.996333 y200.048069
g1 x95.008264 y200.051141
g1 x95.007926 y200.052914
g1 x95.008264 y200.051141
g1 x95.020235 y200.052649
g1 x95.020124 y200.054416
g1 x95.020235 y200.052649
g1 x95.032879 y200.052649
g1 x95.03299 y200.054416
g1 x95.032879 y200.052649
g1 x95.04485 y200.051141
g1 x95.045188 y200.052914
g1 x95.04485 y200.051141
g1 x95.056781 y200.048069
g1 x95.057323 y200.049737
g1 x95.056781 y200.048069
g1 x95.068449 y200.043454
g1 x95.069213 y200.045078
g1 x95.068449 y200.043454
g1 x95.079133 y200.037578
g1 x95.080082 y200.039073
g1 x95.079133 y200.037578
g1 x95.089215 y200.030255
g1 x95.090349 y200.031626
g1 x95.089215 y200.030255
g1 x95.098224 y200.021797
g1 x95.099523 y200.023016
g1 x95.098224 y200.021797
g1 x95.106065 y200.012319
g1 x95.1075 y200.013362
g1 x95.106065 y200.012319
g1 x95.112655 y200.001939
g1 x95.11422 y200.002799
g1 x95.112655 y200.001939
g1 x95.117907 y199.990777
g1 x95.11956 y199.991432
g1 x95.117907 y199.990777
g1 x95.121668 y199.979204
g1 x95.123401 y199.979649
g1 x95.121668 y199.979204
g1 x95.124058 y199.966654
g1 x95.125789 y199.966874
g1 x95.124058 y199.966654
g1 x95.124824 y199.954649
g1 x95.126657 y199.954649
g1 x95.124824 y199.954649
g1 x95.124058 y199.942644
g1 x95.125789 y199.942424
g1 x95.124058 y199.942644
g1 x95.121668 y199.930094
g1 x95.123401 y199.929649
g1 x95.121668 y199.930094
g1 x95.117907 y199.918521
g1 x95.11956 y199.917866
g1 x95.117907 y199.918521
g1 x95.112655 y199.907359
g1 x95.11422 y199.906499
g1 x95.112655 y199.907359
g1 x95.105942 y199.896786
g1 x95.107366 y199.895752
g1 x95.105942 y199.896786
g1 x95.098224 y199.887447
g1 x95.099545 y199.886205
g1 x95.098224 y199.887447
g1 x95.089427 y199.879197
g1 x95.090551 y199.877838
g1 x95.089427 y199.879197
g1 x95.079133 y199.87172
g1 x95.080082 y199.870225
g1 x95.079133 y199.87172
g1 x95.068156 y199.865683
g1 x95.068911 y199.864078
g1 x95.068156 y199.865683
g1 x95.056782 y199.861174
g1 x95.057337 y199.859466
g1 x95.056782 y199.861174
g1 x95.045195 y199.858201
g1 x95.045529 y199.856449
g1 x95.045195 y199.858201
g1 x95.032879 y199.856649
g1 x95.03299 y199.854882
g1 x95.032879 y199.856649
g1 x95.020235 y199.856649
g1 z-3 f300
g1 x95.020124 y199.854882 f650
g1 x95.020235 y199.856649
g1 x95.007919 y199.858201
g1 x95.007585 y199.856449
g1 x95.007919 y199.858201
g1 x94.996332 y199.861174
g1 x94.995777 y199.859466
g1 x94.996332 y199.861174
g1 x94.984958 y199.865683
g1 x94.984203 y199.864078
g1 x94.984958 y199.865683
g1 x94.973981 y199.87172
g1 x94.973032 y199.870225
g1 x94.973981 y199.87172
g1 x94.963687 y199.879197
g1 x94.962563 y199.877838
g1 x94.963687 y199.879197
g1 x94.95489 y199.887447
g1 x94.953569 y199.886205
g1 x94.95489 y199.887447
g1 x94.947172 y199.896786
g1 x94.945748 y199.895752
g1 x94.947172 y199.896786
g1 x94.940459 y199.907359
g1 x94.938894 y199.906499
g1 x94.940459 y199.907359
g1 x94.935207 y199.918521
g1 x94.933554 y199.917866
g1 x94.935207 y199.918521
g1 x94.931446 y199.930094
g1 x94.929713 y199.929649
g1 x94.931446 y199.930094
g1 x94.929056 y199.942644
g1 x94.927325 y199.942424
g1 x94.929056 y199.942644
g1 x94.92829 y199.954649
g1 x94.926457 y199.954649
g1 x94.92829 y199.954649
g1 x94.929056 y199.966654
g1 x94.927325 y199.966874
g1 x94.929056 y199.966654
g1 x94.931446 y199.979204
g1 x94.929713 y199.979649
g1 x94.931446 y199.979204
g1 x94.935207 y199.990777
g1 x94.933554 y199.991432
g1 x94.935207 y199.990777
g1 x94.940459 y200.001939
g1 x94.938894 y200.002799
g1 x94.940459 y200.001939
g1 x94.947049 y200.012319
g1 x94.945614 y200.013362
g1 x94.947049 y200.012319
g1 x94.95489 y200.021797
g1 x94.953591 y200.023016
g1 x94.95489 y200.021797
g1 x94.963899 y200.030255
g1 x94.962765 y200.031626
g1 x94.963899 y200.030255
g1 x94.973981 y200.037578
g1 x94.973032 y200.039073
g1 x94.973981 y200.037578
g1 x94.984665 y200.043454
g1 x94.983901 y200.045078
g1 x94.984665 y200.043454
g1 x94.996333 y200.048069
g1 x94.995791 y200.049737
g1 x94.996333 y200.048069
g1 x95.008264 y200.051141
g1 x95.007926 y200.052914
g1 x95.008264 y200.051141
g1 x95.020235 y200.052649
g1 x95.020124 y200.054416
g1 x95.020235 y200.052649
g1 x95.032879 y200.052649
g1 x95.03299 y200.054416
g1 x95.032879 y200.052649
g1 x95.04485 y200.051141
g1 x95.045188 y200.052914
g1 x95.04485 y200.051141
g1 x95.056781 y200.048069
g1 x95.057323 y200.049737
g1 x95.056781 y200.048069
g1 x95.068449 y200.043454
g1 x95.069213 y200.045078
g1 x95.068449 y200.043454
g1 x95.079133 y200.037578
g1 x95.080082 y200.039073
g1 x95.079133 y200.037578
g1 x95.089215 y200.030255
g1 x95.090349 y200.031626
g1 x95.089215 y200.030255
g1 x95.098224 y200.021797
g1 x95.099523 y200.023016
g1 x95.098224 y200.021797
g1 x95.106065 y200.012319
g1 x95.1075 y200.013362
g1 x95.106065 y200.012319
g1 x95.112655 y200.001939
g1 x95.11422 y200.002799
g1 x95.112655 y200.001939
g1 x95.117907 y199.990777
g1 x95.11956 y199.991432
g1 x95.117907 y199.990777
g1 x95.121668 y199.979204
g1 x95.123401 y199.979649
g1 x95.121668 y199.979204
g1 x95.124058 y199.966654
g1 x95.125789 y199.966874
g1 x95.124058 y199.966654
g1 x95.124824 y199.954649
g1 x95.126657 y199.954649
g1 x95.124824 y199.954649
g1 x95.124058 y199.942644
g1 x95.125789 y199.942424
g1 x95.124058 y199.942644
g1 x95.121668 y199.930094
g1 x95.123401 y199.929649
g1 x95.121668 y199.930094
g1 x95.117907 y199.918521
g1 x95.11956 y199.917866
g1 x95.117907 y199.918521
g1 x95.112655 y199.907359
g1 x95.11422 y199.906499
g1 x95.112655 y199.907359
g1 x95.105942 y199.896786
g1 x95.107366 y199.895752
g1 x95.105942 y199.896786
g1 x95.098224 y199.887447
g1 x95.099545 y199.886205
g1 x95.098224 y199.887447
g1 x95.089427 y199.879197
g1 x95.090551 y199.877838
g1 x95.089427 y199.879197
g1 x95.079133 y199.87172
g1 x95.080082 y199.870225
g1 x95.079133 y199.87172
g1 x95.068156 y199.865683
g1 x95.068911 y199.864078
g1 x95.068156 y199.865683
g1 x95.056782 y199.861174
g1 x95.057337 y199.859466
g1 x95.056782 y199.861174
g1 x95.045195 y199.858201
g1 x95.045529 y199.856449
g1 x95.045195 y199.858201
g1 x95.032879 y199.856649
g1 x95.03299 y199.854882
g1 x95.032879 y199.856649
g1 x95.020235 y199.856649
g0 z5
(Block-name: path167-3-7)
(Block-expand: 0)
(Block-enable: 0)

(End cutting path id: path167-3-7)


(Start cutting path id: path167-3-7)
(Change tool to Default tool)

G0 Z5
G0 X74.963757 Y198.956649

G1 Z-0.125 F100
G1 X74.839157 Y198.972349 Z-0.125 F400
G1 X74.717557 Y199.003549 Z-0.125
G1 X74.600757 Y199.049849 Z-0.125
G1 X74.490757 Y199.110349 Z-0.125
G1 X74.389157 Y199.184149 Z-0.125
G1 X74.297557 Y199.270049 Z-0.125
G1 X74.217557 Y199.366849 Z-0.125
G1 X74.150257 Y199.472849 Z-0.125
G1 X74.096757 Y199.586549 Z-0.125
G1 X74.057957 Y199.705949 Z-0.125
G1 X74.034457 Y199.829349 Z-0.125
G1 X74.026457 Y199.954649 Z-0.125
G1 X74.034457 Y200.079949 Z-0.125
G1 X74.057957 Y200.203349 Z-0.125
G1 X74.096757 Y200.322749 Z-0.125
G1 X74.150257 Y200.436449 Z-0.125
G1 X74.217557 Y200.542449 Z-0.125
G1 X74.297557 Y200.639149 Z-0.125
G1 X74.389157 Y200.725149 Z-0.125
G1 X74.490757 Y200.798949 Z-0.125
G1 X74.600757 Y200.859449 Z-0.125
G1 X74.717557 Y200.905649 Z-0.125
G1 X74.839157 Y200.936949 Z-0.125
G1 X74.963757 Y200.952649 Z-0.125
G1 X75.089357 Y200.952649 Z-0.125
G1 X75.213957 Y200.936949 Z-0.125
G1 X75.335557 Y200.905649 Z-0.125
G1 X75.452357 Y200.859449 Z-0.125
G1 X75.562357 Y200.798949 Z-0.125
G1 X75.663957 Y200.725149 Z-0.125
G1 X75.755557 Y200.639149 Z-0.125
G1 X75.835557 Y200.542449 Z-0.125
G1 X75.902857 Y200.436449 Z-0.125
G1 X75.956357 Y200.322749 Z-0.125
G1 X75.995157 Y200.203349 Z-0.125
G1 X76.018657 Y200.079949 Z-0.125
G1 X76.026657 Y199.954649 Z-0.125
G1 X76.018657 Y199.829349 Z-0.125
G1 X75.995157 Y199.705949 Z-0.125
G1 X75.956357 Y199.586549 Z-0.125
G1 X75.902857 Y199.472849 Z-0.125
G1 X75.835557 Y199.366849 Z-0.125
G1 X75.755557 Y199.270049 Z-0.125
G1 X75.663957 Y199.184149 Z-0.125
G1 X75.562357 Y199.110349 Z-0.125
G1 X75.452357 Y199.049849 Z-0.125
G1 X75.335557 Y199.003549 Z-0.125
G1 X75.213957 Y198.972349 Z-0.125
G1 X75.089357 Y198.956649 Z-0.125
G1 X74.963757 Y198.956649 Z-0.125
G0 Z5
(Block-name: path167-3-7 [in,cut])
(Block-expand: 0)
(Block-enable: 1)
g0 x75.020235 y199.856649
g1 z-1 f300
g1 x75.020124 y199.854882 f650
g1 x75.020235 y199.856649
g1 x75.007919 y199.858201
g1 x75.007585 y199.856449
g1 x75.007919 y199.858201
g1 x74.996332 y199.861174
g1 x74.995777 y199.859466
g1 x74.996332 y199.861174
g1 x74.984958 y199.865683
g1 x74.984203 y199.864078
g1 x74.984958 y199.865683
g1 x74.973981 y199.87172
g1 x74.973032 y199.870225
g1 x74.973981 y199.87172
g1 x74.963687 y199.879197
g1 x74.962563 y199.877838
g1 x74.963687 y199.879197
g1 x74.95489 y199.887447
g1 x74.953569 y199.886205
g1 x74.95489 y199.887447
g1 x74.947172 y199.896786
g1 x74.945748 y199.895752
g1 x74.947172 y199.896786
g1 x74.940459 y199.907359
g1 x74.938894 y199.906499
g1 x74.940459 y199.907359
g1 x74.935207 y199.918521
g1 x74.933554 y199.917866
g1 x74.935207 y199.918521
g1 x74.931446 y199.930094
g1 x74.929713 y199.929649
g1 x74.931446 y199.930094
g1 x74.929056 y199.942644
g1 x74.927325 y199.942424
g1 x74.929056 y199.942644
g1 x74.92829 y199.954649
g1 x74.926457 y199.954649
g1 x74.92829 y199.954649
g1 x74.929056 y199.966654
g1 x74.927325 y199.966874
g1 x74.929056 y199.966654
g1 x74.931446 y199.979204
g1 x74.929713 y199.979649
g1 x74.931446 y199.979204
g1 x74.935207 y199.990777
g1 x74.933554 y199.991432
g1 x74.935207 y199.990777
g1 x74.940459 y200.001939
g1 x74.938894 y200.002799
g1 x74.940459 y200.001939
g1 x74.947049 y200.012319
g1 x74.945614 y200.013362
g1 x74.947049 y200.012319
g1 x74.95489 y200.021797
g1 x74.953591 y200.023016
g1 x74.95489 y200.021797
g1 x74.963899 y200.030255
g1 x74.962765 y200.031626
g1 x74.963899 y200.030255
g1 x74.973981 y200.037578
g1 x74.973032 y200.039073
g1 x74.973981 y200.037578
g1 x74.984665 y200.043454
g1 x74.983901 y200.045078
g1 x74.984665 y200.043454
g1 x74.996333 y200.048069
g1 x74.995791 y200.049737
g1 x74.996333 y200.048069
g1 x75.008264 y200.051141
g1 x75.007926 y200.052914
g1 x75.008264 y200.051141
g1 x75.020235 y200.052649
g1 x75.020124 y200.054416
g1 x75.020235 y200.052649
g1 x75.032879 y200.052649
g1 x75.03299 y200.054416
g1 x75.032879 y200.052649
g1 x75.04485 y200.051141
g1 x75.045188 y200.052914
g1 x75.04485 y200.051141
g1 x75.056781 y200.048069
g1 x75.057323 y200.049737
g1 x75.056781 y200.048069
g1 x75.068449 y200.043454
g1 x75.069213 y200.045078
g1 x75.068449 y200.043454
g1 x75.079133 y200.037578
g1 x75.080082 y200.039073
g1 x75.079133 y200.037578
g1 x75.089215 y200.030255
g1 x75.090349 y200.031626
g1 x75.089215 y200.030255
g1 x75.098224 y200.021797
g1 x75.099523 y200.023016
g1 x75.098224 y200.021797
g1 x75.106065 y200.012319
g1 x75.1075 y200.013362
g1 x75.106065 y200.012319
g1 x75.112655 y200.001939
g1 x75.11422 y200.002799
g1 x75.112655 y200.001939
g1 x75.117907 y199.990777
g1 x75.11956 y199.991432
g1 x75.117907 y199.990777
g1 x75.121668 y199.979204
g1 x75.123401 y199.979649
g1 x75.121668 y199.979204
g1 x75.124058 y199.966654
g1 x75.125789 y199.966874
g1 x75.124058 y199.966654
g1 x75.124824 y199.954649
g1 x75.126657 y199.954649
g1 x75.124824 y199.954649
g1 x75.124058 y199.942644
g1 x75.125789 y199.942424
g1 x75.124058 y199.942644
g1 x75.121668 y199.930094
g1 x75.123401 y199.929649
g1 x75.121668 y199.930094
g1 x75.117907 y199.918521
g1 x75.11956 y199.917866
g1 x75.117907 y199.918521
g1 x75.112655 y199.907359
g1 x75.11422 y199.906499
g1 x75.112655 y199.907359
g1 x75.105942 y199.896786
g1 x75.107366 y199.895752
g1 x75.105942 y199.896786
g1 x75.098224 y199.887447
g1 x75.099545 y199.886205
g1 x75.098224 y199.887447
g1 x75.089427 y199.879197
g1 x75.090551 y199.877838
g1 x75.089427 y199.879197
g1 x75.079133 y199.87172
g1 x75.080082 y199.870225
g1 x75.079133 y199.87172
g1 x75.068156 y199.865683
g1 x75.068911 y199.864078
g1 x75.068156 y199.865683
g1 x75.056782 y199.861174
g1 x75.057337 y199.859466
g1 x75.056782 y199.861174
g1 x75.045195 y199.858201
g1 x75.045529 y199.856449
g1 x75.045195 y199.858201
g1 x75.032879 y199.856649
g1 x75.03299 y199.854882
g1 x75.032879 y199.856649
g1 x75.020235 y199.856649
g1 z-2 f300
g1 x75.020124 y199.854882 f650
g1 x75.020235 y199.856649
g1 x75.007919 y199.858201
g1 x75.007585 y199.856449
g1 x75.007919 y199.858201
g1 x74.996332 y199.861174
g1 x74.995777 y199.859466
g1 x74.996332 y199.861174
g1 x74.984958 y199.865683
g1 x74.984203 y199.864078
g1 x74.984958 y199.865683
g1 x74.973981 y199.87172
g1 x74.973032 y199.870225
g1 x74.973981 y199.87172
g1 x74.963687 y199.879197
g1 x74.962563 y199.877838
g1 x74.963687 y199.879197
g1 x74.95489 y199.887447
g1 x74.953569 y199.886205
g1 x74.95489 y199.887447
g1 x74.947172 y199.896786
g1 x74.945748 y199.895752
g1 x74.947172 y199.896786
g1 x74.940459 y199.907359
g1 x74.938894 y199.906499
g1 x74.940459 y199.907359
g1 x74.935207 y199.918521
g1 x74.933554 y199.917866
g1 x74.935207 y199.918521
g1 x74.931446 y199.930094
g1 x74.929713 y199.929649
g1 x74.931446 y199.930094
g1 x74.929056 y199.942644
g1 x74.927325 y199.942424
g1 x74.929056 y199.942644
g1 x74.92829 y199.954649
g1 x74.926457 y199.954649
g1 x74.92829 y199.954649
g1 x74.929056 y199.966654
g1 x74.927325 y199.966874
g1 x74.929056 y199.966654
g1 x74.931446 y199.979204
g1 x74.929713 y199.979649
g1 x74.931446 y199.979204
g1 x74.935207 y199.990777
g1 x74.933554 y199.991432
g1 x74.935207 y199.990777
g1 x74.940459 y200.001939
g1 x74.938894 y200.002799
g1 x74.940459 y200.001939
g1 x74.947049 y200.012319
g1 x74.945614 y200.013362
g1 x74.947049 y200.012319
g1 x74.95489 y200.021797
g1 x74.953591 y200.023016
g1 x74.95489 y200.021797
g1 x74.963899 y200.030255
g1 x74.962765 y200.031626
g1 x74.963899 y200.030255
g1 x74.973981 y200.037578
g1 x74.973032 y200.039073
g1 x74.973981 y200.037578
g1 x74.984665 y200.043454
g1 x74.983901 y200.045078
g1 x74.984665 y200.043454
g1 x74.996333 y200.048069
g1 x74.995791 y200.049737
g1 x74.996333 y200.048069
g1 x75.008264 y200.051141
g1 x75.007926 y200.052914
g1 x75.008264 y200.051141
g1 x75.020235 y200.052649
g1 x75.020124 y200.054416
g1 x75.020235 y200.052649
g1 x75.032879 y200.052649
g1 x75.03299 y200.054416
g1 x75.032879 y200.052649
g1 x75.04485 y200.051141
g1 x75.045188 y200.052914
g1 x75.04485 y200.051141
g1 x75.056781 y200.048069
g1 x75.057323 y200.049737
g1 x75.056781 y200.048069
g1 x75.068449 y200.043454
g1 x75.069213 y200.045078
g1 x75.068449 y200.043454
g1 x75.079133 y200.037578
g1 x75.080082 y200.039073
g1 x75.079133 y200.037578
g1 x75.089215 y200.030255
g1 x75.090349 y200.031626
g1 x75.089215 y200.030255
g1 x75.098224 y200.021797
g1 x75.099523 y200.023016
g1 x75.098224 y200.021797
g1 x75.106065 y200.012319
g1 x75.1075 y200.013362
g1 x75.106065 y200.012319
g1 x75.112655 y200.001939
g1 x75.11422 y200.002799
g1 x75.112655 y200.001939
g1 x75.117907 y199.990777
g1 x75.11956 y199.991432
g1 x75.117907 y199.990777
g1 x75.121668 y199.979204
g1 x75.123401 y199.979649
g1 x75.121668 y199.979204
g1 x75.124058 y199.966654
g1 x75.125789 y199.966874
g1 x75.124058 y199.966654
g1 x75.124824 y199.954649
g1 x75.126657 y199.954649
g1 x75.124824 y199.954649
g1 x75.124058 y199.942644
g1 x75.125789 y199.942424
g1 x75.124058 y199.942644
g1 x75.121668 y199.930094
g1 x75.123401 y199.929649
g1 x75.121668 y199.930094
g1 x75.117907 y199.918521
g1 x75.11956 y199.917866
g1 x75.117907 y199.918521
g1 x75.112655 y199.907359
g1 x75.11422 y199.906499
g1 x75.112655 y199.907359
g1 x75.105942 y199.896786
g1 x75.107366 y199.895752
g1 x75.105942 y199.896786
g1 x75.098224 y199.887447
g1 x75.099545 y199.886205
g1 x75.098224 y199.887447
g1 x75.089427 y199.879197
g1 x75.090551 y199.877838
g1 x75.089427 y199.879197
g1 x75.079133 y199.87172
g1 x75.080082 y199.870225
g1 x75.079133 y199.87172
g1 x75.068156 y199.865683
g1 x75.068911 y199.864078
g1 x75.068156 y199.865683
g1 x75.056782 y199.861174
g1 x75.057337 y199.859466
g1 x75.056782 y199.861174
g1 x75.045195 y199.858201
g1 x75.045529 y199.856449
g1 x75.045195 y199.858201
g1 x75.032879 y199.856649
g1 x75.03299 y199.854882
g1 x75.032879 y199.856649
g1 x75.020235 y199.856649
g1 z-3 f300
g1 x75.020124 y199.854882 f650
g1 x75.020235 y199.856649
g1 x75.007919 y199.858201
g1 x75.007585 y199.856449
g1 x75.007919 y199.858201
g1 x74.996332 y199.861174
g1 x74.995777 y199.859466
g1 x74.996332 y199.861174
g1 x74.984958 y199.865683
g1 x74.984203 y199.864078
g1 x74.984958 y199.865683
g1 x74.973981 y199.87172
g1 x74.973032 y199.870225
g1 x74.973981 y199.87172
g1 x74.963687 y199.879197
g1 x74.962563 y199.877838
g1 x74.963687 y199.879197
g1 x74.95489 y199.887447
g1 x74.953569 y199.886205
g1 x74.95489 y199.887447
g1 x74.947172 y199.896786
g1 x74.945748 y199.895752
g1 x74.947172 y199.896786
g1 x74.940459 y199.907359
g1 x74.938894 y199.906499
g1 x74.940459 y199.907359
g1 x74.935207 y199.918521
g1 x74.933554 y199.917866
g1 x74.935207 y199.918521
g1 x74.931446 y199.930094
g1 x74.929713 y199.929649
g1 x74.931446 y199.930094
g1 x74.929056 y199.942644
g1 x74.927325 y199.942424
g1 x74.929056 y199.942644
g1 x74.92829 y199.954649
g1 x74.926457 y199.954649
g1 x74.92829 y199.954649
g1 x74.929056 y199.966654
g1 x74.927325 y199.966874
g1 x74.929056 y199.966654
g1 x74.931446 y199.979204
g1 x74.929713 y199.979649
g1 x74.931446 y199.979204
g1 x74.935207 y199.990777
g1 x74.933554 y199.991432
g1 x74.935207 y199.990777
g1 x74.940459 y200.001939
g1 x74.938894 y200.002799
g1 x74.940459 y200.001939
g1 x74.947049 y200.012319
g1 x74.945614 y200.013362
g1 x74.947049 y200.012319
g1 x74.95489 y200.021797
g1 x74.953591 y200.023016
g1 x74.95489 y200.021797
g1 x74.963899 y200.030255
g1 x74.962765 y200.031626
g1 x74.963899 y200.030255
g1 x74.973981 y200.037578
g1 x74.973032 y200.039073
g1 x74.973981 y200.037578
g1 x74.984665 y200.043454
g1 x74.983901 y200.045078
g1 x74.984665 y200.043454
g1 x74.996333 y200.048069
g1 x74.995791 y200.049737
g1 x74.996333 y200.048069
g1 x75.008264 y200.051141
g1 x75.007926 y200.052914
g1 x75.008264 y200.051141
g1 x75.020235 y200.052649
g1 x75.020124 y200.054416
g1 x75.020235 y200.052649
g1 x75.032879 y200.052649
g1 x75.03299 y200.054416
g1 x75.032879 y200.052649
g1 x75.04485 y200.051141
g1 x75.045188 y200.052914
g1 x75.04485 y200.051141
g1 x75.056781 y200.048069
g1 x75.057323 y200.049737
g1 x75.056781 y200.048069
g1 x75.068449 y200.043454
g1 x75.069213 y200.045078
g1 x75.068449 y200.043454
g1 x75.079133 y200.037578
g1 x75.080082 y200.039073
g1 x75.079133 y200.037578
g1 x75.089215 y200.030255
g1 x75.090349 y200.031626
g1 x75.089215 y200.030255
g1 x75.098224 y200.021797
g1 x75.099523 y200.023016
g1 x75.098224 y200.021797
g1 x75.106065 y200.012319
g1 x75.1075 y200.013362
g1 x75.106065 y200.012319
g1 x75.112655 y200.001939
g1 x75.11422 y200.002799
g1 x75.112655 y200.001939
g1 x75.117907 y199.990777
g1 x75.11956 y199.991432
g1 x75.117907 y199.990777
g1 x75.121668 y199.979204
g1 x75.123401 y199.979649
g1 x75.121668 y199.979204
g1 x75.124058 y199.966654
g1 x75.125789 y199.966874
g1 x75.124058 y199.966654
g1 x75.124824 y199.954649
g1 x75.126657 y199.954649
g1 x75.124824 y199.954649
g1 x75.124058 y199.942644
g1 x75.125789 y199.942424
g1 x75.124058 y199.942644
g1 x75.121668 y199.930094
g1 x75.123401 y199.929649
g1 x75.121668 y199.930094
g1 x75.117907 y199.918521
g1 x75.11956 y199.917866
g1 x75.117907 y199.918521
g1 x75.112655 y199.907359
g1 x75.11422 y199.906499
g1 x75.112655 y199.907359
g1 x75.105942 y199.896786
g1 x75.107366 y199.895752
g1 x75.105942 y199.896786
g1 x75.098224 y199.887447
g1 x75.099545 y199.886205
g1 x75.098224 y199.887447
g1 x75.089427 y199.879197
g1 x75.090551 y199.877838
g1 x75.089427 y199.879197
g1 x75.079133 y199.87172
g1 x75.080082 y199.870225
g1 x75.079133 y199.87172
g1 x75.068156 y199.865683
g1 x75.068911 y199.864078
g1 x75.068156 y199.865683
g1 x75.056782 y199.861174
g1 x75.057337 y199.859466
g1 x75.056782 y199.861174
g1 x75.045195 y199.858201
g1 x75.045529 y199.856449
g1 x75.045195 y199.858201
g1 x75.032879 y199.856649
g1 x75.03299 y199.854882
g1 x75.032879 y199.856649
g1 x75.020235 y199.856649
g0 z5
(Block-name: path167-3)
(Block-expand: 0)
(Block-enable: 0)

(End cutting path id: path167-3)


(Start cutting path id: path167-3)
(Change tool to Default tool)

G0 Z5
G0 X75.380657 Y159.933049

G1 Z-0.125 F100
G1 X75.256057 Y159.948749 Z-0.125 F400
G1 X75.134457 Y159.979949 Z-0.125
G1 X75.017657 Y160.026249 Z-0.125
G1 X74.907657 Y160.086749 Z-0.125
G1 X74.806057 Y160.160549 Z-0.125
G1 X74.714457 Y160.246449 Z-0.125
G1 X74.634457 Y160.343249 Z-0.125
G1 X74.567157 Y160.449249 Z-0.125
G1 X74.513657 Y160.562949 Z-0.125
G1 X74.474857 Y160.682349 Z-0.125
G1 X74.451357 Y160.805749 Z-0.125
G1 X74.443357 Y160.931049 Z-0.125
G1 X74.451357 Y161.056349 Z-0.125
G1 X74.474857 Y161.179749 Z-0.125
G1 X74.513657 Y161.299149 Z-0.125
G1 X74.567157 Y161.412849 Z-0.125
G1 X74.634457 Y161.518849 Z-0.125
G1 X74.714457 Y161.615549 Z-0.125
G1 X74.806057 Y161.701549 Z-0.125
G1 X74.907657 Y161.775349 Z-0.125
G1 X75.017657 Y161.835849 Z-0.125
G1 X75.134457 Y161.882049 Z-0.125
G1 X75.256057 Y161.913349 Z-0.125
G1 X75.380657 Y161.929049 Z-0.125
G1 X75.506257 Y161.929049 Z-0.125
G1 X75.630857 Y161.913349 Z-0.125
G1 X75.752457 Y161.882049 Z-0.125
G1 X75.869257 Y161.835849 Z-0.125
G1 X75.979257 Y161.775349 Z-0.125
G1 X76.080857 Y161.701549 Z-0.125
G1 X76.172457 Y161.615549 Z-0.125
G1 X76.252457 Y161.518849 Z-0.125
G1 X76.319757 Y161.412849 Z-0.125
G1 X76.373257 Y161.299149 Z-0.125
G1 X76.412057 Y161.179749 Z-0.125
G1 X76.435557 Y161.056349 Z-0.125
G1 X76.443557 Y160.931049 Z-0.125
G1 X76.435557 Y160.805749 Z-0.125
G1 X76.412057 Y160.682349 Z-0.125
G1 X76.373257 Y160.562949 Z-0.125
G1 X76.319757 Y160.449249 Z-0.125
G1 X76.252457 Y160.343249 Z-0.125
G1 X76.172457 Y160.246449 Z-0.125
G1 X76.080857 Y160.160549 Z-0.125
G1 X75.979257 Y160.086749 Z-0.125
G1 X75.869257 Y160.026249 Z-0.125
G1 X75.752457 Y159.979949 Z-0.125
G1 X75.630857 Y159.948749 Z-0.125
G1 X75.506257 Y159.933049 Z-0.125
G1 X75.380657 Y159.933049 Z-0.125
G0 Z5
(Block-name: path167-3 [in,cut])
(Block-expand: 0)
(Block-enable: 1)
g0 x75.437135 y160.833049
g1 z-1 f300
g1 x75.437024 y160.831282 f650
g1 x75.437135 y160.833049
g1 x75.424819 y160.834601
g1 x75.424485 y160.832849
g1 x75.424819 y160.834601
g1 x75.413232 y160.837574
g1 x75.412677 y160.835866
g1 x75.413232 y160.837574
g1 x75.401858 y160.842083
g1 x75.401103 y160.840478
g1 x75.401858 y160.842083
g1 x75.390881 y160.84812
g1 x75.389932 y160.846625
g1 x75.390881 y160.84812
g1 x75.380587 y160.855597
g1 x75.379463 y160.854238
g1 x75.380587 y160.855597
g1 x75.37179 y160.863847
g1 x75.370469 y160.862605
g1 x75.37179 y160.863847
g1 x75.364072 y160.873186
g1 x75.362648 y160.872152
g1 x75.364072 y160.873186
g1 x75.357359 y160.883759
g1 x75.355794 y160.882899
g1 x75.357359 y160.883759
g1 x75.352107 y160.894921
g1 x75.350454 y160.894266
g1 x75.352107 y160.894921
g1 x75.348346 y160.906494
g1 x75.346613 y160.906049
g1 x75.348346 y160.906494
g1 x75.345956 y160.919044
g1 x75.344225 y160.918824
g1 x75.345956 y160.919044
g1 x75.34519 y160.931049
g1 x75.343357 y160.931049
g1 x75.34519 y160.931049
g1 x75.345956 y160.943054
g1 x75.344225 y160.943274
g1 x75.345956 y160.943054
g1 x75.348346 y160.955604
g1 x75.346613 y160.956049
g1 x75.348346 y160.955604
g1 x75.352107 y160.967177
g1 x75.350454 y160.967832
g1 x75.352107 y160.967177
g1 x75.357359 y160.978339
g1 x75.355794 y160.979199
g1 x75.357359 y160.978339
g1 x75.363949 y160.988719
g1 x75.362514 y160.989762
g1 x75.363949 y160.988719
g1 x75.37179 y160.998197
g1 x75.370491 y160.999416
g1 x75.37179 y160.998197
g1 x75.380799 y161.006655
g1 x75.379665 y161.008026
g1 x75.380799 y161.006655
g1 x75.390881 y161.013978
g1 x75.389932 y161.015473
g1 x75.390881 y161.013978
g1 x75.401565 y161.019854
g1 x75.400801 y161.021478
g1 x75.401565 y161.019854
g1 x75.413233 y161.024469
g1 x75.412691 y161.026137
g1 x75.413233 y161.024469
g1 x75.425164 y161.027541
g1 x75.424826 y161.029314
g1 x75.425164 y161.027541
g1 x75.437135 y161.029049
g1 x75.437024 y161.030816
g1 x75.437135 y161.029049
g1 x75.449779 y161.029049
g1 x75.44989 y161.030816
g1 x75.449779 y161.029049
g1 x75.46175 y161.027541
g1 x75.462088 y161.029314
g1 x75.46175 y161.027541
g1 x75.473681 y161.024469
g1 x75.474223 y161.026137
g1 x75.473681 y161.024469
g1 x75.485349 y161.019854
g1 x75.486113 y161.021478
g1 x75.485349 y161.019854
g1 x75.496033 y161.013978
g1 x75.496982 y161.015473
g1 x75.496033 y161.013978
g1 x75.506115 y161.006655
g1 x75.507249 y161.008026
g1 x75.506115 y161.006655
g1 x75.515124 y160.998197
g1 x75.516423 y160.999416
g1 x75.515124 y160.998197
g1 x75.522965 y160.988719
g1 x75.5244 y160.989762
g1 x75.522965 y160.988719
g1 x75.529555 y160.978339
g1 x75.53112 y160.979199
g1 x75.529555 y160.978339
g1 x75.534807 y160.967177
g1 x75.53646 y160.967832
g1 x75.534807 y160.967177
g1 x75.538568 y160.955604
g1 x75.540301 y160.956049
g1 x75.538568 y160.955604
g1 x75.540958 y160.943054
g1 x75.542689 y160.943274
g1 x75.540958 y160.943054
g1 x75.541724 y160.931049
g1 x75.543557 y160.931049
g1 x75.541724 y160.931049
g1 x75.540958 y160.919044
g1 x75.542689 y160.918824
g1 x75.540958 y160.919044
g1 x75.538568 y160.906494
g1 x75.540301 y160.906049
g1 x75.538568 y160.906494
g1 x75.534807 y160.894921
g1 x75.53646 y160.894266
g1 x75.534807 y160.894921
g1 x75.529555 y160.883759
g1 x75.53112 y160.882899
g1 x75.529555 y160.883759
g1 x75.522842 y160.873186
g1 x75.524266 y160.872152
g1 x75.522842 y160.873186
g1 x75.515124 y160.863847
g1 x75.516445 y160.862605
g1 x75.515124 y160.863847
g1 x75.506327 y160.855597
g1 x75.507451 y160.854238
g1 x75.506327 y160.855597
g1 x75.496033 y160.84812
g1 x75.496982 y160.846625
g1 x75.496033 y160.84812
g1 x75.485056 y160.842083
g1 x75.485811 y160.840478
g1 x75.485056 y160.842083
g1 x75.473682 y160.837574
g1 x75.474237 y160.835866
g1 x75.473682 y160.837574
g1 x75.462095 y160.834601
g1 x75.462429 y160.832849
g1 x75.462095 y160.834601
g1 x75.449779 y160.833049
g1 x75.44989 y160.831282
g1 x75.449779 y160.833049
g1 x75.437135 y160.833049
g1 z-2 f300
g1 x75.437024 y160.831282 f650
g1 x75.437135 y160.833049
g1 x75.424819 y160.834601
g1 x75.424485 y160.832849
g1 x75.424819 y160.834601
g1 x75.413232 y160.837574
g1 x75.412677 y160.835866
g1 x75.413232 y160.837574
g1 x75.401858 y160.842083
g1 x75.401103 y160.840478
g1 x75.401858 y160.842083
g1 x75.390881 y160.84812
g1 x75.389932 y160.846625
g1 x75.390881 y160.84812
g1 x75.380587 y160.855597
g1 x75.379463 y160.854238
g1 x75.380587 y160.855597
g1 x75.37179 y160.863847
g1 x75.370469 y160.862605
g1 x75.37179 y160.863847
g1 x75.364072 y160.873186
g1 x75.362648 y160.872152
g1 x75.364072 y160.873186
g1 x75.357359 y160.883759
g1 x75.355794 y160.882899
g1 x75.357359 y160.883759
g1 x75.352107 y160.894921
g1 x75.350454 y160.894266
g1 x75.352107 y160.894921
g1 x75.348346 y160.906494
g1 x75.346613 y160.906049
g1 x75.348346 y160.906494
g1 x75.345956 y160.919044
g1 x75.344225 y160.918824
g1 x75.345956 y160.919044
g1 x75.34519 y160.931049
g1 x75.343357 y160.931049
g1 x75.34519 y160.931049
g1 x75.345956 y160.943054
g1 x75.344225 y160.943274
g1 x75.345956 y160.943054
g1 x75.348346 y160.955604
g1 x75.346613 y160.956049
g1 x75.348346 y160.955604
g1 x75.352107 y160.967177
g1 x75.350454 y160.967832
g1 x75.352107 y160.967177
g1 x75.357359 y160.978339
g1 x75.355794 y160.979199
g1 x75.357359 y160.978339
g1 x75.363949 y160.988719
g1 x75.362514 y160.989762
g1 x75.363949 y160.988719
g1 x75.37179 y160.998197
g1 x75.370491 y160.999416
g1 x75.37179 y160.998197
g1 x75.380799 y161.006655
g1 x75.379665 y161.008026
g1 x75.380799 y161.006655
g1 x75.390881 y161.013978
g1 x75.389932 y161.015473
g1 x75.390881 y161.013978
g1 x75.401565 y161.019854
g1 x75.400801 y161.021478
g1 x75.401565 y161.019854
g1 x75.413233 y161.024469
g1 x75.412691 y161.026137
g1 x75.413233 y161.024469
g1 x75.425164 y161.027541
g1 x75.424826 y161.029314
g1 x75.425164 y161.027541
g1 x75.437135 y161.029049
g1 x75.437024 y161.030816
g1 x75.437135 y161.029049
g1 x75.449779 y161.029049
g1 x75.44989 y161.030816
g1 x75.449779 y161.029049
g1 x75.46175 y161.027541
g1 x75.462088 y161.029314
g1 x75.46175 y161.027541
g1 x75.473681 y161.024469
g1 x75.474223 y161.026137
g1 x75.473681 y161.024469
g1 x75.485349 y161.019854
g1 x75.486113 y161.021478
g1 x75.485349 y161.019854
g1 x75.496033 y161.013978
g1 x75.496982 y161.015473
g1 x75.496033 y161.013978
g1 x75.506115 y161.006655
g1 x75.507249 y161.008026
g1 x75.506115 y161.006655
g1 x75.515124 y160.998197
g1 x75.516423 y160.999416
g1 x75.515124 y160.998197
g1 x75.522965 y160.988719
g1 x75.5244 y160.989762
g1 x75.522965 y160.988719
g1 x75.529555 y160.978339
g1 x75.53112 y160.979199
g1 x75.529555 y160.978339
g1 x75.534807 y160.967177
g1 x75.53646 y160.967832
g1 x75.534807 y160.967177
g1 x75.538568 y160.955604
g1 x75.540301 y160.956049
g1 x75.538568 y160.955604
g1 x75.540958 y160.943054
g1 x75.542689 y160.943274
g1 x75.540958 y160.943054
g1 x75.541724 y160.931049
g1 x75.543557 y160.931049
g1 x75.541724 y160.931049
g1 x75.540958 y160.919044
g1 x75.542689 y160.918824
g1 x75.540958 y160.919044
g1 x75.538568 y160.906494
g1 x75.540301 y160.906049
g1 x75.538568 y160.906494
g1 x75.534807 y160.894921
g1 x75.53646 y160.894266
g1 x75.534807 y160.894921
g1 x75.529555 y160.883759
g1 x75.53112 y160.882899
g1 x75.529555 y160.883759
g1 x75.522842 y160.873186
g1 x75.524266 y160.872152
g1 x75.522842 y160.873186
g1 x75.515124 y160.863847
g1 x75.516445 y160.862605
g1 x75.515124 y160.863847
g1 x75.506327 y160.855597
g1 x75.507451 y160.854238
g1 x75.506327 y160.855597
g1 x75.496033 y160.84812
g1 x75.496982 y160.846625
g1 x75.496033 y160.84812
g1 x75.485056 y160.842083
g1 x75.485811 y160.840478
g1 x75.485056 y160.842083
g1 x75.473682 y160.837574
g1 x75.474237 y160.835866
g1 x75.473682 y160.837574
g1 x75.462095 y160.834601
g1 x75.462429 y160.832849
g1 x75.462095 y160.834601
g1 x75.449779 y160.833049
g1 x75.44989 y160.831282
g1 x75.449779 y160.833049
g1 x75.437135 y160.833049
g1 z-3 f300
g1 x75.437024 y160.831282 f650
g1 x75.437135 y160.833049
g1 x75.424819 y160.834601
g1 x75.424485 y160.832849
g1 x75.424819 y160.834601
g1 x75.413232 y160.837574
g1 x75.412677 y160.835866
g1 x75.413232 y160.837574
g1 x75.401858 y160.842083
g1 x75.401103 y160.840478
g1 x75.401858 y160.842083
g1 x75.390881 y160.84812
g1 x75.389932 y160.846625
g1 x75.390881 y160.84812
g1 x75.380587 y160.855597
g1 x75.379463 y160.854238
g1 x75.380587 y160.855597
g1 x75.37179 y160.863847
g1 x75.370469 y160.862605
g1 x75.37179 y160.863847
g1 x75.364072 y160.873186
g1 x75.362648 y160.872152
g1 x75.364072 y160.873186
g1 x75.357359 y160.883759
g1 x75.355794 y160.882899
g1 x75.357359 y160.883759
g1 x75.352107 y160.894921
g1 x75.350454 y160.894266
g1 x75.352107 y160.894921
g1 x75.348346 y160.906494
g1 x75.346613 y160.906049
g1 x75.348346 y160.906494
g1 x75.345956 y160.919044
g1 x75.344225 y160.918824
g1 x75.345956 y160.919044
g1 x75.34519 y160.931049
g1 x75.343357 y160.931049
g1 x75.34519 y160.931049
g1 x75.345956 y160.943054
g1 x75.344225 y160.943274
g1 x75.345956 y160.943054
g1 x75.348346 y160.955604
g1 x75.346613 y160.956049
g1 x75.348346 y160.955604
g1 x75.352107 y160.967177
g1 x75.350454 y160.967832
g1 x75.352107 y160.967177
g1 x75.357359 y160.978339
g1 x75.355794 y160.979199
g1 x75.357359 y160.978339
g1 x75.363949 y160.988719
g1 x75.362514 y160.989762
g1 x75.363949 y160.988719
g1 x75.37179 y160.998197
g1 x75.370491 y160.999416
g1 x75.37179 y160.998197
g1 x75.380799 y161.006655
g1 x75.379665 y161.008026
g1 x75.380799 y161.006655
g1 x75.390881 y161.013978
g1 x75.389932 y161.015473
g1 x75.390881 y161.013978
g1 x75.401565 y161.019854
g1 x75.400801 y161.021478
g1 x75.401565 y161.019854
g1 x75.413233 y161.024469
g1 x75.412691 y161.026137
g1 x75.413233 y161.024469
g1 x75.425164 y161.027541
g1 x75.424826 y161.029314
g1 x75.425164 y161.027541
g1 x75.437135 y161.029049
g1 x75.437024 y161.030816
g1 x75.437135 y161.029049
g1 x75.449779 y161.029049
g1 x75.44989 y161.030816
g1 x75.449779 y161.029049
g1 x75.46175 y161.027541
g1 x75.462088 y161.029314
g1 x75.46175 y161.027541
g1 x75.473681 y161.024469
g1 x75.474223 y161.026137
g1 x75.473681 y161.024469
g1 x75.485349 y161.019854
g1 x75.486113 y161.021478
g1 x75.485349 y161.019854
g1 x75.496033 y161.013978
g1 x75.496982 y161.015473
g1 x75.496033 y161.013978
g1 x75.506115 y161.006655
g1 x75.507249 y161.008026
g1 x75.506115 y161.006655
g1 x75.515124 y160.998197
g1 x75.516423 y160.999416
g1 x75.515124 y160.998197
g1 x75.522965 y160.988719
g1 x75.5244 y160.989762
g1 x75.522965 y160.988719
g1 x75.529555 y160.978339
g1 x75.53112 y160.979199
g1 x75.529555 y160.978339
g1 x75.534807 y160.967177
g1 x75.53646 y160.967832
g1 x75.534807 y160.967177
g1 x75.538568 y160.955604
g1 x75.540301 y160.956049
g1 x75.538568 y160.955604
g1 x75.540958 y160.943054
g1 x75.542689 y160.943274
g1 x75.540958 y160.943054
g1 x75.541724 y160.931049
g1 x75.543557 y160.931049
g1 x75.541724 y160.931049
g1 x75.540958 y160.919044
g1 x75.542689 y160.918824
g1 x75.540958 y160.919044
g1 x75.538568 y160.906494
g1 x75.540301 y160.906049
g1 x75.538568 y160.906494
g1 x75.534807 y160.894921
g1 x75.53646 y160.894266
g1 x75.534807 y160.894921
g1 x75.529555 y160.883759
g1 x75.53112 y160.882899
g1 x75.529555 y160.883759
g1 x75.522842 y160.873186
g1 x75.524266 y160.872152
g1 x75.522842 y160.873186
g1 x75.515124 y160.863847
g1 x75.516445 y160.862605
g1 x75.515124 y160.863847
g1 x75.506327 y160.855597
g1 x75.507451 y160.854238
g1 x75.506327 y160.855597
g1 x75.496033 y160.84812
g1 x75.496982 y160.846625
g1 x75.496033 y160.84812
g1 x75.485056 y160.842083
g1 x75.485811 y160.840478
g1 x75.485056 y160.842083
g1 x75.473682 y160.837574
g1 x75.474237 y160.835866
g1 x75.473682 y160.837574
g1 x75.462095 y160.834601
g1 x75.462429 y160.832849
g1 x75.462095 y160.834601
g1 x75.449779 y160.833049
g1 x75.44989 y160.831282
g1 x75.449779 y160.833049
g1 x75.437135 y160.833049
g0 z5
(Block-name: path167-3)
(Block-expand: 0)
(Block-enable: 0)

(End cutting path id: path167-3)


(Start cutting path id: path167-3)
(Change tool to Default tool)

G0 Z5
G0 X95.380657 Y159.933049

G1 Z-0.125 F100
G1 X95.256057 Y159.948749 Z-0.125 F400
G1 X95.134457 Y159.979949 Z-0.125
G1 X95.017657 Y160.026249 Z-0.125
G1 X94.907657 Y160.086749 Z-0.125
G1 X94.806057 Y160.160549 Z-0.125
G1 X94.714457 Y160.246449 Z-0.125
G1 X94.634457 Y160.343249 Z-0.125
G1 X94.567157 Y160.449249 Z-0.125
G1 X94.513657 Y160.562949 Z-0.125
G1 X94.474857 Y160.682349 Z-0.125
G1 X94.451357 Y160.805749 Z-0.125
G1 X94.443357 Y160.931049 Z-0.125
G1 X94.451357 Y161.056349 Z-0.125
G1 X94.474857 Y161.179749 Z-0.125
G1 X94.513657 Y161.299149 Z-0.125
G1 X94.567157 Y161.412849 Z-0.125
G1 X94.634457 Y161.518849 Z-0.125
G1 X94.714457 Y161.615549 Z-0.125
G1 X94.806057 Y161.701549 Z-0.125
G1 X94.907657 Y161.775349 Z-0.125
G1 X95.017657 Y161.835849 Z-0.125
G1 X95.134457 Y161.882049 Z-0.125
G1 X95.256057 Y161.913349 Z-0.125
G1 X95.380657 Y161.929049 Z-0.125
G1 X95.506257 Y161.929049 Z-0.125
G1 X95.630857 Y161.913349 Z-0.125
G1 X95.752457 Y161.882049 Z-0.125
G1 X95.869257 Y161.835849 Z-0.125
G1 X95.979257 Y161.775349 Z-0.125
G1 X96.080857 Y161.701549 Z-0.125
G1 X96.172457 Y161.615549 Z-0.125
G1 X96.252457 Y161.518849 Z-0.125
G1 X96.319757 Y161.412849 Z-0.125
G1 X96.373257 Y161.299149 Z-0.125
G1 X96.412057 Y161.179749 Z-0.125
G1 X96.435557 Y161.056349 Z-0.125
G1 X96.443557 Y160.931049 Z-0.125
G1 X96.435557 Y160.805749 Z-0.125
G1 X96.412057 Y160.682349 Z-0.125
G1 X96.373257 Y160.562949 Z-0.125
G1 X96.319757 Y160.449249 Z-0.125
G1 X96.252457 Y160.343249 Z-0.125
G1 X96.172457 Y160.246449 Z-0.125
G1 X96.080857 Y160.160549 Z-0.125
G1 X95.979257 Y160.086749 Z-0.125
G1 X95.869257 Y160.026249 Z-0.125
G1 X95.752457 Y159.979949 Z-0.125
G1 X95.630857 Y159.948749 Z-0.125
G1 X95.506257 Y159.933049 Z-0.125
G1 X95.380657 Y159.933049 Z-0.125
G0 Z5
(Block-name: path167-3 [in,cut])
(Block-expand: 0)
(Block-enable: 1)
g0 x95.437135 y160.833049
g1 z-1 f300
g1 x95.437024 y160.831282 f650
g1 x95.437135 y160.833049
g1 x95.424819 y160.834601
g1 x95.424485 y160.832849
g1 x95.424819 y160.834601
g1 x95.413232 y160.837574
g1 x95.412677 y160.835866
g1 x95.413232 y160.837574
g1 x95.401858 y160.842083
g1 x95.401103 y160.840478
g1 x95.401858 y160.842083
g1 x95.390881 y160.84812
g1 x95.389932 y160.846625
g1 x95.390881 y160.84812
g1 x95.380587 y160.855597
g1 x95.379463 y160.854238
g1 x95.380587 y160.855597
g1 x95.37179 y160.863847
g1 x95.370469 y160.862605
g1 x95.37179 y160.863847
g1 x95.364072 y160.873186
g1 x95.362648 y160.872152
g1 x95.364072 y160.873186
g1 x95.357359 y160.883759
g1 x95.355794 y160.882899
g1 x95.357359 y160.883759
g1 x95.352107 y160.894921
g1 x95.350454 y160.894266
g1 x95.352107 y160.894921
g1 x95.348346 y160.906494
g1 x95.346613 y160.906049
g1 x95.348346 y160.906494
g1 x95.345956 y160.919044
g1 x95.344225 y160.918824
g1 x95.345956 y160.919044
g1 x95.34519 y160.931049
g1 x95.343357 y160.931049
g1 x95.34519 y160.931049
g1 x95.345956 y160.943054
g1 x95.344225 y160.943274
g1 x95.345956 y160.943054
g1 x95.348346 y160.955604
g1 x95.346613 y160.956049
g1 x95.348346 y160.955604
g1 x95.352107 y160.967177
g1 x95.350454 y160.967832
g1 x95.352107 y160.967177
g1 x95.357359 y160.978339
g1 x95.355794 y160.979199
g1 x95.357359 y160.978339
g1 x95.363949 y160.988719
g1 x95.362514 y160.989762
g1 x95.363949 y160.988719
g1 x95.37179 y160.998197
g1 x95.370491 y160.999416
g1 x95.37179 y160.998197
g1 x95.380799 y161.006655
g1 x95.379665 y161.008026
g1 x95.380799 y161.006655
g1 x95.390881 y161.013978
g1 x95.389932 y161.015473
g1 x95.390881 y161.013978
g1 x95.401565 y161.019854
g1 x95.400801 y161.021478
g1 x95.401565 y161.019854
g1 x95.413233 y161.024469
g1 x95.412691 y161.026137
g1 x95.413233 y161.024469
g1 x95.425164 y161.027541
g1 x95.424826 y161.029314
g1 x95.425164 y161.027541
g1 x95.437135 y161.029049
g1 x95.437024 y161.030816
g1 x95.437135 y161.029049
g1 x95.449779 y161.029049
g1 x95.44989 y161.030816
g1 x95.449779 y161.029049
g1 x95.46175 y161.027541
g1 x95.462088 y161.029314
g1 x95.46175 y161.027541
g1 x95.473681 y161.024469
g1 x95.474223 y161.026137
g1 x95.473681 y161.024469
g1 x95.485349 y161.019854
g1 x95.486113 y161.021478
g1 x95.485349 y161.019854
g1 x95.496033 y161.013978
g1 x95.496982 y161.015473
g1 x95.496033 y161.013978
g1 x95.506115 y161.006655
g1 x95.507249 y161.008026
g1 x95.506115 y161.006655
g1 x95.515124 y160.998197
g1 x95.516423 y160.999416
g1 x95.515124 y160.998197
g1 x95.522965 y160.988719
g1 x95.5244 y160.989762
g1 x95.522965 y160.988719
g1 x95.529555 y160.978339
g1 x95.53112 y160.979199
g1 x95.529555 y160.978339
g1 x95.534807 y160.967177
g1 x95.53646 y160.967832
g1 x95.534807 y160.967177
g1 x95.538568 y160.955604
g1 x95.540301 y160.956049
g1 x95.538568 y160.955604
g1 x95.540958 y160.943054
g1 x95.542689 y160.943274
g1 x95.540958 y160.943054
g1 x95.541724 y160.931049
g1 x95.543557 y160.931049
g1 x95.541724 y160.931049
g1 x95.540958 y160.919044
g1 x95.542689 y160.918824
g1 x95.540958 y160.919044
g1 x95.538568 y160.906494
g1 x95.540301 y160.906049
g1 x95.538568 y160.906494
g1 x95.534807 y160.894921
g1 x95.53646 y160.894266
g1 x95.534807 y160.894921
g1 x95.529555 y160.883759
g1 x95.53112 y160.882899
g1 x95.529555 y160.883759
g1 x95.522842 y160.873186
g1 x95.524266 y160.872152
g1 x95.522842 y160.873186
g1 x95.515124 y160.863847
g1 x95.516445 y160.862605
g1 x95.515124 y160.863847
g1 x95.506327 y160.855597
g1 x95.507451 y160.854238
g1 x95.506327 y160.855597
g1 x95.496033 y160.84812
g1 x95.496982 y160.846625
g1 x95.496033 y160.84812
g1 x95.485056 y160.842083
g1 x95.485811 y160.840478
g1 x95.485056 y160.842083
g1 x95.473682 y160.837574
g1 x95.474237 y160.835866
g1 x95.473682 y160.837574
g1 x95.462095 y160.834601
g1 x95.462429 y160.832849
g1 x95.462095 y160.834601
g1 x95.449779 y160.833049
g1 x95.44989 y160.831282
g1 x95.449779 y160.833049
g1 x95.437135 y160.833049
g1 z-2 f300
g1 x95.437024 y160.831282 f650
g1 x95.437135 y160.833049
g1 x95.424819 y160.834601
g1 x95.424485 y160.832849
g1 x95.424819 y160.834601
g1 x95.413232 y160.837574
g1 x95.412677 y160.835866
g1 x95.413232 y160.837574
g1 x95.401858 y160.842083
g1 x95.401103 y160.840478
g1 x95.401858 y160.842083
g1 x95.390881 y160.84812
g1 x95.389932 y160.846625
g1 x95.390881 y160.84812
g1 x95.380587 y160.855597
g1 x95.379463 y160.854238
g1 x95.380587 y160.855597
g1 x95.37179 y160.863847
g1 x95.370469 y160.862605
g1 x95.37179 y160.863847
g1 x95.364072 y160.873186
g1 x95.362648 y160.872152
g1 x95.364072 y160.873186
g1 x95.357359 y160.883759
g1 x95.355794 y160.882899
g1 x95.357359 y160.883759
g1 x95.352107 y160.894921
g1 x95.350454 y160.894266
g1 x95.352107 y160.894921
g1 x95.348346 y160.906494
g1 x95.346613 y160.906049
g1 x95.348346 y160.906494
g1 x95.345956 y160.919044
g1 x95.344225 y160.918824
g1 x95.345956 y160.919044
g1 x95.34519 y160.931049
g1 x95.343357 y160.931049
g1 x95.34519 y160.931049
g1 x95.345956 y160.943054
g1 x95.344225 y160.943274
g1 x95.345956 y160.943054
g1 x95.348346 y160.955604
g1 x95.346613 y160.956049
g1 x95.348346 y160.955604
g1 x95.352107 y160.967177
g1 x95.350454 y160.967832
g1 x95.352107 y160.967177
g1 x95.357359 y160.978339
g1 x95.355794 y160.979199
g1 x95.357359 y160.978339
g1 x95.363949 y160.988719
g1 x95.362514 y160.989762
g1 x95.363949 y160.988719
g1 x95.37179 y160.998197
g1 x95.370491 y160.999416
g1 x95.37179 y160.998197
g1 x95.380799 y161.006655
g1 x95.379665 y161.008026
g1 x95.380799 y161.006655
g1 x95.390881 y161.013978
g1 x95.389932 y161.015473
g1 x95.390881 y161.013978
g1 x95.401565 y161.019854
g1 x95.400801 y161.021478
g1 x95.401565 y161.019854
g1 x95.413233 y161.024469
g1 x95.412691 y161.026137
g1 x95.413233 y161.024469
g1 x95.425164 y161.027541
g1 x95.424826 y161.029314
g1 x95.425164 y161.027541
g1 x95.437135 y161.029049
g1 x95.437024 y161.030816
g1 x95.437135 y161.029049
g1 x95.449779 y161.029049
g1 x95.44989 y161.030816
g1 x95.449779 y161.029049
g1 x95.46175 y161.027541
g1 x95.462088 y161.029314
g1 x95.46175 y161.027541
g1 x95.473681 y161.024469
g1 x95.474223 y161.026137
g1 x95.473681 y161.024469
g1 x95.485349 y161.019854
g1 x95.486113 y161.021478
g1 x95.485349 y161.019854
g1 x95.496033 y161.013978
g1 x95.496982 y161.015473
g1 x95.496033 y161.013978
g1 x95.506115 y161.006655
g1 x95.507249 y161.008026
g1 x95.506115 y161.006655
g1 x95.515124 y160.998197
g1 x95.516423 y160.999416
g1 x95.515124 y160.998197
g1 x95.522965 y160.988719
g1 x95.5244 y160.989762
g1 x95.522965 y160.988719
g1 x95.529555 y160.978339
g1 x95.53112 y160.979199
g1 x95.529555 y160.978339
g1 x95.534807 y160.967177
g1 x95.53646 y160.967832
g1 x95.534807 y160.967177
g1 x95.538568 y160.955604
g1 x95.540301 y160.956049
g1 x95.538568 y160.955604
g1 x95.540958 y160.943054
g1 x95.542689 y160.943274
g1 x95.540958 y160.943054
g1 x95.541724 y160.931049
g1 x95.543557 y160.931049
g1 x95.541724 y160.931049
g1 x95.540958 y160.919044
g1 x95.542689 y160.918824
g1 x95.540958 y160.919044
g1 x95.538568 y160.906494
g1 x95.540301 y160.906049
g1 x95.538568 y160.906494
g1 x95.534807 y160.894921
g1 x95.53646 y160.894266
g1 x95.534807 y160.894921
g1 x95.529555 y160.883759
g1 x95.53112 y160.882899
g1 x95.529555 y160.883759
g1 x95.522842 y160.873186
g1 x95.524266 y160.872152
g1 x95.522842 y160.873186
g1 x95.515124 y160.863847
g1 x95.516445 y160.862605
g1 x95.515124 y160.863847
g1 x95.506327 y160.855597
g1 x95.507451 y160.854238
g1 x95.506327 y160.855597
g1 x95.496033 y160.84812
g1 x95.496982 y160.846625
g1 x95.496033 y160.84812
g1 x95.485056 y160.842083
g1 x95.485811 y160.840478
g1 x95.485056 y160.842083
g1 x95.473682 y160.837574
g1 x95.474237 y160.835866
g1 x95.473682 y160.837574
g1 x95.462095 y160.834601
g1 x95.462429 y160.832849
g1 x95.462095 y160.834601
g1 x95.449779 y160.833049
g1 x95.44989 y160.831282
g1 x95.449779 y160.833049
g1 x95.437135 y160.833049
g1 z-3 f300
g1 x95.437024 y160.831282 f650
g1 x95.437135 y160.833049
g1 x95.424819 y160.834601
g1 x95.424485 y160.832849
g1 x95.424819 y160.834601
g1 x95.413232 y160.837574
g1 x95.412677 y160.835866
g1 x95.413232 y160.837574
g1 x95.401858 y160.842083
g1 x95.401103 y160.840478
g1 x95.401858 y160.842083
g1 x95.390881 y160.84812
g1 x95.389932 y160.846625
g1 x95.390881 y160.84812
g1 x95.380587 y160.855597
g1 x95.379463 y160.854238
g1 x95.380587 y160.855597
g1 x95.37179 y160.863847
g1 x95.370469 y160.862605
g1 x95.37179 y160.863847
g1 x95.364072 y160.873186
g1 x95.362648 y160.872152
g1 x95.364072 y160.873186
g1 x95.357359 y160.883759
g1 x95.355794 y160.882899
g1 x95.357359 y160.883759
g1 x95.352107 y160.894921
g1 x95.350454 y160.894266
g1 x95.352107 y160.894921
g1 x95.348346 y160.906494
g1 x95.346613 y160.906049
g1 x95.348346 y160.906494
g1 x95.345956 y160.919044
g1 x95.344225 y160.918824
g1 x95.345956 y160.919044
g1 x95.34519 y160.931049
g1 x95.343357 y160.931049
g1 x95.34519 y160.931049
g1 x95.345956 y160.943054
g1 x95.344225 y160.943274
g1 x95.345956 y160.943054
g1 x95.348346 y160.955604
g1 x95.346613 y160.956049
g1 x95.348346 y160.955604
g1 x95.352107 y160.967177
g1 x95.350454 y160.967832
g1 x95.352107 y160.967177
g1 x95.357359 y160.978339
g1 x95.355794 y160.979199
g1 x95.357359 y160.978339
g1 x95.363949 y160.988719
g1 x95.362514 y160.989762
g1 x95.363949 y160.988719
g1 x95.37179 y160.998197
g1 x95.370491 y160.999416
g1 x95.37179 y160.998197
g1 x95.380799 y161.006655
g1 x95.379665 y161.008026
g1 x95.380799 y161.006655
g1 x95.390881 y161.013978
g1 x95.389932 y161.015473
g1 x95.390881 y161.013978
g1 x95.401565 y161.019854
g1 x95.400801 y161.021478
g1 x95.401565 y161.019854
g1 x95.413233 y161.024469
g1 x95.412691 y161.026137
g1 x95.413233 y161.024469
g1 x95.425164 y161.027541
g1 x95.424826 y161.029314
g1 x95.425164 y161.027541
g1 x95.437135 y161.029049
g1 x95.437024 y161.030816
g1 x95.437135 y161.029049
g1 x95.449779 y161.029049
g1 x95.44989 y161.030816
g1 x95.449779 y161.029049
g1 x95.46175 y161.027541
g1 x95.462088 y161.029314
g1 x95.46175 y161.027541
g1 x95.473681 y161.024469
g1 x95.474223 y161.026137
g1 x95.473681 y161.024469
g1 x95.485349 y161.019854
g1 x95.486113 y161.021478
g1 x95.485349 y161.019854
g1 x95.496033 y161.013978
g1 x95.496982 y161.015473
g1 x95.496033 y161.013978
g1 x95.506115 y161.006655
g1 x95.507249 y161.008026
g1 x95.506115 y161.006655
g1 x95.515124 y160.998197
g1 x95.516423 y160.999416
g1 x95.515124 y160.998197
g1 x95.522965 y160.988719
g1 x95.5244 y160.989762
g1 x95.522965 y160.988719
g1 x95.529555 y160.978339
g1 x95.53112 y160.979199
g1 x95.529555 y160.978339
g1 x95.534807 y160.967177
g1 x95.53646 y160.967832
g1 x95.534807 y160.967177
g1 x95.538568 y160.955604
g1 x95.540301 y160.956049
g1 x95.538568 y160.955604
g1 x95.540958 y160.943054
g1 x95.542689 y160.943274
g1 x95.540958 y160.943054
g1 x95.541724 y160.931049
g1 x95.543557 y160.931049
g1 x95.541724 y160.931049
g1 x95.540958 y160.919044
g1 x95.542689 y160.918824
g1 x95.540958 y160.919044
g1 x95.538568 y160.906494
g1 x95.540301 y160.906049
g1 x95.538568 y160.906494
g1 x95.534807 y160.894921
g1 x95.53646 y160.894266
g1 x95.534807 y160.894921
g1 x95.529555 y160.883759
g1 x95.53112 y160.882899
g1 x95.529555 y160.883759
g1 x95.522842 y160.873186
g1 x95.524266 y160.872152
g1 x95.522842 y160.873186
g1 x95.515124 y160.863847
g1 x95.516445 y160.862605
g1 x95.515124 y160.863847
g1 x95.506327 y160.855597
g1 x95.507451 y160.854238
g1 x95.506327 y160.855597
g1 x95.496033 y160.84812
g1 x95.496982 y160.846625
g1 x95.496033 y160.84812
g1 x95.485056 y160.842083
g1 x95.485811 y160.840478
g1 x95.485056 y160.842083
g1 x95.473682 y160.837574
g1 x95.474237 y160.835866
g1 x95.473682 y160.837574
g1 x95.462095 y160.834601
g1 x95.462429 y160.832849
g1 x95.462095 y160.834601
g1 x95.449779 y160.833049
g1 x95.44989 y160.831282
g1 x95.449779 y160.833049
g1 x95.437135 y160.833049
g0 z5
(Block-name: path167-3)
(Block-expand: 0)
(Block-enable: 0)

(End cutting path id: path167-3)


(Start cutting path id: path167-3)
(Change tool to Default tool)

G0 Z5
G0 X115.374357 Y159.833249

G1 Z-0.125 F100
G1 X115.237357 Y159.850549 Z-0.125 F400
G1 X115.103557 Y159.884849 Z-0.125
G1 X114.975057 Y159.935749 Z-0.125
G1 X114.854057 Y160.002249 Z-0.125
G1 X114.742257 Y160.083449 Z-0.125
G1 X114.641557 Y160.178049 Z-0.125
G1 X114.553557 Y160.284449 Z-0.125
G1 X114.479557 Y160.401149 Z-0.125
G1 X114.420657 Y160.526149 Z-0.125
G1 X114.378057 Y160.657449 Z-0.125
G1 X114.352157 Y160.793149 Z-0.125
G1 X114.343157 Y160.931049 Z-0.125
G1 X114.352157 Y161.068949 Z-0.125
G1 X114.378057 Y161.204649 Z-0.125
G1 X114.420657 Y161.335949 Z-0.125
G1 X114.479557 Y161.460949 Z-0.125
G1 X114.553557 Y161.577649 Z-0.125
G1 X114.641557 Y161.684049 Z-0.125
G1 X114.742257 Y161.778649 Z-0.125
G1 X114.854057 Y161.859849 Z-0.125
G1 X114.975057 Y161.926349 Z-0.125
G1 X115.103557 Y161.977249 Z-0.125
G1 X115.237357 Y162.011549 Z-0.125
G1 X115.374357 Y162.028849 Z-0.125
G1 X115.512557 Y162.028849 Z-0.125
G1 X115.649557 Y162.011549 Z-0.125
G1 X115.783357 Y161.977249 Z-0.125
G1 X115.911857 Y161.926349 Z-0.125
G1 X116.032857 Y161.859849 Z-0.125
G1 X116.144657 Y161.778649 Z-0.125
G1 X116.245357 Y161.684049 Z-0.125
G1 X116.333357 Y161.577649 Z-0.125
G1 X116.407357 Y161.460949 Z-0.125
G1 X116.466257 Y161.335949 Z-0.125
G1 X116.508857 Y161.204649 Z-0.125
G1 X116.534757 Y161.068949 Z-0.125
G1 X116.543757 Y160.931049 Z-0.125
G1 X116.534757 Y160.793149 Z-0.125
G1 X116.508857 Y160.657449 Z-0.125
G1 X116.466257 Y160.526149 Z-0.125
G1 X116.407357 Y160.401149 Z-0.125
G1 X116.333357 Y160.284449 Z-0.125
G1 X116.245357 Y160.178049 Z-0.125
G1 X116.144657 Y160.083449 Z-0.125
G1 X116.032857 Y160.002249 Z-0.125
G1 X115.911857 Y159.935749 Z-0.125
G1 X115.783357 Y159.884849 Z-0.125
G1 X115.649557 Y159.850549 Z-0.125
G1 X115.512557 Y159.833249 Z-0.125
G1 X115.374357 Y159.833249 Z-0.125
G0 Z5
(Block-name: path167-3 [in,cut])
(Block-expand: 0)
(Block-enable: 1)
g0 x115.437246 y160.833249
g1 z-1 f300
g1 x115.424895 y160.834809 f650
g1 x115.413084 y160.837836
g1 x115.401687 y160.842351
g1 x115.39082 y160.848323
g1 x115.38096 y160.855484
g1 x115.372073 y160.863834
g1 x115.364324 y160.873203
g1 x115.357535 y160.883909
g1 x115.352282 y160.895056
g1 x115.34858 y160.906467
g1 x115.34601 y160.919933
g1 x115.345284 y160.931049
g1 x115.34601 y160.942165
g1 x115.34858 y160.955631
g1 x115.352282 y160.967042
g1 x115.357535 y160.978189
g1 x115.364324 y160.988895
g1 x115.372073 y160.998264
g1 x115.38096 y161.006614
g1 x115.39082 y161.013775
g1 x115.401687 y161.019747
g1 x115.413084 y161.024262
g1 x115.424895 y161.027289
g1 x115.437246 y161.028849
g1 x115.449668 y161.028849
g1 x115.462019 y161.027289
g1 x115.47383 y161.024262
g1 x115.485227 y161.019747
g1 x115.496094 y161.013775
g1 x115.505954 y161.006614
g1 x115.514841 y160.998264
g1 x115.52259 y160.988895
g1 x115.529379 y160.978189
g1 x115.534632 y160.967042
g1 x115.538334 y160.955631
g1 x115.540904 y160.942165
g1 x115.54163 y160.931049
g1 x115.540904 y160.919933
g1 x115.538334 y160.906467
g1 x115.534632 y160.895056
g1 x115.529379 y160.883909
g1 x115.52259 y160.873203
g1 x115.514841 y160.863834
g1 x115.505954 y160.855484
g1 x115.496094 y160.848323
g1 x115.485227 y160.842351
g1 x115.47383 y160.837836
g1 x115.462019 y160.834809
g1 x115.449668 y160.833249
g1 x115.437246 y160.833249
g1 z-2 f300
g1 x115.424895 y160.834809 f650
g1 x115.413084 y160.837836
g1 x115.401687 y160.842351
g1 x115.39082 y160.848323
g1 x115.38096 y160.855484
g1 x115.372073 y160.863834
g1 x115.364324 y160.873203
g1 x115.357535 y160.883909
g1 x115.352282 y160.895056
g1 x115.34858 y160.906467
g1 x115.34601 y160.919933
g1 x115.345284 y160.931049
g1 x115.34601 y160.942165
g1 x115.34858 y160.955631
g1 x115.352282 y160.967042
g1 x115.357535 y160.978189
g1 x115.364324 y160.988895
g1 x115.372073 y160.998264
g1 x115.38096 y161.006614
g1 x115.39082 y161.013775
g1 x115.401687 y161.019747
g1 x115.413084 y161.024262
g1 x115.424895 y161.027289
g1 x115.437246 y161.028849
g1 x115.449668 y161.028849
g1 x115.462019 y161.027289
g1 x115.47383 y161.024262
g1 x115.485227 y161.019747
g1 x115.496094 y161.013775
g1 x115.505954 y161.006614
g1 x115.514841 y160.998264
g1 x115.52259 y160.988895
g1 x115.529379 y160.978189
g1 x115.534632 y160.967042
g1 x115.538334 y160.955631
g1 x115.540904 y160.942165
g1 x115.54163 y160.931049
g1 x115.540904 y160.919933
g1 x115.538334 y160.906467
g1 x115.534632 y160.895056
g1 x115.529379 y160.883909
g1 x115.52259 y160.873203
g1 x115.514841 y160.863834
g1 x115.505954 y160.855484
g1 x115.496094 y160.848323
g1 x115.485227 y160.842351
g1 x115.47383 y160.837836
g1 x115.462019 y160.834809
g1 x115.449668 y160.833249
g1 x115.437246 y160.833249
g1 z-3 f300
g1 x115.424895 y160.834809 f650
g1 x115.413084 y160.837836
g1 x115.401687 y160.842351
g1 x115.39082 y160.848323
g1 x115.38096 y160.855484
g1 x115.372073 y160.863834
g1 x115.364324 y160.873203
g1 x115.357535 y160.883909
g1 x115.352282 y160.895056
g1 x115.34858 y160.906467
g1 x115.34601 y160.919933
g1 x115.345284 y160.931049
g1 x115.34601 y160.942165
g1 x115.34858 y160.955631
g1 x115.352282 y160.967042
g1 x115.357535 y160.978189
g1 x115.364324 y160.988895
g1 x115.372073 y160.998264
g1 x115.38096 y161.006614
g1 x115.39082 y161.013775
g1 x115.401687 y161.019747
g1 x115.413084 y161.024262
g1 x115.424895 y161.027289
g1 x115.437246 y161.028849
g1 x115.449668 y161.028849
g1 x115.462019 y161.027289
g1 x115.47383 y161.024262
g1 x115.485227 y161.019747
g1 x115.496094 y161.013775
g1 x115.505954 y161.006614
g1 x115.514841 y160.998264
g1 x115.52259 y160.988895
g1 x115.529379 y160.978189
g1 x115.534632 y160.967042
g1 x115.538334 y160.955631
g1 x115.540904 y160.942165
g1 x115.54163 y160.931049
g1 x115.540904 y160.919933
g1 x115.538334 y160.906467
g1 x115.534632 y160.895056
g1 x115.529379 y160.883909
g1 x115.52259 y160.873203
g1 x115.514841 y160.863834
g1 x115.505954 y160.855484
g1 x115.496094 y160.848323
g1 x115.485227 y160.842351
g1 x115.47383 y160.837836
g1 x115.462019 y160.834809
g1 x115.449668 y160.833249
g1 x115.437246 y160.833249
g0 z5
(Block-name: path167-3)
(Block-expand: 0)
(Block-enable: 0)

(End cutting path id: path167-3)


(Start cutting path id: path167-3)
(Change tool to Default tool)

G0 Z5
G0 X135.374357 Y159.833249

G1 Z-0.125 F100
G1 X135.237357 Y159.850549 Z-0.125 F400
G1 X135.103557 Y159.884849 Z-0.125
G1 X134.975157 Y159.935749 Z-0.125
G1 X134.854057 Y160.002249 Z-0.125
G1 X134.742357 Y160.083449 Z-0.125
G1 X134.641557 Y160.178049 Z-0.125
G1 X134.553557 Y160.284449 Z-0.125
G1 X134.479557 Y160.401149 Z-0.125
G1 X134.420757 Y160.526149 Z-0.125
G1 X134.378057 Y160.657449 Z-0.125
G1 X134.352157 Y160.793149 Z-0.125
G1 X134.343157 Y160.931049 Z-0.125
G1 X134.352157 Y161.068949 Z-0.125
G1 X134.378057 Y161.204649 Z-0.125
G1 X134.420757 Y161.335949 Z-0.125
G1 X134.479557 Y161.460949 Z-0.125
G1 X134.553557 Y161.577649 Z-0.125
G1 X134.641557 Y161.684049 Z-0.125
G1 X134.742357 Y161.778649 Z-0.125
G1 X134.854057 Y161.859849 Z-0.125
G1 X134.975157 Y161.926349 Z-0.125
G1 X135.103557 Y161.977249 Z-0.125
G1 X135.237357 Y162.011549 Z-0.125
G1 X135.374357 Y162.028849 Z-0.125
G1 X135.512557 Y162.028849 Z-0.125
G1 X135.649557 Y162.011549 Z-0.125
G1 X135.783357 Y161.977249 Z-0.125
G1 X135.911857 Y161.926349 Z-0.125
G1 X136.032857 Y161.859849 Z-0.125
G1 X136.144657 Y161.778649 Z-0.125
G1 X136.245357 Y161.684049 Z-0.125
G1 X136.333457 Y161.577649 Z-0.125
G1 X136.407457 Y161.460949 Z-0.125
G1 X136.466257 Y161.335949 Z-0.125
G1 X136.508957 Y161.204649 Z-0.125
G1 X136.534857 Y161.068949 Z-0.125
G1 X136.543857 Y160.931049 Z-0.125
G1 X136.534857 Y160.793149 Z-0.125
G1 X136.508957 Y160.657449 Z-0.125
G1 X136.466257 Y160.526149 Z-0.125
G1 X136.407457 Y160.401149 Z-0.125
G1 X136.333457 Y160.284449 Z-0.125
G1 X136.245357 Y160.178049 Z-0.125
G1 X136.144657 Y160.083449 Z-0.125
G1 X136.032857 Y160.002249 Z-0.125
G1 X135.911857 Y159.935749 Z-0.125
G1 X135.783357 Y159.884849 Z-0.125
G1 X135.649557 Y159.850549 Z-0.125
G1 X135.512557 Y159.833249 Z-0.125
G1 X135.374357 Y159.833249 Z-0.125
G0 Z5
(Block-name: path167-3 [in,cut])
(Block-expand: 0)
(Block-enable: 1)
g0 x135.437246 y160.833249
g1 z-1 f300
g1 x135.424895 y160.834809 f650
g1 x135.413214 y160.837803
g1 x135.401741 y160.842351
g1 x135.390866 y160.848323
g1 x135.381015 y160.855484
g1 x135.371914 y160.864025
g1 x135.364324 y160.873203
g1 x135.357711 y160.883631
g1 x135.352337 y160.895056
g1 x135.348515 y160.906807
g1 x135.34601 y160.919933
g1 x135.345284 y160.931049
g1 x135.34601 y160.942165
g1 x135.348515 y160.955291
g1 x135.352337 y160.967042
g1 x135.357711 y160.978467
g1 x135.364324 y160.988895
g1 x135.371914 y160.998073
g1 x135.381015 y161.006614
g1 x135.390866 y161.013775
g1 x135.401741 y161.019747
g1 x135.413214 y161.024295
g1 x135.424895 y161.027289
g1 x135.437246 y161.028849
g1 x135.449668 y161.028849
g1 x135.462019 y161.027289
g1 x135.47383 y161.024262
g1 x135.485227 y161.019747
g1 x135.496094 y161.013775
g1 x135.505954 y161.006614
g1 x135.515045 y160.998073
g1 x135.52284 y160.988658
g1 x135.529303 y160.978467
g1 x135.534677 y160.967042
g1 x135.538499 y160.955291
g1 x135.541004 y160.942165
g1 x135.54173 y160.931049
g1 x135.541004 y160.919933
g1 x135.538499 y160.906807
g1 x135.534677 y160.895056
g1 x135.529303 y160.883631
g1 x135.52284 y160.87344
g1 x135.515045 y160.864025
g1 x135.505954 y160.855484
g1 x135.496094 y160.848323
g1 x135.485227 y160.842351
g1 x135.47383 y160.837836
g1 x135.462019 y160.834809
g1 x135.449668 y160.833249
g1 x135.437246 y160.833249
g1 z-2 f300
g1 x135.424895 y160.834809 f650
g1 x135.413214 y160.837803
g1 x135.401741 y160.842351
g1 x135.390866 y160.848323
g1 x135.381015 y160.855484
g1 x135.371914 y160.864025
g1 x135.364324 y160.873203
g1 x135.357711 y160.883631
g1 x135.352337 y160.895056
g1 x135.348515 y160.906807
g1 x135.34601 y160.919933
g1 x135.345284 y160.931049
g1 x135.34601 y160.942165
g1 x135.348515 y160.955291
g1 x135.352337 y160.967042
g1 x135.357711 y160.978467
g1 x135.364324 y160.988895
g1 x135.371914 y160.998073
g1 x135.381015 y161.006614
g1 x135.390866 y161.013775
g1 x135.401741 y161.019747
g1 x135.413214 y161.024295
g1 x135.424895 y161.027289
g1 x135.437246 y161.028849
g1 x135.449668 y161.028849
g1 x135.462019 y161.027289
g1 x135.47383 y161.024262
g1 x135.485227 y161.019747
g1 x135.496094 y161.013775
g1 x135.505954 y161.006614
g1 x135.515045 y160.998073
g1 x135.52284 y160.988658
g1 x135.529303 y160.978467
g1 x135.534677 y160.967042
g1 x135.538499 y160.955291
g1 x135.541004 y160.942165
g1 x135.54173 y160.931049
g1 x135.541004 y160.919933
g1 x135.538499 y160.906807
g1 x135.534677 y160.895056
g1 x135.529303 y160.883631
g1 x135.52284 y160.87344
g1 x135.515045 y160.864025
g1 x135.505954 y160.855484
g1 x135.496094 y160.848323
g1 x135.485227 y160.842351
g1 x135.47383 y160.837836
g1 x135.462019 y160.834809
g1 x135.449668 y160.833249
g1 x135.437246 y160.833249
g1 z-3 f300
g1 x135.424895 y160.834809 f650
g1 x135.413214 y160.837803
g1 x135.401741 y160.842351
g1 x135.390866 y160.848323
g1 x135.381015 y160.855484
g1 x135.371914 y160.864025
g1 x135.364324 y160.873203
g1 x135.357711 y160.883631
g1 x135.352337 y160.895056
g1 x135.348515 y160.906807
g1 x135.34601 y160.919933
g1 x135.345284 y160.931049
g1 x135.34601 y160.942165
g1 x135.348515 y160.955291
g1 x135.352337 y160.967042
g1 x135.357711 y160.978467
g1 x135.364324 y160.988895
g1 x135.371914 y160.998073
g1 x135.381015 y161.006614
g1 x135.390866 y161.013775
g1 x135.401741 y161.019747
g1 x135.413214 y161.024295
g1 x135.424895 y161.027289
g1 x135.437246 y161.028849
g1 x135.449668 y161.028849
g1 x135.462019 y161.027289
g1 x135.47383 y161.024262
g1 x135.485227 y161.019747
g1 x135.496094 y161.013775
g1 x135.505954 y161.006614
g1 x135.515045 y160.998073
g1 x135.52284 y160.988658
g1 x135.529303 y160.978467
g1 x135.534677 y160.967042
g1 x135.538499 y160.955291
g1 x135.541004 y160.942165
g1 x135.54173 y160.931049
g1 x135.541004 y160.919933
g1 x135.538499 y160.906807
g1 x135.534677 y160.895056
g1 x135.529303 y160.883631
g1 x135.52284 y160.87344
g1 x135.515045 y160.864025
g1 x135.505954 y160.855484
g1 x135.496094 y160.848323
g1 x135.485227 y160.842351
g1 x135.47383 y160.837836
g1 x135.462019 y160.834809
g1 x135.449668 y160.833249
g1 x135.437246 y160.833249
g0 z5
(Block-name: path167-6)
(Block-expand: 0)
(Block-enable: 0)

(End cutting path id: path167-6)


(Start cutting path id: path167-6)
(Change tool to Default tool)

G0 Z5
G0 X194.273857 Y124.841649

G1 Z-0.125 F100
G1 X194.074557 Y124.866749 Z-0.125 F400
G1 X193.879957 Y124.916749 Z-0.125
G1 X193.693157 Y124.990749 Z-0.125
G1 X193.517057 Y125.087549 Z-0.125
G1 X193.354457 Y125.205649 Z-0.125
G1 X193.207957 Y125.343149 Z-0.125
G1 X193.079957 Y125.497949 Z-0.125
G1 X192.972257 Y125.667649 Z-0.125
G1 X192.886757 Y125.849449 Z-0.125
G1 X192.824657 Y126.040549 Z-0.125
G1 X192.786957 Y126.237949 Z-0.125
G1 X192.774357 Y126.438449 Z-0.125
G1 X192.786957 Y126.638949 Z-0.125
G1 X192.824657 Y126.836349 Z-0.125
G1 X192.886757 Y127.027449 Z-0.125
G1 X192.972257 Y127.209249 Z-0.125
G1 X193.079957 Y127.378849 Z-0.125
G1 X193.207957 Y127.533749 Z-0.125
G1 X193.354457 Y127.671249 Z-0.125
G1 X193.517057 Y127.789349 Z-0.125
G1 X193.693157 Y127.886149 Z-0.125
G1 X193.879957 Y127.960149 Z-0.125
G1 X194.074557 Y128.010149 Z-0.125
G1 X194.273857 Y128.035249 Z-0.125
G1 X194.474357 Y128.035249 Z-0.125
G1 X194.674357 Y128.010149 Z-0.125
G1 X194.868357 Y127.960149 Z-0.125
G1 X195.055357 Y127.886149 Z-0.125
G1 X195.231357 Y127.789349 Z-0.125
G1 X195.394357 Y127.671249 Z-0.125
G1 X195.540357 Y127.533749 Z-0.125
G1 X195.668357 Y127.378849 Z-0.125
G1 X195.776357 Y127.209249 Z-0.125
G1 X195.862357 Y127.027449 Z-0.125
G1 X195.924357 Y126.836349 Z-0.125
G1 X195.961357 Y126.638949 Z-0.125
G1 X195.974357 Y126.438449 Z-0.125
G1 X195.961357 Y126.237949 Z-0.125
G1 X195.924357 Y126.040549 Z-0.125
G1 X195.862357 Y125.849449 Z-0.125
G1 X195.776357 Y125.667649 Z-0.125
G1 X195.668357 Y125.497949 Z-0.125
G1 X195.540357 Y125.343149 Z-0.125
G1 X195.394357 Y125.205649 Z-0.125
G1 X195.231357 Y125.087549 Z-0.125
G1 X195.055357 Y124.990749 Z-0.125
G1 X194.868357 Y124.916749 Z-0.125
G1 X194.674357 Y124.866749 Z-0.125
G1 X194.474357 Y124.841649 Z-0.125
G1 X194.273857 Y124.841649 Z-0.125
G0 Z5
(Block-name: path167-6 [in,cut])
(Block-expand: 0)
(Block-enable: 1)
g0 x194.33658 y125.841649
g1 z-1 f300
g1 x194.262207 y125.851016 f650
g1 x194.189756 y125.869631
g1 x194.119837 y125.897329
g1 x194.053859 y125.933596
g1 x193.992981 y125.977813
g1 x193.938369 y126.02907
g1 x193.89063 y126.086804
g1 x193.850351 y126.150272
g1 x193.818398 y126.218214
g1 x193.795118 y126.289851
g1 x193.781033 y126.363602
g1 x193.77633 y126.438449
g1 x193.781033 y126.513296
g1 x193.795118 y126.587047
g1 x193.818398 y126.658684
g1 x193.850294 y126.726505
g1 x193.89063 y126.790025
g1 x193.938485 y126.847937
g1 x193.992981 y126.899085
g1 x194.053859 y126.943302
g1 x194.119837 y126.979569
g1 x194.189756 y127.007267
g1 x194.262207 y127.025882
g1 x194.33658 y127.035249
g1 x194.411852 y127.035249
g1 x194.486546 y127.025875
g1 x194.558389 y127.007359
g1 x194.628726 y126.979525
g1 x194.694971 y126.94309
g1 x194.755566 y126.899186
g1 x194.809283 y126.848597
g1 x194.858086 y126.789537
g1 x194.899196 y126.72498
g1 x194.930964 y126.657825
g1 x194.953321 y126.588915
g1 x194.967357 y126.514031
g1 x194.972257 y126.438449
g1 x194.967357 y126.362867
g1 x194.953321 y126.287983
g1 x194.930964 y126.219073
g1 x194.899139 y126.151797
g1 x194.858086 y126.087292
g1 x194.809399 y126.02841
g1 x194.755566 y125.977712
g1 x194.694971 y125.933808
g1 x194.628726 y125.897373
g1 x194.558389 y125.869539
g1 x194.486546 y125.851023
g1 x194.411852 y125.841649
g1 x194.33658 y125.841649
g1 z-2 f300
g1 x194.262207 y125.851016 f650
g1 x194.189756 y125.869631
g1 x194.119837 y125.897329
g1 x194.053859 y125.933596
g1 x193.992981 y125.977813
g1 x193.938369 y126.02907
g1 x193.89063 y126.086804
g1 x193.850351 y126.150272
g1 x193.818398 y126.218214
g1 x193.795118 y126.289851
g1 x193.781033 y126.363602
g1 x193.77633 y126.438449
g1 x193.781033 y126.513296
g1 x193.795118 y126.587047
g1 x193.818398 y126.658684
g1 x193.850294 y126.726505
g1 x193.89063 y126.790025
g1 x193.938485 y126.847937
g1 x193.992981 y126.899085
g1 x194.053859 y126.943302
g1 x194.119837 y126.979569
g1 x194.189756 y127.007267
g1 x194.262207 y127.025882
g1 x194.33658 y127.035249
g1 x194.411852 y127.035249
g1 x194.486546 y127.025875
g1 x194.558389 y127.007359
g1 x194.628726 y126.979525
g1 x194.694971 y126.94309
g1 x194.755566 y126.899186
g1 x194.809283 y126.848597
g1 x194.858086 y126.789537
g1 x194.899196 y126.72498
g1 x194.930964 y126.657825
g1 x194.953321 y126.588915
g1 x194.967357 y126.514031
g1 x194.972257 y126.438449
g1 x194.967357 y126.362867
g1 x194.953321 y126.287983
g1 x194.930964 y126.219073
g1 x194.899139 y126.151797
g1 x194.858086 y126.087292
g1 x194.809399 y126.02841
g1 x194.755566 y125.977712
g1 x194.694971 y125.933808
g1 x194.628726 y125.897373
g1 x194.558389 y125.869539
g1 x194.486546 y125.851023
g1 x194.411852 y125.841649
g1 x194.33658 y125.841649
g1 z-3 f300
g1 x194.262207 y125.851016 f650
g1 x194.189756 y125.869631
g1 x194.119837 y125.897329
g1 x194.053859 y125.933596
g1 x193.992981 y125.977813
g1 x193.938369 y126.02907
g1 x193.89063 y126.086804
g1 x193.850351 y126.150272
g1 x193.818398 y126.218214
g1 x193.795118 y126.289851
g1 x193.781033 y126.363602
g1 x193.77633 y126.438449
g1 x193.781033 y126.513296
g1 x193.795118 y126.587047
g1 x193.818398 y126.658684
g1 x193.850294 y126.726505
g1 x193.89063 y126.790025
g1 x193.938485 y126.847937
g1 x193.992981 y126.899085
g1 x194.053859 y126.943302
g1 x194.119837 y126.979569
g1 x194.189756 y127.007267
g1 x194.262207 y127.025882
g1 x194.33658 y127.035249
g1 x194.411852 y127.035249
g1 x194.486546 y127.025875
g1 x194.558389 y127.007359
g1 x194.628726 y126.979525
g1 x194.694971 y126.94309
g1 x194.755566 y126.899186
g1 x194.809283 y126.848597
g1 x194.858086 y126.789537
g1 x194.899196 y126.72498
g1 x194.930964 y126.657825
g1 x194.953321 y126.588915
g1 x194.967357 y126.514031
g1 x194.972257 y126.438449
g1 x194.967357 y126.362867
g1 x194.953321 y126.287983
g1 x194.930964 y126.219073
g1 x194.899139 y126.151797
g1 x194.858086 y126.087292
g1 x194.809399 y126.02841
g1 x194.755566 y125.977712
g1 x194.694971 y125.933808
g1 x194.628726 y125.897373
g1 x194.558389 y125.869539
g1 x194.486546 y125.851023
g1 x194.411852 y125.841649
g1 x194.33658 y125.841649
g0 z5
(Block-name: path167-6)
(Block-expand: 0)
(Block-enable: 0)

(End cutting path id: path167-6)


(Start cutting path id: path167-6)
(Change tool to Default tool)

G0 Z5
G0 X170.311557 Y116.440449

G1 Z-0.125 F100
G1 X170.186957 Y116.456149 Z-0.125 F400
G1 X170.065357 Y116.487349 Z-0.125
G1 X169.948557 Y116.533649 Z-0.125
G1 X169.838557 Y116.594149 Z-0.125
G1 X169.736957 Y116.667949 Z-0.125
G1 X169.645357 Y116.753849 Z-0.125
G1 X169.565357 Y116.850649 Z-0.125
G1 X169.498057 Y116.956649 Z-0.125
G1 X169.444557 Y117.070349 Z-0.125
G1 X169.405757 Y117.189749 Z-0.125
G1 X169.382257 Y117.313149 Z-0.125
G1 X169.374257 Y117.438449 Z-0.125
G1 X169.374257 Y120.438449 Z-0.125
G1 X169.382257 Y120.563749 Z-0.125
G1 X169.405757 Y120.687149 Z-0.125
G1 X169.444557 Y120.806549 Z-0.125
G1 X169.498057 Y120.920249 Z-0.125
G1 X169.565357 Y121.026249 Z-0.125
G1 X169.645357 Y121.122949 Z-0.125
G1 X169.736957 Y121.208949 Z-0.125
G1 X169.838557 Y121.282749 Z-0.125
G1 X169.948557 Y121.343249 Z-0.125
G1 X170.065357 Y121.389449 Z-0.125
G1 X170.186957 Y121.420749 Z-0.125
G1 X170.311557 Y121.436449 Z-0.125
G1 X178.437157 Y121.436449 Z-0.125
G1 X178.561757 Y121.420749 Z-0.125
G1 X178.683357 Y121.389449 Z-0.125
G1 X178.800157 Y121.343249 Z-0.125
G1 X178.910157 Y121.282749 Z-0.125
G1 X179.011757 Y121.208949 Z-0.125
G1 X179.103357 Y121.122949 Z-0.125
G1 X179.183357 Y121.026249 Z-0.125
G1 X179.250657 Y120.920249 Z-0.125
G1 X179.304157 Y120.806549 Z-0.125
G1 X179.342957 Y120.687149 Z-0.125
G1 X179.366457 Y120.563749 Z-0.125
G1 X179.374457 Y120.438449 Z-0.125
G1 X179.374457 Y117.438449 Z-0.125
G1 X179.366457 Y117.313149 Z-0.125
G1 X179.342957 Y117.189749 Z-0.125
G1 X179.304157 Y117.070349 Z-0.125
G1 X179.250657 Y116.956649 Z-0.125
G1 X179.183357 Y116.850649 Z-0.125
G1 X179.103357 Y116.753849 Z-0.125
G1 X179.011757 Y116.667949 Z-0.125
G1 X178.910157 Y116.594149 Z-0.125
G1 X178.800157 Y116.533649 Z-0.125
G1 X178.683357 Y116.487349 Z-0.125
G1 X178.561757 Y116.456149 Z-0.125
G1 X178.437157 Y116.440449 Z-0.125
G1 X170.311557 Y116.440449 Z-0.125
G0 Z5
(Block-name: path167-6 [in,cut])
(Block-expand: 0)
(Block-enable: 1)
g0 x170.376165 y117.440449
g1 z-1 f300
g1 x170.374257 y117.47034 f650
g1 x170.374257 y120.406558
g1 x170.376165 y120.436449
g1 x178.372549 y120.436449
g1 x178.374457 y120.406558
g1 x178.374457 y117.47034
g1 x178.372549 y117.440449
g1 x170.376165 y117.440449
g1 z-2 f300
g1 x170.374257 y117.47034 f650
g1 x170.374257 y120.406558
g1 x170.376165 y120.436449
g1 x178.372549 y120.436449
g1 x178.374457 y120.406558
g1 x178.374457 y117.47034
g1 x178.372549 y117.440449
g1 x170.376165 y117.440449
g1 z-3 f300
g1 x170.374257 y117.47034 f650
g1 x170.374257 y120.406558
g1 x170.376165 y120.436449
g1 x178.372549 y120.436449
g1 x178.374457 y120.406558
g1 x178.374457 y117.47034
g1 x178.372549 y117.440449
g1 x170.376165 y117.440449
g0 z5
(Block-name: path167-6)
(Block-expand: 0)
(Block-enable: 0)

(End cutting path id: path167-6)


(Start cutting path id: path167-6)
(Change tool to Default tool)

G0 Z5
G0 X174.060457 Y101.448349

G1 Z-0.125 F100
G1 X173.437457 Y101.527049 Z-0.125 F400
G1 X172.829257 Y101.683149 Z-0.125
G1 X172.245457 Y101.914349 Z-0.125
G1 X171.695257 Y102.216849 Z-0.125
G1 X171.187257 Y102.585949 Z-0.125
G1 X170.729457 Y103.015749 Z-0.125
G1 X170.329257 Y103.499549 Z-0.125
G1 X169.992857 Y104.029749 Z-0.125
G1 X169.725457 Y104.597849 Z-0.125
G1 X169.531457 Y105.195049 Z-0.125
G1 X169.413757 Y105.811749 Z-0.125
G1 X169.374357 Y106.438449 Z-0.125
G1 X169.413757 Y107.065149 Z-0.125
G1 X169.531457 Y107.681949 Z-0.125
G1 X169.725457 Y108.279049 Z-0.125
G1 X169.992857 Y108.847249 Z-0.125
G1 X170.329257 Y109.377349 Z-0.125
G1 X170.729457 Y109.861249 Z-0.125
G1 X171.187257 Y110.291049 Z-0.125
G1 X171.695257 Y110.660049 Z-0.125
G1 X172.245457 Y110.962549 Z-0.125
G1 X172.829257 Y111.193749 Z-0.125
G1 X173.437457 Y111.349849 Z-0.125
G1 X174.060457 Y111.428549 Z-0.125
G1 X174.688257 Y111.428549 Z-0.125
G1 X175.311257 Y111.349849 Z-0.125
G1 X175.919457 Y111.193749 Z-0.125
G1 X176.503257 Y110.962549 Z-0.125
G1 X177.053457 Y110.660049 Z-0.125
G1 X177.561457 Y110.291049 Z-0.125
G1 X178.019157 Y109.861249 Z-0.125
G1 X178.419457 Y109.377349 Z-0.125
G1 X178.755857 Y108.847249 Z-0.125
G1 X179.023257 Y108.279049 Z-0.125
G1 X179.217257 Y107.681949 Z-0.125
G1 X179.334957 Y107.065149 Z-0.125
G1 X179.374357 Y106.438449 Z-0.125
G1 X179.334957 Y105.811749 Z-0.125
G1 X179.217257 Y105.195049 Z-0.125
G1 X179.023257 Y104.597849 Z-0.125
G1 X178.755857 Y104.029749 Z-0.125
G1 X178.419457 Y103.499549 Z-0.125
G1 X178.019157 Y103.015749 Z-0.125
G1 X177.561457 Y102.585949 Z-0.125
G1 X177.053457 Y102.216849 Z-0.125
G1 X176.503257 Y101.914349 Z-0.125
G1 X175.919457 Y101.683149 Z-0.125
G1 X175.311257 Y101.527049 Z-0.125
G1 X174.688257 Y101.448349 Z-0.125
G1 X174.060457 Y101.448349 Z-0.125
G0 Z5
(Block-name: path167-6 [in,cut])
(Block-expand: 0)
(Block-enable: 1)
g0 x174.123369 y102.448349
g1 z-1 f300
g1 x173.625161 y102.511285 f650
g1 x173.138884 y102.636092
g1 x172.672132 y102.820938
g1 x172.232167 y103.062831
g1 x171.825901 y103.358014
g1 x171.459844 y103.701681
g1 x171.139917 y104.08844
g1 x170.87089 y104.512454
g1 x170.657069 y104.966722
g1 x170.501947 y105.444243
g1 x170.407835 y105.937353
g1 x170.376331 y106.438449
g1 x170.407836 y106.93956
g1 x170.501947 y107.432745
g1 x170.657069 y107.910186
g1 x170.87089 y108.364534
g1 x171.139917 y108.788468
g1 x171.459881 y109.175352
g1 x171.825853 y109.51894
g1 x172.23211 y109.814036
g1 x172.672132 y110.05596
g1 x173.138884 y110.240806
g1 x173.625161 y110.365613
g1 x174.123369 y110.428549
g1 x174.625345 y110.428549
g1 x175.123553 y110.365613
g1 x175.60983 y110.240806
g1 x176.076582 y110.05596
g1 x176.516604 y109.814036
g1 x176.922816 y109.518972
g1 x177.288743 y109.175352
g1 x177.60883 y108.788416
g1 x177.877824 y108.364534
g1 x178.091645 y107.910186
g1 x178.246767 y107.432745
g1 x178.340878 y106.93956
g1 x178.372383 y106.438449
g1 x178.340879 y105.937353
g1 x178.246767 y105.444243
g1 x178.091645 y104.966722
g1 x177.877824 y104.512454
g1 x177.60883 y104.088492
g1 x177.28878 y103.701681
g1 x176.922769 y103.357981
g1 x176.516547 y103.062831
g1 x176.076582 y102.820938
g1 x175.60983 y102.636092
g1 x175.123553 y102.511285
g1 x174.625345 y102.448349
g1 x174.123369 y102.448349
g1 z-2 f300
g1 x173.625161 y102.511285 f650
g1 x173.138884 y102.636092
g1 x172.672132 y102.820938
g1 x172.232167 y103.062831
g1 x171.825901 y103.358014
g1 x171.459844 y103.701681
g1 x171.139917 y104.08844
g1 x170.87089 y104.512454
g1 x170.657069 y104.966722
g1 x170.501947 y105.444243
g1 x170.407835 y105.937353
g1 x170.376331 y106.438449
g1 x170.407836 y106.93956
g1 x170.501947 y107.432745
g1 x170.657069 y107.910186
g1 x170.87089 y108.364534
g1 x171.139917 y108.788468
g1 x171.459881 y109.175352
g1 x171.825853 y109.51894
g1 x172.23211 y109.814036
g1 x172.672132 y110.05596
g1 x173.138884 y110.240806
g1 x173.625161 y110.365613
g1 x174.123369 y110.428549
g1 x174.625345 y110.428549
g1 x175.123553 y110.365613
g1 x175.60983 y110.240806
g1 x176.076582 y110.05596
g1 x176.516604 y109.814036
g1 x176.922816 y109.518972
g1 x177.288743 y109.175352
g1 x177.60883 y108.788416
g1 x177.877824 y108.364534
g1 x178.091645 y107.910186
g1 x178.246767 y107.432745
g1 x178.340878 y106.93956
g1 x178.372383 y106.438449
g1 x178.340879 y105.937353
g1 x178.246767 y105.444243
g1 x178.091645 y104.966722
g1 x177.877824 y104.512454
g1 x177.60883 y104.088492
g1 x177.28878 y103.701681
g1 x176.922769 y103.357981
g1 x176.516547 y103.062831
g1 x176.076582 y102.820938
g1 x175.60983 y102.636092
g1 x175.123553 y102.511285
g1 x174.625345 y102.448349
g1 x174.123369 y102.448349
g1 z-3 f300
g1 x173.625161 y102.511285 f650
g1 x173.138884 y102.636092
g1 x172.672132 y102.820938
g1 x172.232167 y103.062831
g1 x171.825901 y103.358014
g1 x171.459844 y103.701681
g1 x171.139917 y104.08844
g1 x170.87089 y104.512454
g1 x170.657069 y104.966722
g1 x170.501947 y105.444243
g1 x170.407835 y105.937353
g1 x170.376331 y106.438449
g1 x170.407836 y106.93956
g1 x170.501947 y107.432745
g1 x170.657069 y107.910186
g1 x170.87089 y108.364534
g1 x171.139917 y108.788468
g1 x171.459881 y109.175352
g1 x171.825853 y109.51894
g1 x172.23211 y109.814036
g1 x172.672132 y110.05596
g1 x173.138884 y110.240806
g1 x173.625161 y110.365613
g1 x174.123369 y110.428549
g1 x174.625345 y110.428549
g1 x175.123553 y110.365613
g1 x175.60983 y110.240806
g1 x176.076582 y110.05596
g1 x176.516604 y109.814036
g1 x176.922816 y109.518972
g1 x177.288743 y109.175352
g1 x177.60883 y108.788416
g1 x177.877824 y108.364534
g1 x178.091645 y107.910186
g1 x178.246767 y107.432745
g1 x178.340878 y106.93956
g1 x178.372383 y106.438449
g1 x178.340879 y105.937353
g1 x178.246767 y105.444243
g1 x178.091645 y104.966722
g1 x177.877824 y104.512454
g1 x177.60883 y104.088492
g1 x177.28878 y103.701681
g1 x176.922769 y103.357981
g1 x176.516547 y103.062831
g1 x176.076582 y102.820938
g1 x175.60983 y102.636092
g1 x175.123553 y102.511285
g1 x174.625345 y102.448349
g1 x174.123369 y102.448349
g0 z5
(Block-name: path167-6)
(Block-expand: 0)
(Block-enable: 0)

(End cutting path id: path167-6)


(Start cutting path id: path167-6)
(Change tool to Default tool)

G0 Z5
G0 X170.311557 Y91.440449

G1 Z-0.125 F100
G1 X170.186957 Y91.456149 Z-0.125 F400
G1 X170.065357 Y91.487449 Z-0.125
G1 X169.948557 Y91.533649 Z-0.125
G1 X169.838557 Y91.594149 Z-0.125
G1 X169.736957 Y91.667949 Z-0.125
G1 X169.645357 Y91.753949 Z-0.125
G1 X169.565357 Y91.850649 Z-0.125
G1 X169.498057 Y91.956649 Z-0.125
G1 X169.444557 Y92.070349 Z-0.125
G1 X169.405757 Y92.189749 Z-0.125
G1 X169.382257 Y92.313149 Z-0.125
G1 X169.374257 Y92.438449 Z-0.125
G1 X169.374257 Y95.438449 Z-0.125
G1 X169.382257 Y95.563749 Z-0.125
G1 X169.405757 Y95.687149 Z-0.125
G1 X169.444557 Y95.806549 Z-0.125
G1 X169.498057 Y95.920249 Z-0.125
G1 X169.565357 Y96.026249 Z-0.125
G1 X169.645357 Y96.123049 Z-0.125
G1 X169.736957 Y96.208949 Z-0.125
G1 X169.838557 Y96.282749 Z-0.125
G1 X169.948557 Y96.343249 Z-0.125
G1 X170.065357 Y96.389549 Z-0.125
G1 X170.186957 Y96.420749 Z-0.125
G1 X170.311557 Y96.436449 Z-0.125
G1 X178.437157 Y96.436449 Z-0.125
G1 X178.561757 Y96.420749 Z-0.125
G1 X178.683357 Y96.389549 Z-0.125
G1 X178.800157 Y96.343249 Z-0.125
G1 X178.910157 Y96.282749 Z-0.125
G1 X179.011757 Y96.208949 Z-0.125
G1 X179.103357 Y96.123049 Z-0.125
G1 X179.183357 Y96.026249 Z-0.125
G1 X179.250657 Y95.920249 Z-0.125
G1 X179.304157 Y95.806549 Z-0.125
G1 X179.342957 Y95.687149 Z-0.125
G1 X179.366457 Y95.563749 Z-0.125
G1 X179.374457 Y95.438449 Z-0.125
G1 X179.374457 Y92.438449 Z-0.125
G1 X179.366457 Y92.313149 Z-0.125
G1 X179.342957 Y92.189749 Z-0.125
G1 X179.304157 Y92.070349 Z-0.125
G1 X179.250657 Y91.956649 Z-0.125
G1 X179.183357 Y91.850649 Z-0.125
G1 X179.103357 Y91.753949 Z-0.125
G1 X179.011757 Y91.667949 Z-0.125
G1 X178.910157 Y91.594149 Z-0.125
G1 X178.800157 Y91.533649 Z-0.125
G1 X178.683357 Y91.487449 Z-0.125
G1 X178.561757 Y91.456149 Z-0.125
G1 X178.437157 Y91.440449 Z-0.125
G1 X170.311557 Y91.440449 Z-0.125
G0 Z5
(Block-name: path167-6 [in,cut])
(Block-expand: 0)
(Block-enable: 1)
g0 x170.376165 y92.440449
g1 z-1 f300
g1 x170.374257 y92.47034 f650
g1 x170.374257 y95.406558
g1 x170.376165 y95.436449
g1 x178.372549 y95.436449
g1 x178.374457 y95.406558
g1 x178.374457 y92.47034
g1 x178.372549 y92.440449
g1 x170.376165 y92.440449
g1 z-2 f300
g1 x170.374257 y92.47034 f650
g1 x170.374257 y95.406558
g1 x170.376165 y95.436449
g1 x178.372549 y95.436449
g1 x178.374457 y95.406558
g1 x178.374457 y92.47034
g1 x178.372549 y92.440449
g1 x170.376165 y92.440449
g1 z-3 f300
g1 x170.374257 y92.47034 f650
g1 x170.374257 y95.406558
g1 x170.376165 y95.436449
g1 x178.372549 y95.436449
g1 x178.374457 y95.406558
g1 x178.374457 y92.47034
g1 x178.372549 y92.440449
g1 x170.376165 y92.440449
g0 z5
(Block-name: path167-6)
(Block-expand: 0)
(Block-enable: 0)

(End cutting path id: path167-6)


(Start cutting path id: path167-6)
(Change tool to Default tool)

G0 Z5
G0 X154.273857 Y84.841649

G1 Z-0.125 F100
G1 X154.074557 Y84.866749 Z-0.125 F400
G1 X153.879957 Y84.916749 Z-0.125
G1 X153.693057 Y84.990749 Z-0.125
G1 X153.517057 Y85.087549 Z-0.125
G1 X153.354457 Y85.205649 Z-0.125
G1 X153.207957 Y85.343149 Z-0.125
G1 X153.079957 Y85.498049 Z-0.125
G1 X152.972257 Y85.667649 Z-0.125
G1 X152.886757 Y85.849449 Z-0.125
G1 X152.824657 Y86.040549 Z-0.125
G1 X152.786957 Y86.237949 Z-0.125
G1 X152.774357 Y86.438449 Z-0.125
G1 X152.786957 Y86.638949 Z-0.125
G1 X152.824657 Y86.836349 Z-0.125
G1 X152.886757 Y87.027449 Z-0.125
G1 X152.972257 Y87.209249 Z-0.125
G1 X153.079957 Y87.378949 Z-0.125
G1 X153.207957 Y87.533749 Z-0.125
G1 X153.354457 Y87.671249 Z-0.125
G1 X153.517057 Y87.789349 Z-0.125
G1 X153.693057 Y87.886149 Z-0.125
G1 X153.879957 Y87.960149 Z-0.125
G1 X154.074557 Y88.010149 Z-0.125
G1 X154.273857 Y88.035249 Z-0.125
G1 X154.474857 Y88.035249 Z-0.125
G1 X154.674157 Y88.010149 Z-0.125
G1 X154.868757 Y87.960149 Z-0.125
G1 X155.055557 Y87.886149 Z-0.125
G1 X155.231657 Y87.789349 Z-0.125
G1 X155.394257 Y87.671249 Z-0.125
G1 X155.540757 Y87.533749 Z-0.125
G1 X155.668757 Y87.378949 Z-0.125
G1 X155.776457 Y87.209249 Z-0.125
G1 X155.861957 Y87.027449 Z-0.125
G1 X155.924057 Y86.836349 Z-0.125
