(Block-name: Header)
(Block-expand: 0)
(Block-enable: 1)
%
(Header)
(Generated by gcodetools from Inkscape.)
(Using default header. To add your own header create file "header" in the output dir.)
M3
(Header end.)
G21 (All units in mm)

(Start cutting path id: path4)
(Change tool to Default tool)

(Block-name: path4)
(Block-expand: 0)
(Block-enable: 0)

(End cutting path id: path4)


(Start cutting path id: path4)
(Change tool to Default tool)

G0 Z5
G0 X5.8116 Y5.0059

G1 Z-0.125 F100
G1 X5.4378 Y5.0531 Z-0.125 F400
G1 X5.0729 Y5.1468 Z-0.125
G1 X4.7227 Y5.2855 Z-0.125
G1 X4.3925 Y5.467 Z-0.125
G1 X4.0877 Y5.6884 Z-0.125
G1 X3.8131 Y5.9464 Z-0.125
G1 X3.5729 Y6.2366 Z-0.125
G1 X3.3711 Y6.5547 Z-0.125
G1 X3.2107 Y6.8956 Z-0.125
G1 X3.0942 Y7.2539 Z-0.125
G1 X3.0237 Y7.624 Z-0.125
G1 X3 Y8 Z-0.125
G1 X3.0237 Y8.376 Z-0.125
G1 X3.0942 Y8.7461 Z-0.125
G1 X3.2107 Y9.1044 Z-0.125
G1 X3.3711 Y9.4453 Z-0.125
G1 X3.5729 Y9.7633 Z-0.125
G1 X3.8131 Y10.0536 Z-0.125
G1 X4.0877 Y10.3115 Z-0.125
G1 X4.3925 Y10.533 Z-0.125
G1 X4.7227 Y10.7145 Z-0.125
G1 X5.0729 Y10.8532 Z-0.125
G1 X5.4378 Y10.9469 Z-0.125
G1 X5.8116 Y10.9941 Z-0.125
G1 X6.1884 Y10.9941 Z-0.125
G1 X6.5621 Y10.9469 Z-0.125
G1 X6.9271 Y10.8532 Z-0.125
G1 X7.2773 Y10.7145 Z-0.125
G1 X7.6075 Y10.533 Z-0.125
G1 X7.9123 Y10.3115 Z-0.125
G1 X8.1869 Y10.0536 Z-0.125
G1 X8.4271 Y9.7633 Z-0.125
G1 X8.6289 Y9.4453 Z-0.125
G1 X8.7893 Y9.1044 Z-0.125
G1 X8.9058 Y8.7461 Z-0.125
G1 X8.9763 Y8.376 Z-0.125
G1 X9 Y8 Z-0.125
G1 X8.9763 Y7.624 Z-0.125
G1 X8.9058 Y7.2539 Z-0.125
G1 X8.7893 Y6.8956 Z-0.125
G1 X8.6289 Y6.5547 Z-0.125
G1 X8.4271 Y6.2366 Z-0.125
G1 X8.1869 Y5.9464 Z-0.125
G1 X7.9123 Y5.6884 Z-0.125
G1 X7.6075 Y5.467 Z-0.125
G1 X7.2773 Y5.2855 Z-0.125
G1 X6.9271 Y5.1468 Z-0.125
G1 X6.5621 Y5.0531 Z-0.125
G1 X6.1884 Y5.0059 Z-0.125
G1 X5.8116 Y5.0059 Z-0.125
G0 Z5
(Block-name: path4 [in,cut])
(Block-expand: 0)
(Block-enable: 1)
g0 x5.874486 y6.0059
g1 z-0.5 f150
g1 x5.625536 y6.037335 f350
g1 x5.382595 y6.099718
g1 x5.14934 y6.192101
g1 x4.929311 y6.313043
g1 x4.72645 y6.460398
g1 x4.543498 y6.632289
g1 x4.383499 y6.825594
g1 x4.249184 y7.037317
g1 x4.142277 y7.264528
g1 x4.06472 y7.503058
g1 x4.017774 y7.749508
g1 x4.001985 y8
g1 x4.017774 y8.250492
g1 x4.06472 y8.496942
g1 x4.142277 y8.735472
g1 x4.249153 y8.962619
g1 x4.383499 y9.174323
g1 x4.543498 y9.367694
g1 x4.72645 y9.539519
g1 x4.929406 y9.687009
g1 x5.14934 y9.807899
g1 x5.382595 y9.900282
g1 x5.625536 y9.962665
g1 x5.874486 y9.9941
g1 x6.125498 y9.9941
g1 x6.374381 y9.962665
g1 x6.617436 y9.90027
g1 x6.85066 y9.807899
g1 x7.070594 y9.687009
g1 x7.27355 y9.539519
g1 x7.456502 y9.367694
g1 x7.616501 y9.174323
g1 x7.750847 y8.962619
g1 x7.857723 y8.735472
g1 x7.93528 y8.496942
g1 x7.982226 y8.250492
g1 x7.998015 y8
g1 x7.982226 y7.749508
g1 x7.93528 y7.503058
g1 x7.857723 y7.264528
g1 x7.750816 y7.037317
g1 x7.616501 y6.825594
g1 x7.456502 y6.632289
g1 x7.27355 y6.460398
g1 x7.070689 y6.313043
g1 x6.85066 y6.192101
g1 x6.617436 y6.09973
g1 x6.374381 y6.037335
g1 x6.125498 y6.0059
g1 x5.874486 y6.0059
g1 z-1 f150
g1 x5.625536 y6.037335 f350
g1 x5.382595 y6.099718
g1 x5.14934 y6.192101
g1 x4.929311 y6.313043
g1 x4.72645 y6.460398
g1 x4.543498 y6.632289
g1 x4.383499 y6.825594
g1 x4.249184 y7.037317
g1 x4.142277 y7.264528
g1 x4.06472 y7.503058
g1 x4.017774 y7.749508
g1 x4.001985 y8
g1 x4.017774 y8.250492
g1 x4.06472 y8.496942
g1 x4.142277 y8.735472
g1 x4.249153 y8.962619
g1 x4.383499 y9.174323
g1 x4.543498 y9.367694
g1 x4.72645 y9.539519
g1 x4.929406 y9.687009
g1 x5.14934 y9.807899
g1 x5.382595 y9.900282
g1 x5.625536 y9.962665
g1 x5.874486 y9.9941
g1 x6.125498 y9.9941
g1 x6.374381 y9.962665
g1 x6.617436 y9.90027
g1 x6.85066 y9.807899
g1 x7.070594 y9.687009
g1 x7.27355 y9.539519
g1 x7.456502 y9.367694
g1 x7.616501 y9.174323
g1 x7.750847 y8.962619
g1 x7.857723 y8.735472
g1 x7.93528 y8.496942
g1 x7.982226 y8.250492
g1 x7.998015 y8
g1 x7.982226 y7.749508
g1 x7.93528 y7.503058
g1 x7.857723 y7.264528
g1 x7.750816 y7.037317
g1 x7.616501 y6.825594
g1 x7.456502 y6.632289
g1 x7.27355 y6.460398
g1 x7.070689 y6.313043
g1 x6.85066 y6.192101
g1 x6.617436 y6.09973
g1 x6.374381 y6.037335
g1 x6.125498 y6.0059
g1 x5.874486 y6.0059
g1 z-1.5 f150
g1 x5.625536 y6.037335 f350
g1 x5.382595 y6.099718
g1 x5.14934 y6.192101
g1 x4.929311 y6.313043
g1 x4.72645 y6.460398
g1 x4.543498 y6.632289
g1 x4.383499 y6.825594
g1 x4.249184 y7.037317
g1 x4.142277 y7.264528
g1 x4.06472 y7.503058
g1 x4.017774 y7.749508
g1 x4.001985 y8
g1 x4.017774 y8.250492
g1 x4.06472 y8.496942
g1 x4.142277 y8.735472
g1 x4.249153 y8.962619
g1 x4.383499 y9.174323
g1 x4.543498 y9.367694
g1 x4.72645 y9.539519
g1 x4.929406 y9.687009
g1 x5.14934 y9.807899
g1 x5.382595 y9.900282
g1 x5.625536 y9.962665
g1 x5.874486 y9.9941
g1 x6.125498 y9.9941
g1 x6.374381 y9.962665
g1 x6.617436 y9.90027
g1 x6.85066 y9.807899
g1 x7.070594 y9.687009
g1 x7.27355 y9.539519
g1 x7.456502 y9.367694
g1 x7.616501 y9.174323
g1 x7.750847 y8.962619
g1 x7.857723 y8.735472
g1 x7.93528 y8.496942
g1 x7.982226 y8.250492
g1 x7.998015 y8
g1 x7.982226 y7.749508
g1 x7.93528 y7.503058
g1 x7.857723 y7.264528
g1 x7.750816 y7.037317
g1 x7.616501 y6.825594
g1 x7.456502 y6.632289
g1 x7.27355 y6.460398
g1 x7.070689 y6.313043
g1 x6.85066 y6.192101
g1 x6.617436 y6.09973
g1 x6.374381 y6.037335
g1 x6.125498 y6.0059
g1 x5.874486 y6.0059
g1 z-2 f150
g1 x5.625536 y6.037335 f350
g1 x5.382595 y6.099718
g1 x5.14934 y6.192101
g1 x4.929311 y6.313043
g1 x4.72645 y6.460398
g1 x4.543498 y6.632289
g1 x4.383499 y6.825594
g1 x4.249184 y7.037317
g1 x4.142277 y7.264528
g1 x4.06472 y7.503058
g1 x4.017774 y7.749508
g1 x4.001985 y8
g1 x4.017774 y8.250492
g1 x4.06472 y8.496942
g1 x4.142277 y8.735472
g1 x4.249153 y8.962619
g1 x4.383499 y9.174323
g1 x4.543498 y9.367694
g1 x4.72645 y9.539519
g1 x4.929406 y9.687009
g1 x5.14934 y9.807899
g1 x5.382595 y9.900282
g1 x5.625536 y9.962665
g1 x5.874486 y9.9941
g1 x6.125498 y9.9941
g1 x6.374381 y9.962665
g1 x6.617436 y9.90027
g1 x6.85066 y9.807899
g1 x7.070594 y9.687009
g1 x7.27355 y9.539519
g1 x7.456502 y9.367694
g1 x7.616501 y9.174323
g1 x7.750847 y8.962619
g1 x7.857723 y8.735472
g1 x7.93528 y8.496942
g1 x7.982226 y8.250492
g1 x7.998015 y8
g1 x7.982226 y7.749508
g1 x7.93528 y7.503058
g1 x7.857723 y7.264528
g1 x7.750816 y7.037317
g1 x7.616501 y6.825594
g1 x7.456502 y6.632289
g1 x7.27355 y6.460398
g1 x7.070689 y6.313043
g1 x6.85066 y6.192101
g1 x6.617436 y6.09973
g1 x6.374381 y6.037335
g1 x6.125498 y6.0059
g1 x5.874486 y6.0059
g1 z-2.5 f150
g1 x5.625536 y6.037335 f350
g1 x5.382595 y6.099718
g1 x5.14934 y6.192101
g1 x4.929311 y6.313043
g1 x4.72645 y6.460398
g1 x4.543498 y6.632289
g1 x4.383499 y6.825594
g1 x4.249184 y7.037317
g1 x4.142277 y7.264528
g1 x4.06472 y7.503058
g1 x4.017774 y7.749508
g1 x4.001985 y8
g1 x4.017774 y8.250492
g1 x4.06472 y8.496942
g1 x4.142277 y8.735472
g1 x4.249153 y8.962619
g1 x4.383499 y9.174323
g1 x4.543498 y9.367694
g1 x4.72645 y9.539519
g1 x4.929406 y9.687009
g1 x5.14934 y9.807899
g1 x5.382595 y9.900282
g1 x5.625536 y9.962665
g1 x5.874486 y9.9941
g1 x6.125498 y9.9941
g1 x6.374381 y9.962665
g1 x6.617436 y9.90027
g1 x6.85066 y9.807899
g1 x7.070594 y9.687009
g1 x7.27355 y9.539519
g1 x7.456502 y9.367694
g1 x7.616501 y9.174323
g1 x7.750847 y8.962619
g1 x7.857723 y8.735472
g1 x7.93528 y8.496942
g1 x7.982226 y8.250492
g1 x7.998015 y8
g1 x7.982226 y7.749508
g1 x7.93528 y7.503058
g1 x7.857723 y7.264528
g1 x7.750816 y7.037317
g1 x7.616501 y6.825594
g1 x7.456502 y6.632289
g1 x7.27355 y6.460398
g1 x7.070689 y6.313043
g1 x6.85066 y6.192101
g1 x6.617436 y6.09973
g1 x6.374381 y6.037335
g1 x6.125498 y6.0059
g1 x5.874486 y6.0059
g1 z-3 f150
g1 x5.625536 y6.037335 f350
g1 x5.382595 y6.099718
g1 x5.14934 y6.192101
g1 x4.929311 y6.313043
g1 x4.72645 y6.460398
g1 x4.543498 y6.632289
g1 x4.383499 y6.825594
g1 x4.249184 y7.037317
g1 x4.142277 y7.264528
g1 x4.06472 y7.503058
g1 x4.017774 y7.749508
g1 x4.001985 y8
g1 x4.017774 y8.250492
g1 x4.06472 y8.496942
g1 x4.142277 y8.735472
g1 x4.249153 y8.962619
g1 x4.383499 y9.174323
g1 x4.543498 y9.367694
g1 x4.72645 y9.539519
g1 x4.929406 y9.687009
g1 x5.14934 y9.807899
g1 x5.382595 y9.900282
g1 x5.625536 y9.962665
g1 x5.874486 y9.9941
g1 x6.125498 y9.9941
g1 x6.374381 y9.962665
g1 x6.617436 y9.90027
g1 x6.85066 y9.807899
g1 x7.070594 y9.687009
g1 x7.27355 y9.539519
g1 x7.456502 y9.367694
g1 x7.616501 y9.174323
g1 x7.750847 y8.962619
g1 x7.857723 y8.735472
g1 x7.93528 y8.496942
g1 x7.982226 y8.250492
g1 x7.998015 y8
g1 x7.982226 y7.749508
g1 x7.93528 y7.503058
g1 x7.857723 y7.264528
g1 x7.750816 y7.037317
g1 x7.616501 y6.825594
g1 x7.456502 y6.632289
g1 x7.27355 y6.460398
g1 x7.070689 y6.313043
g1 x6.85066 y6.192101
g1 x6.617436 y6.09973
g1 x6.374381 y6.037335
g1 x6.125498 y6.0059
g1 x5.874486 y6.0059
g0 z5
(Block-name: path4)
(Block-expand: 0)
(Block-enable: 0)

(End cutting path id: path4)


(Start cutting path id: path4)
(Change tool to Default tool)

G0 Z5
G0 X5.9058 Y12.5029

G1 Z-0.125 F100
G1 X5.7189 Y12.5266 Z-0.125 F400
G1 X5.5365 Y12.5734 Z-0.125
G1 X5.3613 Y12.6427 Z-0.125
G1 X5.1963 Y12.7335 Z-0.125
G1 X5.0438 Y12.8442 Z-0.125
G1 X4.9065 Y12.9732 Z-0.125
G1 X4.7865 Y13.1183 Z-0.125
G1 X4.6855 Y13.2774 Z-0.125
G1 X4.6053 Y13.4478 Z-0.125
G1 X4.5471 Y13.627 Z-0.125
G1 X4.5118 Y13.812 Z-0.125
G1 X4.5 Y14 Z-0.125
G1 X4.5118 Y14.188 Z-0.125
G1 X4.5471 Y14.373 Z-0.125
G1 X4.6053 Y14.5522 Z-0.125
G1 X4.6855 Y14.7226 Z-0.125
G1 X4.7865 Y14.8817 Z-0.125
G1 X4.9065 Y15.0268 Z-0.125
G1 X5.0438 Y15.1558 Z-0.125
G1 X5.1963 Y15.2665 Z-0.125
G1 X5.3613 Y15.3572 Z-0.125
G1 X5.5365 Y15.4266 Z-0.125
G1 X5.7189 Y15.4734 Z-0.125
G1 X5.9058 Y15.497 Z-0.125
G1 X6.0942 Y15.497 Z-0.125
G1 X6.2811 Y15.4734 Z-0.125
G1 X6.4635 Y15.4266 Z-0.125
G1 X6.6387 Y15.3572 Z-0.125
G1 X6.8037 Y15.2665 Z-0.125
G1 X6.9561 Y15.1558 Z-0.125
G1 X7.0934 Y15.0268 Z-0.125
G1 X7.2135 Y14.8817 Z-0.125
G1 X7.3144 Y14.7226 Z-0.125
G1 X7.3947 Y14.5522 Z-0.125
G1 X7.4529 Y14.373 Z-0.125
G1 X7.4882 Y14.188 Z-0.125
G1 X7.5 Y14 Z-0.125
G1 X7.4882 Y13.812 Z-0.125
G1 X7.4529 Y13.627 Z-0.125
G1 X7.3947 Y13.4478 Z-0.125
G1 X7.3144 Y13.2774 Z-0.125
G1 X7.2135 Y13.1183 Z-0.125
G1 X7.0934 Y12.9732 Z-0.125
G1 X6.9561 Y12.8442 Z-0.125
G1 X6.8037 Y12.7335 Z-0.125
G1 X6.6387 Y12.6427 Z-0.125
G1 X6.4635 Y12.5734 Z-0.125
G1 X6.2811 Y12.5266 Z-0.125
G1 X6.0942 Y12.5029 Z-0.125
G1 X5.9058 Y12.5029 Z-0.125
G0 Z5
(Block-name: path4 [in,cut])
(Block-expand: 0)
(Block-enable: 1)
g0 x5.96895 y13.5029
g1 z-0.5 f150
g1 x5.906797 y13.510781 f350
g1 x5.845891 y13.526409
g1 x5.787973 y13.549318
g1 x5.733173 y13.579475
g1 x5.682436 y13.616305
g1 x5.637048 y13.658948
g1 x5.597111 y13.707239
g1 x5.563488 y13.760204
g1 x5.536931 y13.81663
g1 x5.517603 y13.876141
g1 x5.505889 y13.937532
g1 x5.501968 y14
g1 x5.505889 y14.062468
g1 x5.517603 y14.123859
g1 x5.536931 y14.18337
g1 x5.563488 y14.239796
g1 x5.597111 y14.292761
g1 x5.637048 y14.341052
g1 x5.682436 y14.383695
g1 x5.732984 y14.420388
g1 x5.787973 y14.450616
g1 x5.84613 y14.473653
g1 x5.906541 y14.489153
g1 x5.968686 y14.497
g1 x6.031314 y14.497
g1 x6.093459 y14.489153
g1 x6.15387 y14.473653
g1 x6.212027 y14.450616
g1 x6.266879 y14.420464
g1 x6.31735 y14.383802
g1 x6.363002 y14.340911
g1 x6.402855 y14.292761
g1 x6.436445 y14.239796
g1 x6.463144 y14.183141
g1 x6.482397 y14.123859
g1 x6.494111 y14.062468
g1 x6.498032 y14
g1 x6.494111 y13.937532
g1 x6.482397 y13.876141
g1 x6.463144 y13.816859
g1 x6.436445 y13.760204
g1 x6.402855 y13.707239
g1 x6.363002 y13.659089
g1 x6.31735 y13.616198
g1 x6.26669 y13.579399
g1 x6.212027 y13.549318
g1 x6.154109 y13.526409
g1 x6.093203 y13.510781
g1 x6.03105 y13.5029
g1 x5.96895 y13.5029
g1 z-1 f150
g1 x5.906797 y13.510781 f350
g1 x5.845891 y13.526409
g1 x5.787973 y13.549318
g1 x5.733173 y13.579475
g1 x5.682436 y13.616305
g1 x5.637048 y13.658948
g1 x5.597111 y13.707239
g1 x5.563488 y13.760204
g1 x5.536931 y13.81663
g1 x5.517603 y13.876141
g1 x5.505889 y13.937532
g1 x5.501968 y14
g1 x5.505889 y14.062468
g1 x5.517603 y14.123859
g1 x5.536931 y14.18337
g1 x5.563488 y14.239796
g1 x5.597111 y14.292761
g1 x5.637048 y14.341052
g1 x5.682436 y14.383695
g1 x5.732984 y14.420388
g1 x5.787973 y14.450616
g1 x5.84613 y14.473653
g1 x5.906541 y14.489153
g1 x5.968686 y14.497
g1 x6.031314 y14.497
g1 x6.093459 y14.489153
g1 x6.15387 y14.473653
g1 x6.212027 y14.450616
g1 x6.266879 y14.420464
g1 x6.31735 y14.383802
g1 x6.363002 y14.340911
g1 x6.402855 y14.292761
g1 x6.436445 y14.239796
g1 x6.463144 y14.183141
g1 x6.482397 y14.123859
g1 x6.494111 y14.062468
g1 x6.498032 y14
g1 x6.494111 y13.937532
g1 x6.482397 y13.876141
g1 x6.463144 y13.816859
g1 x6.436445 y13.760204
g1 x6.402855 y13.707239
g1 x6.363002 y13.659089
g1 x6.31735 y13.616198
g1 x6.26669 y13.579399
g1 x6.212027 y13.549318
g1 x6.154109 y13.526409
g1 x6.093203 y13.510781
g1 x6.03105 y13.5029
g1 x5.96895 y13.5029
g1 z-1.5 f150
g1 x5.906797 y13.510781 f350
g1 x5.845891 y13.526409
g1 x5.787973 y13.549318
g1 x5.733173 y13.579475
g1 x5.682436 y13.616305
g1 x5.637048 y13.658948
g1 x5.597111 y13.707239
g1 x5.563488 y13.760204
g1 x5.536931 y13.81663
g1 x5.517603 y13.876141
g1 x5.505889 y13.937532
g1 x5.501968 y14
g1 x5.505889 y14.062468
g1 x5.517603 y14.123859
g1 x5.536931 y14.18337
g1 x5.563488 y14.239796
g1 x5.597111 y14.292761
g1 x5.637048 y14.341052
g1 x5.682436 y14.383695
g1 x5.732984 y14.420388
g1 x5.787973 y14.450616
g1 x5.84613 y14.473653
g1 x5.906541 y14.489153
g1 x5.968686 y14.497
g1 x6.031314 y14.497
g1 x6.093459 y14.489153
g1 x6.15387 y14.473653
g1 x6.212027 y14.450616
g1 x6.266879 y14.420464
g1 x6.31735 y14.383802
g1 x6.363002 y14.340911
g1 x6.402855 y14.292761
g1 x6.436445 y14.239796
g1 x6.463144 y14.183141
g1 x6.482397 y14.123859
g1 x6.494111 y14.062468
g1 x6.498032 y14
g1 x6.494111 y13.937532
g1 x6.482397 y13.876141
g1 x6.463144 y13.816859
g1 x6.436445 y13.760204
g1 x6.402855 y13.707239
g1 x6.363002 y13.659089
g1 x6.31735 y13.616198
g1 x6.26669 y13.579399
g1 x6.212027 y13.549318
g1 x6.154109 y13.526409
g1 x6.093203 y13.510781
g1 x6.03105 y13.5029
g1 x5.96895 y13.5029
g1 z-2 f150
g1 x5.906797 y13.510781 f350
g1 x5.845891 y13.526409
g1 x5.787973 y13.549318
g1 x5.733173 y13.579475
g1 x5.682436 y13.616305
g1 x5.637048 y13.658948
g1 x5.597111 y13.707239
g1 x5.563488 y13.760204
g1 x5.536931 y13.81663
g1 x5.517603 y13.876141
g1 x5.505889 y13.937532
g1 x5.501968 y14
g1 x5.505889 y14.062468
g1 x5.517603 y14.123859
g1 x5.536931 y14.18337
g1 x5.563488 y14.239796
g1 x5.597111 y14.292761
g1 x5.637048 y14.341052
g1 x5.682436 y14.383695
g1 x5.732984 y14.420388
g1 x5.787973 y14.450616
g1 x5.84613 y14.473653
g1 x5.906541 y14.489153
g1 x5.968686 y14.497
g1 x6.031314 y14.497
g1 x6.093459 y14.489153
g1 x6.15387 y14.473653
g1 x6.212027 y14.450616
g1 x6.266879 y14.420464
g1 x6.31735 y14.383802
g1 x6.363002 y14.340911
g1 x6.402855 y14.292761
g1 x6.436445 y14.239796
g1 x6.463144 y14.183141
g1 x6.482397 y14.123859
g1 x6.494111 y14.062468
g1 x6.498032 y14
g1 x6.494111 y13.937532
g1 x6.482397 y13.876141
g1 x6.463144 y13.816859
g1 x6.436445 y13.760204
g1 x6.402855 y13.707239
g1 x6.363002 y13.659089
g1 x6.31735 y13.616198
g1 x6.26669 y13.579399
g1 x6.212027 y13.549318
g1 x6.154109 y13.526409
g1 x6.093203 y13.510781
g1 x6.03105 y13.5029
g1 x5.96895 y13.5029
g1 z-2.5 f150
g1 x5.906797 y13.510781 f350
g1 x5.845891 y13.526409
g1 x5.787973 y13.549318
g1 x5.733173 y13.579475
g1 x5.682436 y13.616305
g1 x5.637048 y13.658948
g1 x5.597111 y13.707239
g1 x5.563488 y13.760204
g1 x5.536931 y13.81663
g1 x5.517603 y13.876141
g1 x5.505889 y13.937532
g1 x5.501968 y14
g1 x5.505889 y14.062468
g1 x5.517603 y14.123859
g1 x5.536931 y14.18337
g1 x5.563488 y14.239796
g1 x5.597111 y14.292761
g1 x5.637048 y14.341052
g1 x5.682436 y14.383695
g1 x5.732984 y14.420388
g1 x5.787973 y14.450616
g1 x5.84613 y14.473653
g1 x5.906541 y14.489153
g1 x5.968686 y14.497
g1 x6.031314 y14.497
g1 x6.093459 y14.489153
g1 x6.15387 y14.473653
g1 x6.212027 y14.450616
g1 x6.266879 y14.420464
g1 x6.31735 y14.383802
g1 x6.363002 y14.340911
g1 x6.402855 y14.292761
g1 x6.436445 y14.239796
g1 x6.463144 y14.183141
g1 x6.482397 y14.123859
g1 x6.494111 y14.062468
g1 x6.498032 y14
g1 x6.494111 y13.937532
g1 x6.482397 y13.876141
g1 x6.463144 y13.816859
g1 x6.436445 y13.760204
g1 x6.402855 y13.707239
g1 x6.363002 y13.659089
g1 x6.31735 y13.616198
g1 x6.26669 y13.579399
g1 x6.212027 y13.549318
g1 x6.154109 y13.526409
g1 x6.093203 y13.510781
g1 x6.03105 y13.5029
g1 x5.96895 y13.5029
g1 z-3 f150
g1 x5.906797 y13.510781 f350
g1 x5.845891 y13.526409
g1 x5.787973 y13.549318
g1 x5.733173 y13.579475
g1 x5.682436 y13.616305
g1 x5.637048 y13.658948
g1 x5.597111 y13.707239
g1 x5.563488 y13.760204
g1 x5.536931 y13.81663
g1 x5.517603 y13.876141
g1 x5.505889 y13.937532
g1 x5.501968 y14
g1 x5.505889 y14.062468
g1 x5.517603 y14.123859
g1 x5.536931 y14.18337
g1 x5.563488 y14.239796
g1 x5.597111 y14.292761
g1 x5.637048 y14.341052
g1 x5.682436 y14.383695
g1 x5.732984 y14.420388
g1 x5.787973 y14.450616
g1 x5.84613 y14.473653
g1 x5.906541 y14.489153
g1 x5.968686 y14.497
g1 x6.031314 y14.497
g1 x6.093459 y14.489153
g1 x6.15387 y14.473653
g1 x6.212027 y14.450616
g1 x6.266879 y14.420464
g1 x6.31735 y14.383802
g1 x6.363002 y14.340911
g1 x6.402855 y14.292761
g1 x6.436445 y14.239796
g1 x6.463144 y14.183141
g1 x6.482397 y14.123859
g1 x6.494111 y14.062468
g1 x6.498032 y14
g1 x6.494111 y13.937532
g1 x6.482397 y13.876141
g1 x6.463144 y13.816859
g1 x6.436445 y13.760204
g1 x6.402855 y13.707239
g1 x6.363002 y13.659089
g1 x6.31735 y13.616198
g1 x6.26669 y13.579399
g1 x6.212027 y13.549318
g1 x6.154109 y13.526409
g1 x6.093203 y13.510781
g1 x6.03105 y13.5029
g1 x5.96895 y13.5029
g0 z5
(Block-name: path4)
(Block-expand: 0)
(Block-enable: 0)

(End cutting path id: path4)


(Start cutting path id: path4)
(Change tool to Default tool)

G0 Z5
G0 X15.9058 Y12.5029

G1 Z-0.125 F100
G1 X15.7189 Y12.5266 Z-0.125 F400
G1 X15.5365 Y12.5734 Z-0.125
G1 X15.3613 Y12.6427 Z-0.125
G1 X15.1963 Y12.7335 Z-0.125
G1 X15.0439 Y12.8442 Z-0.125
G1 X14.9065 Y12.9732 Z-0.125
G1 X14.7865 Y13.1183 Z-0.125
G1 X14.6855 Y13.2774 Z-0.125
G1 X14.6053 Y13.4478 Z-0.125
G1 X14.5471 Y13.627 Z-0.125
G1 X14.5118 Y13.812 Z-0.125
G1 X14.5 Y14 Z-0.125
G1 X14.5118 Y14.188 Z-0.125
G1 X14.5471 Y14.373 Z-0.125
G1 X14.6053 Y14.5522 Z-0.125
G1 X14.6855 Y14.7226 Z-0.125
G1 X14.7865 Y14.8817 Z-0.125
G1 X14.9065 Y15.0268 Z-0.125
G1 X15.0439 Y15.1558 Z-0.125
G1 X15.1963 Y15.2665 Z-0.125
G1 X15.3613 Y15.3572 Z-0.125
G1 X15.5365 Y15.4266 Z-0.125
G1 X15.7189 Y15.4734 Z-0.125
G1 X15.9058 Y15.497 Z-0.125
G1 X16.0942 Y15.497 Z-0.125
G1 X16.2811 Y15.4734 Z-0.125
G1 X16.4635 Y15.4266 Z-0.125
G1 X16.6387 Y15.3572 Z-0.125
G1 X16.8037 Y15.2665 Z-0.125
G1 X16.9561 Y15.1558 Z-0.125
G1 X17.0934 Y15.0268 Z-0.125
G1 X17.2135 Y14.8817 Z-0.125
G1 X17.3145 Y14.7226 Z-0.125
G1 X17.3947 Y14.5522 Z-0.125
G1 X17.4529 Y14.373 Z-0.125
G1 X17.4882 Y14.188 Z-0.125
G1 X17.5 Y14 Z-0.125
G1 X17.4882 Y13.812 Z-0.125
G1 X17.4529 Y13.627 Z-0.125
G1 X17.3947 Y13.4478 Z-0.125
G1 X17.3145 Y13.2774 Z-0.125
G1 X17.2135 Y13.1183 Z-0.125
G1 X17.0934 Y12.9732 Z-0.125
G1 X16.9561 Y12.8442 Z-0.125
G1 X16.8037 Y12.7335 Z-0.125
G1 X16.6387 Y12.6427 Z-0.125
G1 X16.4635 Y12.5734 Z-0.125
G1 X16.2811 Y12.5266 Z-0.125
G1 X16.0942 Y12.5029 Z-0.125
G1 X15.9058 Y12.5029 Z-0.125
G0 Z5
(Block-name: path4 [in,cut])
(Block-expand: 0)
(Block-enable: 1)
g0 x15.96895 y13.5029
g1 z-0.5 f150
g1 x15.906797 y13.510781 f350
g1 x15.845891 y13.526409
g1 x15.787973 y13.549318
g1 x15.73331 y13.579399
g1 x15.682502 y13.616305
g1 x15.636932 y13.659089
g1 x15.597111 y13.707239
g1 x15.563488 y13.760204
g1 x15.536931 y13.81663
g1 x15.517603 y13.876141
g1 x15.505889 y13.937532
g1 x15.501968 y14
g1 x15.505889 y14.062468
g1 x15.517603 y14.123859
g1 x15.536931 y14.18337
g1 x15.563488 y14.239796
g1 x15.597111 y14.292761
g1 x15.636932 y14.340911
g1 x15.682502 y14.383695
g1 x15.733121 y14.420464
g1 x15.787973 y14.450616
g1 x15.84613 y14.473653
g1 x15.906541 y14.489153
g1 x15.968686 y14.497
g1 x16.031314 y14.497
g1 x16.093459 y14.489153
g1 x16.15387 y14.473653
g1 x16.212027 y14.450616
g1 x16.266879 y14.420464
g1 x16.31735 y14.383802
g1 x16.363002 y14.340911
g1 x16.402999 y14.292588
g1 x16.436512 y14.239796
g1 x16.463069 y14.18337
g1 x16.482397 y14.123859
g1 x16.494111 y14.062468
g1 x16.498032 y14
g1 x16.494111 y13.937532
g1 x16.482397 y13.876141
g1 x16.463069 y13.81663
g1 x16.436512 y13.760204
g1 x16.402999 y13.707412
g1 x16.363002 y13.659089
g1 x16.31735 y13.616198
g1 x16.26669 y13.579399
g1 x16.212027 y13.549318
g1 x16.154109 y13.526409
g1 x16.093203 y13.510781
g1 x16.03105 y13.5029
g1 x15.96895 y13.5029
g1 z-1 f150
g1 x15.906797 y13.510781 f350
g1 x15.845891 y13.526409
g1 x15.787973 y13.549318
g1 x15.73331 y13.579399
g1 x15.682502 y13.616305
g1 x15.636932 y13.659089
g1 x15.597111 y13.707239
g1 x15.563488 y13.760204
g1 x15.536931 y13.81663
g1 x15.517603 y13.876141
g1 x15.505889 y13.937532
g1 x15.501968 y14
g1 x15.505889 y14.062468
g1 x15.517603 y14.123859
g1 x15.536931 y14.18337
g1 x15.563488 y14.239796
g1 x15.597111 y14.292761
g1 x15.636932 y14.340911
g1 x15.682502 y14.383695
g1 x15.733121 y14.420464
g1 x15.787973 y14.450616
g1 x15.84613 y14.473653
g1 x15.906541 y14.489153
g1 x15.968686 y14.497
g1 x16.031314 y14.497
g1 x16.093459 y14.489153
g1 x16.15387 y14.473653
g1 x16.212027 y14.450616
g1 x16.266879 y14.420464
g1 x16.31735 y14.383802
g1 x16.363002 y14.340911
g1 x16.402999 y14.292588
g1 x16.436512 y14.239796
g1 x16.463069 y14.18337
g1 x16.482397 y14.123859
g1 x16.494111 y14.062468
g1 x16.498032 y14
g1 x16.494111 y13.937532
g1 x16.482397 y13.876141
g1 x16.463069 y13.81663
g1 x16.436512 y13.760204
g1 x16.402999 y13.707412
g1 x16.363002 y13.659089
g1 x16.31735 y13.616198
g1 x16.26669 y13.579399
g1 x16.212027 y13.549318
g1 x16.154109 y13.526409
g1 x16.093203 y13.510781
g1 x16.03105 y13.5029
g1 x15.96895 y13.5029
g1 z-1.5 f150
g1 x15.906797 y13.510781 f350
g1 x15.845891 y13.526409
g1 x15.787973 y13.549318
g1 x15.73331 y13.579399
g1 x15.682502 y13.616305
g1 x15.636932 y13.659089
g1 x15.597111 y13.707239
g1 x15.563488 y13.760204
g1 x15.536931 y13.81663
g1 x15.517603 y13.876141
g1 x15.505889 y13.937532
g1 x15.501968 y14
g1 x15.505889 y14.062468
g1 x15.517603 y14.123859
g1 x15.536931 y14.18337
g1 x15.563488 y14.239796
g1 x15.597111 y14.292761
g1 x15.636932 y14.340911
g1 x15.682502 y14.383695
g1 x15.733121 y14.420464
g1 x15.787973 y14.450616
g1 x15.84613 y14.473653
g1 x15.906541 y14.489153
g1 x15.968686 y14.497
g1 x16.031314 y14.497
g1 x16.093459 y14.489153
g1 x16.15387 y14.473653
g1 x16.212027 y14.450616
g1 x16.266879 y14.420464
g1 x16.31735 y14.383802
g1 x16.363002 y14.340911
g1 x16.402999 y14.292588
g1 x16.436512 y14.239796
g1 x16.463069 y14.18337
g1 x16.482397 y14.123859
g1 x16.494111 y14.062468
g1 x16.498032 y14
g1 x16.494111 y13.937532
g1 x16.482397 y13.876141
g1 x16.463069 y13.81663
g1 x16.436512 y13.760204
g1 x16.402999 y13.707412
g1 x16.363002 y13.659089
g1 x16.31735 y13.616198
g1 x16.26669 y13.579399
g1 x16.212027 y13.549318
g1 x16.154109 y13.526409
g1 x16.093203 y13.510781
g1 x16.03105 y13.5029
g1 x15.96895 y13.5029
g1 z-2 f150
g1 x15.906797 y13.510781 f350
g1 x15.845891 y13.526409
g1 x15.787973 y13.549318
g1 x15.73331 y13.579399
g1 x15.682502 y13.616305
g1 x15.636932 y13.659089
g1 x15.597111 y13.707239
g1 x15.563488 y13.760204
g1 x15.536931 y13.81663
g1 x15.517603 y13.876141
g1 x15.505889 y13.937532
g1 x15.501968 y14
g1 x15.505889 y14.062468
g1 x15.517603 y14.123859
g1 x15.536931 y14.18337
g1 x15.563488 y14.239796
g1 x15.597111 y14.292761
g1 x15.636932 y14.340911
g1 x15.682502 y14.383695
g1 x15.733121 y14.420464
g1 x15.787973 y14.450616
g1 x15.84613 y14.473653
g1 x15.906541 y14.489153
g1 x15.968686 y14.497
g1 x16.031314 y14.497
g1 x16.093459 y14.489153
g1 x16.15387 y14.473653
g1 x16.212027 y14.450616
g1 x16.266879 y14.420464
g1 x16.31735 y14.383802
g1 x16.363002 y14.340911
g1 x16.402999 y14.292588
g1 x16.436512 y14.239796
g1 x16.463069 y14.18337
g1 x16.482397 y14.123859
g1 x16.494111 y14.062468
g1 x16.498032 y14
g1 x16.494111 y13.937532
g1 x16.482397 y13.876141
g1 x16.463069 y13.81663
g1 x16.436512 y13.760204
g1 x16.402999 y13.707412
g1 x16.363002 y13.659089
g1 x16.31735 y13.616198
g1 x16.26669 y13.579399
g1 x16.212027 y13.549318
g1 x16.154109 y13.526409
g1 x16.093203 y13.510781
g1 x16.03105 y13.5029
g1 x15.96895 y13.5029
g1 z-2.5 f150
g1 x15.906797 y13.510781 f350
g1 x15.845891 y13.526409
g1 x15.787973 y13.549318
g1 x15.73331 y13.579399
g1 x15.682502 y13.616305
g1 x15.636932 y13.659089
g1 x15.597111 y13.707239
g1 x15.563488 y13.760204
g1 x15.536931 y13.81663
g1 x15.517603 y13.876141
g1 x15.505889 y13.937532
g1 x15.501968 y14
g1 x15.505889 y14.062468
g1 x15.517603 y14.123859
g1 x15.536931 y14.18337
g1 x15.563488 y14.239796
g1 x15.597111 y14.292761
g1 x15.636932 y14.340911
g1 x15.682502 y14.383695
g1 x15.733121 y14.420464
g1 x15.787973 y14.450616
g1 x15.84613 y14.473653
g1 x15.906541 y14.489153
g1 x15.968686 y14.497
g1 x16.031314 y14.497
g1 x16.093459 y14.489153
g1 x16.15387 y14.473653
g1 x16.212027 y14.450616
g1 x16.266879 y14.420464
g1 x16.31735 y14.383802
g1 x16.363002 y14.340911
g1 x16.402999 y14.292588
g1 x16.436512 y14.239796
g1 x16.463069 y14.18337
g1 x16.482397 y14.123859
g1 x16.494111 y14.062468
g1 x16.498032 y14
g1 x16.494111 y13.937532
g1 x16.482397 y13.876141
g1 x16.463069 y13.81663
g1 x16.436512 y13.760204
g1 x16.402999 y13.707412
g1 x16.363002 y13.659089
g1 x16.31735 y13.616198
g1 x16.26669 y13.579399
g1 x16.212027 y13.549318
g1 x16.154109 y13.526409
g1 x16.093203 y13.510781
g1 x16.03105 y13.5029
g1 x15.96895 y13.5029
g1 z-3 f150
g1 x15.906797 y13.510781 f350
g1 x15.845891 y13.526409
g1 x15.787973 y13.549318
g1 x15.73331 y13.579399
g1 x15.682502 y13.616305
g1 x15.636932 y13.659089
g1 x15.597111 y13.707239
g1 x15.563488 y13.760204
g1 x15.536931 y13.81663
g1 x15.517603 y13.876141
g1 x15.505889 y13.937532
g1 x15.501968 y14
g1 x15.505889 y14.062468
g1 x15.517603 y14.123859
g1 x15.536931 y14.18337
g1 x15.563488 y14.239796
g1 x15.597111 y14.292761
g1 x15.636932 y14.340911
g1 x15.682502 y14.383695
g1 x15.733121 y14.420464
g1 x15.787973 y14.450616
g1 x15.84613 y14.473653
g1 x15.906541 y14.489153
g1 x15.968686 y14.497
g1 x16.031314 y14.497
g1 x16.093459 y14.489153
g1 x16.15387 y14.473653
g1 x16.212027 y14.450616
g1 x16.266879 y14.420464
g1 x16.31735 y14.383802
g1 x16.363002 y14.340911
g1 x16.402999 y14.292588
g1 x16.436512 y14.239796
g1 x16.463069 y14.18337
g1 x16.482397 y14.123859
g1 x16.494111 y14.062468
g1 x16.498032 y14
g1 x16.494111 y13.937532
g1 x16.482397 y13.876141
g1 x16.463069 y13.81663
g1 x16.436512 y13.760204
g1 x16.402999 y13.707412
g1 x16.363002 y13.659089
g1 x16.31735 y13.616198
g1 x16.26669 y13.579399
g1 x16.212027 y13.549318
g1 x16.154109 y13.526409
g1 x16.093203 y13.510781
g1 x16.03105 y13.5029
g1 x15.96895 y13.5029
g0 z5
(Block-name: path4)
(Block-expand: 0)
(Block-enable: 0)

(End cutting path id: path4)


(Start cutting path id: path4)
(Change tool to Default tool)

G0 Z5
G0 X7 Y3

G1 Z-0.125 F100
G1 X15 Y3 Z-0.125 F400
G1 X15 Y1 Z-0.125
G1 X18 Y1 Z-0.125
G1 X18 Y3 Z-0.125
G1 X21 Y3 Z-0.125
G1 X21 Y16 Z-0.125
G1 X1 Y16 Z-0.125
G1 X1 Y3 Z-0.125
G1 X4 Y3 Z-0.125
G1 X4 Y1 Z-0.125
G1 X7 Y1 Z-0.125
G1 X7 Y3 Z-0.125
G0 Z5
(Block-name: path4 [out,cut])
(Block-expand: 0)
(Block-enable: 1)
g0 x8 y2
g1 z-0.5 f150
g1 x7.707107 y2.292893 f350
g1 x8 y2
g1 x14 y2
g1 x14.292893 y2.292893
g1 x14 y2
g1 x14 y1
g3 x15 y0 i1 j0
g1 x18 y0
g3 x19 y1 i0 j1
g1 x19 y2
g1 x18.707107 y2.292893
g1 x19 y2
g1 x21 y2
g3 x22 y3 i0 j1
g1 x22 y16
g3 x21 y17 i-1 j0
g1 x1 y17
g3 x0 y16 i0 j-1
g1 x0 y3
g3 x1 y2 i1 j0
g1 x3 y2
g1 x3.292893 y2.292893
g1 x3 y2
g1 x3 y1
g3 x4 y0 i1 j0
g1 x7 y0
g3 x8 y1 i0 j1
g1 x8 y2
g1 z-1 f150
g1 x7.707107 y2.292893 f350
g1 x8 y2
g1 x14 y2
g1 x14.292893 y2.292893
g1 x14 y2
g1 x14 y1
g3 x15 y0 i1 j0
g1 x18 y0
g3 x19 y1 i0 j1
g1 x19 y2
g1 x18.707107 y2.292893
g1 x19 y2
g1 x21 y2
g3 x22 y3 i0 j1
g1 x22 y16
g3 x21 y17 i-1 j0
g1 x1 y17
g3 x0 y16 i0 j-1
g1 x0 y3
g3 x1 y2 i1 j0
g1 x3 y2
g1 x3.292893 y2.292893
g1 x3 y2
g1 x3 y1
g3 x4 y0 i1 j0
g1 x7 y0
g3 x8 y1 i0 j1
g1 x8 y2
g1 z-1.5 f150
g1 x7.707107 y2.292893 f350
g1 x8 y2
g1 x14 y2
g1 x14.292893 y2.292893
g1 x14 y2
g1 x14 y1
g3 x15 y0 i1 j0
g1 x18 y0
g3 x19 y1 i0 j1
g1 x19 y2
g1 x18.707107 y2.292893
g1 x19 y2
g1 x21 y2
g3 x22 y3 i0 j1
g1 x22 y16
g3 x21 y17 i-1 j0
g1 x1 y17
g3 x0 y16 i0 j-1
g1 x0 y3
g3 x1 y2 i1 j0
g1 x3 y2
g1 x3.292893 y2.292893
g1 x3 y2
g1 x3 y1
g3 x4 y0 i1 j0
g1 x7 y0
g3 x8 y1 i0 j1
g1 x8 y2
g1 z-2 f150
g1 x7.707107 y2.292893 f350
g1 x8 y2
g1 x14 y2
g1 x14.292893 y2.292893
g1 x14 y2
g1 x14 y1
g3 x15 y0 i1 j0
g1 x18 y0
g3 x19 y1 i0 j1
g1 x19 y2
g1 x18.707107 y2.292893
g1 x19 y2
g1 x21 y2
g3 x22 y3 i0 j1
g1 x22 y16
g3 x21 y17 i-1 j0
g1 x1 y17
g3 x0 y16 i0 j-1
g1 x0 y3
g3 x1 y2 i1 j0
g1 x3 y2
g1 x3.292893 y2.292893
g1 x3 y2
g1 x3 y1
g3 x4 y0 i1 j0
g1 x7 y0
g3 x8 y1 i0 j1
g1 x8 y2
g1 z-2.5 f150
g1 x7.707107 y2.292893 f350
g1 x8 y2
g1 x14 y2
g1 x14.292893 y2.292893
g1 x14 y2
g1 x14 y1
g3 x15 y0 i1 j0
g1 x18 y0
g3 x19 y1 i0 j1
g1 x19 y2
g1 x18.707107 y2.292893
g1 x19 y2
g1 x21 y2
g3 x22 y3 i0 j1
g1 x22 y16
g3 x21 y17 i-1 j0
g1 x1 y17
g3 x0 y16 i0 j-1
g1 x0 y3
g3 x1 y2 i1 j0
g1 x3 y2
g1 x3.292893 y2.292893
g1 x3 y2
g1 x3 y1
g3 x4 y0 i1 j0
g1 x7 y0
g3 x8 y1 i0 j1
g1 x8 y2
g1 z-3 f150
g1 x7.707107 y2.292893 f350
g1 x8 y2
g1 x14 y2
g1 x14.292893 y2.292893
g1 x14 y2
g1 x14 y1
g3 x15 y0 i1 j0
g1 x18 y0
g3 x19 y1 i0 j1
g1 x19 y2
g1 x18.707107 y2.292893
g1 x19 y2
g1 x21 y2
g3 x22 y3 i0 j1
g1 x22 y16
g3 x21 y17 i-1 j0
g1 x1 y17
g3 x0 y16 i0 j-1
g1 x0 y3
g3 x1 y2 i1 j0
g1 x3 y2
g1 x3.292893 y2.292893
g1 x3 y2
g1 x3 y1
g3 x4 y0 i1 j0
g1 x7 y0
g3 x8 y1 i0 j1
g1 x8 y2
g0 z5
(Block-name: block)
(Block-expand: 0)
(Block-enable: 1)

(End cutting path id: path4)



(Footer)
M5
G0 X1 Y1 Z20
M2
(Using default footer. To add your own footer create file "footer" in the output dir.)
(end)

