(Block-name: Header)
(Block-expand: 0)
(Block-enable: 1)
%
(Header)
(Generated by gcodetools from Inkscape.)
(Using default header. To add your own header create file "header" in the output dir.)
M3
(Header end.)
G21 (All units in mm)

(Start cutting path id: path4)
(Change tool to Default tool)

G0 Z10
(Block-name: path4)
(Block-expand: 0)
(Block-enable: 0)

(End cutting path id: path4)


(Start cutting path id: path4)
(Change tool to Default tool)

G0 Z10
G0 X192.678244 Y164.756383

G1 Z-0.125 F100
G1 X192.478244 Y164.781383 Z-0.125 F400
G1 X192.284244 Y164.831383 Z-0.125
G1 X192.097244 Y164.905383 Z-0.125
G1 X191.921244 Y165.002383 Z-0.125
G1 X191.758244 Y165.120483 Z-0.125
G1 X191.612244 Y165.258083 Z-0.125
G1 X191.484244 Y165.412983 Z-0.125
G1 X191.376244 Y165.582483 Z-0.125
G1 X191.290244 Y165.764383 Z-0.125
G1 X191.228244 Y165.955383 Z-0.125
G1 X191.191244 Y166.152883 Z-0.125
G1 X191.178244 Y166.353383 Z-0.125
G1 X191.191244 Y166.553883 Z-0.125
G1 X191.228244 Y166.751283 Z-0.125
G1 X191.290244 Y166.942383 Z-0.125
G1 X191.376244 Y167.124083 Z-0.125
G1 X191.484244 Y167.293783 Z-0.125
G1 X191.612244 Y167.448683 Z-0.125
G1 X191.758244 Y167.586083 Z-0.125
G1 X191.921244 Y167.704283 Z-0.125
G1 X192.097244 Y167.801283 Z-0.125
G1 X192.284244 Y167.875283 Z-0.125
G1 X192.478244 Y167.925283 Z-0.125
G1 X192.678244 Y167.950283 Z-0.125
G1 X192.878244 Y167.950283 Z-0.125
G1 X193.078244 Y167.925283 Z-0.125
G1 X193.272244 Y167.875283 Z-0.125
G1 X193.459244 Y167.801283 Z-0.125
G1 X193.635244 Y167.704283 Z-0.125
G1 X193.798244 Y167.586083 Z-0.125
G1 X193.944244 Y167.448683 Z-0.125
G1 X194.072244 Y167.293783 Z-0.125
G1 X194.180244 Y167.124083 Z-0.125
G1 X194.266244 Y166.942383 Z-0.125
G1 X194.328244 Y166.751283 Z-0.125
G1 X194.365244 Y166.553883 Z-0.125
G1 X194.378244 Y166.353383 Z-0.125
G1 X194.365244 Y166.152883 Z-0.125
G1 X194.328244 Y165.955383 Z-0.125
G1 X194.266244 Y165.764383 Z-0.125
G1 X194.180244 Y165.582483 Z-0.125
G1 X194.072244 Y165.412983 Z-0.125
G1 X193.944244 Y165.258083 Z-0.125
G1 X193.798244 Y165.120483 Z-0.125
G1 X193.635244 Y165.002383 Z-0.125
G1 X193.459244 Y164.905383 Z-0.125
G1 X193.272244 Y164.831383 Z-0.125
G1 X193.078244 Y164.781383 Z-0.125
G1 X192.878244 Y164.756383 Z-0.125
G1 X192.678244 Y164.756383 Z-0.125
G0 Z10
(Block-name: path4 [in,cut])
(Block-expand: 0)
(Block-enable: 1)
g0 x192.740502 y165.756383
g1 z0 f300
g1 x192.740381 y165.754451 f650
g1 x192.740502 y165.756383
g1 x192.665815 y165.765719
g1 x192.665432 y165.763707
g1 x192.665815 y165.765719
g1 x192.594212 y165.784173
g1 x192.593611 y165.782326
g1 x192.594212 y165.784173
g1 x192.524282 y165.811846
g1 x192.523422 y165.810022
g1 x192.524282 y165.811846
g1 x192.457984 y165.848385
g1 x192.456965 y165.846778
g1 x192.457984 y165.848385
g1 x192.397182 y165.892439
g1 x192.395858 y165.890839
g1 x192.397182 y165.892439
g1 x192.343434 y165.943095
g1 x192.34202 y165.94177
g1 x192.343434 y165.943095
g1 x192.294429 y166.002398
g1 x192.29289 y166.001278
g1 x192.294429 y166.002398
g1 x192.253405 y166.066783
g1 x192.251674 y166.065828
g1 x192.253405 y166.066783
g1 x192.221637 y166.133975
g1 x192.219738 y166.133221
g1 x192.221637 y166.133975
g1 x192.19928 y166.202849
g1 x192.197271 y166.202337
g1 x192.19928 y166.202849
g1 x192.185247 y166.277756
g1 x192.183445 y166.277529
g1 x192.185247 y166.277756
g1 x192.180344 y166.353383
g1 x192.178244 y166.353383
g1 x192.180344 y166.353383
g1 x192.185244 y166.428965
g1 x192.18344 y166.429191
g1 x192.185244 y166.428965
g1 x192.19928 y166.503849
g1 x192.197279 y166.504359
g1 x192.19928 y166.503849
g1 x192.221604 y166.572657
g1 x192.219687 y166.573418
g1 x192.221604 y166.572657
g1 x192.253405 y166.639845
g1 x192.2517 y166.640786
g1 x192.253405 y166.639845
g1 x192.2946 y166.704575
g1 x192.293047 y166.705704
g1 x192.2946 y166.704575
g1 x192.343202 y166.76339
g1 x192.341771 y166.764731
g1 x192.343202 y166.76339
g1 x192.397034 y166.814052
g1 x192.395733 y166.815624
g1 x192.397034 y166.814052
g1 x192.458161 y166.858378
g1 x192.457134 y166.859995
g1 x192.458161 y166.858378
g1 x192.524282 y166.89482
g1 x192.523422 y166.896644
g1 x192.524282 y166.89482
g1 x192.594212 y166.922493
g1 x192.593611 y166.92434
g1 x192.594212 y166.922493
g1 x192.665815 y166.940947
g1 x192.665432 y166.942959
g1 x192.665815 y166.940947
g1 x192.740502 y166.950283
g1 x192.740381 y166.952215
g1 x192.740502 y166.950283
g1 x192.815986 y166.950283
g1 x192.816107 y166.952215
g1 x192.815986 y166.950283
g1 x192.890673 y166.940947
g1 x192.891056 y166.942959
g1 x192.890673 y166.940947
g1 x192.962276 y166.922493
g1 x192.962877 y166.92434
g1 x192.962276 y166.922493
g1 x193.032206 y166.89482
g1 x193.033066 y166.896644
g1 x193.032206 y166.89482
g1 x193.098327 y166.858378
g1 x193.099354 y166.859995
g1 x193.098327 y166.858378
g1 x193.159454 y166.814052
g1 x193.160755 y166.815624
g1 x193.159454 y166.814052
g1 x193.213286 y166.76339
g1 x193.214717 y166.764731
g1 x193.213286 y166.76339
g1 x193.261888 y166.704575
g1 x193.263441 y166.705704
g1 x193.261888 y166.704575
g1 x193.303083 y166.639845
g1 x193.304788 y166.640786
g1 x193.303083 y166.639845
g1 x193.334884 y166.572657
g1 x193.336801 y166.573418
g1 x193.334884 y166.572657
g1 x193.357208 y166.503849
g1 x193.359209 y166.504359
g1 x193.357208 y166.503849
g1 x193.371244 y166.428965
g1 x193.373048 y166.429191
g1 x193.371244 y166.428965
g1 x193.376144 y166.353383
g1 x193.378244 y166.353383
g1 x193.376144 y166.353383
g1 x193.371241 y166.277756
g1 x193.373043 y166.277529
g1 x193.371241 y166.277756
g1 x193.357208 y166.202849
g1 x193.359217 y166.202337
g1 x193.357208 y166.202849
g1 x193.334851 y166.133975
g1 x193.33675 y166.133221
g1 x193.334851 y166.133975
g1 x193.303083 y166.066783
g1 x193.304814 y166.065828
g1 x193.303083 y166.066783
g1 x193.262059 y166.002398
g1 x193.263598 y166.001278
g1 x193.262059 y166.002398
g1 x193.213054 y165.943095
g1 x193.214468 y165.94177
g1 x193.213054 y165.943095
g1 x193.159306 y165.892439
g1 x193.16063 y165.890839
g1 x193.159306 y165.892439
g1 x193.098504 y165.848385
g1 x193.099523 y165.846778
g1 x193.098504 y165.848385
g1 x193.032206 y165.811846
g1 x193.033066 y165.810022
g1 x193.032206 y165.811846
g1 x192.962276 y165.784173
g1 x192.962877 y165.782326
g1 x192.962276 y165.784173
g1 x192.890673 y165.765719
g1 x192.891056 y165.763707
g1 x192.890673 y165.765719
g1 x192.815986 y165.756383
g1 x192.816107 y165.754451
g1 x192.815986 y165.756383
g1 x192.740502 y165.756383
g1 z-1 f300
g1 x192.740381 y165.754451 f650
g1 x192.740502 y165.756383
g1 x192.665815 y165.765719
g1 x192.665432 y165.763707
g1 x192.665815 y165.765719
g1 x192.594212 y165.784173
g1 x192.593611 y165.782326
g1 x192.594212 y165.784173
g1 x192.524282 y165.811846
g1 x192.523422 y165.810022
g1 x192.524282 y165.811846
g1 x192.457984 y165.848385
g1 x192.456965 y165.846778
g1 x192.457984 y165.848385
g1 x192.397182 y165.892439
g1 x192.395858 y165.890839
g1 x192.397182 y165.892439
g1 x192.343434 y165.943095
g1 x192.34202 y165.94177
g1 x192.343434 y165.943095
g1 x192.294429 y166.002398
g1 x192.29289 y166.001278
g1 x192.294429 y166.002398
g1 x192.253405 y166.066783
g1 x192.251674 y166.065828
g1 x192.253405 y166.066783
g1 x192.221637 y166.133975
g1 x192.219738 y166.133221
g1 x192.221637 y166.133975
g1 x192.19928 y166.202849
g1 x192.197271 y166.202337
g1 x192.19928 y166.202849
g1 x192.185247 y166.277756
g1 x192.183445 y166.277529
g1 x192.185247 y166.277756
g1 x192.180344 y166.353383
g1 x192.178244 y166.353383
g1 x192.180344 y166.353383
g1 x192.185244 y166.428965
g1 x192.18344 y166.429191
g1 x192.185244 y166.428965
g1 x192.19928 y166.503849
g1 x192.197279 y166.504359
g1 x192.19928 y166.503849
g1 x192.221604 y166.572657
g1 x192.219687 y166.573418
g1 x192.221604 y166.572657
g1 x192.253405 y166.639845
g1 x192.2517 y166.640786
g1 x192.253405 y166.639845
g1 x192.2946 y166.704575
g1 x192.293047 y166.705704
g1 x192.2946 y166.704575
g1 x192.343202 y166.76339
g1 x192.341771 y166.764731
g1 x192.343202 y166.76339
g1 x192.397034 y166.814052
g1 x192.395733 y166.815624
g1 x192.397034 y166.814052
g1 x192.458161 y166.858378
g1 x192.457134 y166.859995
g1 x192.458161 y166.858378
g1 x192.524282 y166.89482
g1 x192.523422 y166.896644
g1 x192.524282 y166.89482
g1 x192.594212 y166.922493
g1 x192.593611 y166.92434
g1 x192.594212 y166.922493
g1 x192.665815 y166.940947
g1 x192.665432 y166.942959
g1 x192.665815 y166.940947
g1 x192.740502 y166.950283
g1 x192.740381 y166.952215
g1 x192.740502 y166.950283
g1 x192.815986 y166.950283
g1 x192.816107 y166.952215
g1 x192.815986 y166.950283
g1 x192.890673 y166.940947
g1 x192.891056 y166.942959
g1 x192.890673 y166.940947
g1 x192.962276 y166.922493
g1 x192.962877 y166.92434
g1 x192.962276 y166.922493
g1 x193.032206 y166.89482
g1 x193.033066 y166.896644
g1 x193.032206 y166.89482
g1 x193.098327 y166.858378
g1 x193.099354 y166.859995
g1 x193.098327 y166.858378
g1 x193.159454 y166.814052
g1 x193.160755 y166.815624
g1 x193.159454 y166.814052
g1 x193.213286 y166.76339
g1 x193.214717 y166.764731
g1 x193.213286 y166.76339
g1 x193.261888 y166.704575
g1 x193.263441 y166.705704
g1 x193.261888 y166.704575
g1 x193.303083 y166.639845
g1 x193.304788 y166.640786
g1 x193.303083 y166.639845
g1 x193.334884 y166.572657
g1 x193.336801 y166.573418
g1 x193.334884 y166.572657
g1 x193.357208 y166.503849
g1 x193.359209 y166.504359
g1 x193.357208 y166.503849
g1 x193.371244 y166.428965
g1 x193.373048 y166.429191
g1 x193.371244 y166.428965
g1 x193.376144 y166.353383
g1 x193.378244 y166.353383
g1 x193.376144 y166.353383
g1 x193.371241 y166.277756
g1 x193.373043 y166.277529
g1 x193.371241 y166.277756
g1 x193.357208 y166.202849
g1 x193.359217 y166.202337
g1 x193.357208 y166.202849
g1 x193.334851 y166.133975
g1 x193.33675 y166.133221
g1 x193.334851 y166.133975
g1 x193.303083 y166.066783
g1 x193.304814 y166.065828
g1 x193.303083 y166.066783
g1 x193.262059 y166.002398
g1 x193.263598 y166.001278
g1 x193.262059 y166.002398
g1 x193.213054 y165.943095
g1 x193.214468 y165.94177
g1 x193.213054 y165.943095
g1 x193.159306 y165.892439
g1 x193.16063 y165.890839
g1 x193.159306 y165.892439
g1 x193.098504 y165.848385
g1 x193.099523 y165.846778
g1 x193.098504 y165.848385
g1 x193.032206 y165.811846
g1 x193.033066 y165.810022
g1 x193.032206 y165.811846
g1 x192.962276 y165.784173
g1 x192.962877 y165.782326
g1 x192.962276 y165.784173
g1 x192.890673 y165.765719
g1 x192.891056 y165.763707
g1 x192.890673 y165.765719
g1 x192.815986 y165.756383
g1 x192.816107 y165.754451
g1 x192.815986 y165.756383
g1 x192.740502 y165.756383
g1 z-2 f300
g1 x192.740381 y165.754451 f650
g1 x192.740502 y165.756383
g1 x192.665815 y165.765719
g1 x192.665432 y165.763707
g1 x192.665815 y165.765719
g1 x192.594212 y165.784173
g1 x192.593611 y165.782326
g1 x192.594212 y165.784173
g1 x192.524282 y165.811846
g1 x192.523422 y165.810022
g1 x192.524282 y165.811846
g1 x192.457984 y165.848385
g1 x192.456965 y165.846778
g1 x192.457984 y165.848385
g1 x192.397182 y165.892439
g1 x192.395858 y165.890839
g1 x192.397182 y165.892439
g1 x192.343434 y165.943095
g1 x192.34202 y165.94177
g1 x192.343434 y165.943095
g1 x192.294429 y166.002398
g1 x192.29289 y166.001278
g1 x192.294429 y166.002398
g1 x192.253405 y166.066783
g1 x192.251674 y166.065828
g1 x192.253405 y166.066783
g1 x192.221637 y166.133975
g1 x192.219738 y166.133221
g1 x192.221637 y166.133975
g1 x192.19928 y166.202849
g1 x192.197271 y166.202337
g1 x192.19928 y166.202849
g1 x192.185247 y166.277756
g1 x192.183445 y166.277529
g1 x192.185247 y166.277756
g1 x192.180344 y166.353383
g1 x192.178244 y166.353383
g1 x192.180344 y166.353383
g1 x192.185244 y166.428965
g1 x192.18344 y166.429191
g1 x192.185244 y166.428965
g1 x192.19928 y166.503849
g1 x192.197279 y166.504359
g1 x192.19928 y166.503849
g1 x192.221604 y166.572657
g1 x192.219687 y166.573418
g1 x192.221604 y166.572657
g1 x192.253405 y166.639845
g1 x192.2517 y166.640786
g1 x192.253405 y166.639845
g1 x192.2946 y166.704575
g1 x192.293047 y166.705704
g1 x192.2946 y166.704575
g1 x192.343202 y166.76339
g1 x192.341771 y166.764731
g1 x192.343202 y166.76339
g1 x192.397034 y166.814052
g1 x192.395733 y166.815624
g1 x192.397034 y166.814052
g1 x192.458161 y166.858378
g1 x192.457134 y166.859995
g1 x192.458161 y166.858378
g1 x192.524282 y166.89482
g1 x192.523422 y166.896644
g1 x192.524282 y166.89482
g1 x192.594212 y166.922493
g1 x192.593611 y166.92434
g1 x192.594212 y166.922493
g1 x192.665815 y166.940947
g1 x192.665432 y166.942959
g1 x192.665815 y166.940947
g1 x192.740502 y166.950283
g1 x192.740381 y166.952215
g1 x192.740502 y166.950283
g1 x192.815986 y166.950283
g1 x192.816107 y166.952215
g1 x192.815986 y166.950283
g1 x192.890673 y166.940947
g1 x192.891056 y166.942959
g1 x192.890673 y166.940947
g1 x192.962276 y166.922493
g1 x192.962877 y166.92434
g1 x192.962276 y166.922493
g1 x193.032206 y166.89482
g1 x193.033066 y166.896644
g1 x193.032206 y166.89482
g1 x193.098327 y166.858378
g1 x193.099354 y166.859995
g1 x193.098327 y166.858378
g1 x193.159454 y166.814052
g1 x193.160755 y166.815624
g1 x193.159454 y166.814052
g1 x193.213286 y166.76339
g1 x193.214717 y166.764731
g1 x193.213286 y166.76339
g1 x193.261888 y166.704575
g1 x193.263441 y166.705704
g1 x193.261888 y166.704575
g1 x193.303083 y166.639845
g1 x193.304788 y166.640786
g1 x193.303083 y166.639845
g1 x193.334884 y166.572657
g1 x193.336801 y166.573418
g1 x193.334884 y166.572657
g1 x193.357208 y166.503849
g1 x193.359209 y166.504359
g1 x193.357208 y166.503849
g1 x193.371244 y166.428965
g1 x193.373048 y166.429191
g1 x193.371244 y166.428965
g1 x193.376144 y166.353383
g1 x193.378244 y166.353383
g1 x193.376144 y166.353383
g1 x193.371241 y166.277756
g1 x193.373043 y166.277529
g1 x193.371241 y166.277756
g1 x193.357208 y166.202849
g1 x193.359217 y166.202337
g1 x193.357208 y166.202849
g1 x193.334851 y166.133975
g1 x193.33675 y166.133221
g1 x193.334851 y166.133975
g1 x193.303083 y166.066783
g1 x193.304814 y166.065828
g1 x193.303083 y166.066783
g1 x193.262059 y166.002398
g1 x193.263598 y166.001278
g1 x193.262059 y166.002398
g1 x193.213054 y165.943095
g1 x193.214468 y165.94177
g1 x193.213054 y165.943095
g1 x193.159306 y165.892439
g1 x193.16063 y165.890839
g1 x193.159306 y165.892439
g1 x193.098504 y165.848385
g1 x193.099523 y165.846778
g1 x193.098504 y165.848385
g1 x193.032206 y165.811846
g1 x193.033066 y165.810022
g1 x193.032206 y165.811846
g1 x192.962276 y165.784173
g1 x192.962877 y165.782326
g1 x192.962276 y165.784173
g1 x192.890673 y165.765719
g1 x192.891056 y165.763707
g1 x192.890673 y165.765719
g1 x192.815986 y165.756383
g1 x192.816107 y165.754451
g1 x192.815986 y165.756383
g1 x192.740502 y165.756383
g1 z-3 f300
g1 x192.740381 y165.754451 f650
g1 x192.740502 y165.756383
g1 x192.665815 y165.765719
g1 x192.665432 y165.763707
g1 x192.665815 y165.765719
g1 x192.594212 y165.784173
g1 x192.593611 y165.782326
g1 x192.594212 y165.784173
g1 x192.524282 y165.811846
g1 x192.523422 y165.810022
g1 x192.524282 y165.811846
g1 x192.457984 y165.848385
g1 x192.456965 y165.846778
g1 x192.457984 y165.848385
g1 x192.397182 y165.892439
g1 x192.395858 y165.890839
g1 x192.397182 y165.892439
g1 x192.343434 y165.943095
g1 x192.34202 y165.94177
g1 x192.343434 y165.943095
g1 x192.294429 y166.002398
g1 x192.29289 y166.001278
g1 x192.294429 y166.002398
g1 x192.253405 y166.066783
g1 x192.251674 y166.065828
g1 x192.253405 y166.066783
g1 x192.221637 y166.133975
g1 x192.219738 y166.133221
g1 x192.221637 y166.133975
g1 x192.19928 y166.202849
g1 x192.197271 y166.202337
g1 x192.19928 y166.202849
g1 x192.185247 y166.277756
g1 x192.183445 y166.277529
g1 x192.185247 y166.277756
g1 x192.180344 y166.353383
g1 x192.178244 y166.353383
g1 x192.180344 y166.353383
g1 x192.185244 y166.428965
g1 x192.18344 y166.429191
g1 x192.185244 y166.428965
g1 x192.19928 y166.503849
g1 x192.197279 y166.504359
g1 x192.19928 y166.503849
g1 x192.221604 y166.572657
g1 x192.219687 y166.573418
g1 x192.221604 y166.572657
g1 x192.253405 y166.639845
g1 x192.2517 y166.640786
g1 x192.253405 y166.639845
g1 x192.2946 y166.704575
g1 x192.293047 y166.705704
g1 x192.2946 y166.704575
g1 x192.343202 y166.76339
g1 x192.341771 y166.764731
g1 x192.343202 y166.76339
g1 x192.397034 y166.814052
g1 x192.395733 y166.815624
g1 x192.397034 y166.814052
g1 x192.458161 y166.858378
g1 x192.457134 y166.859995
g1 x192.458161 y166.858378
g1 x192.524282 y166.89482
g1 x192.523422 y166.896644
g1 x192.524282 y166.89482
g1 x192.594212 y166.922493
g1 x192.593611 y166.92434
g1 x192.594212 y166.922493
g1 x192.665815 y166.940947
g1 x192.665432 y166.942959
g1 x192.665815 y166.940947
g1 x192.740502 y166.950283
g1 x192.740381 y166.952215
g1 x192.740502 y166.950283
g1 x192.815986 y166.950283
g1 x192.816107 y166.952215
g1 x192.815986 y166.950283
g1 x192.890673 y166.940947
g1 x192.891056 y166.942959
g1 x192.890673 y166.940947
g1 x192.962276 y166.922493
g1 x192.962877 y166.92434
g1 x192.962276 y166.922493
g1 x193.032206 y166.89482
g1 x193.033066 y166.896644
g1 x193.032206 y166.89482
g1 x193.098327 y166.858378
g1 x193.099354 y166.859995
g1 x193.098327 y166.858378
g1 x193.159454 y166.814052
g1 x193.160755 y166.815624
g1 x193.159454 y166.814052
g1 x193.213286 y166.76339
g1 x193.214717 y166.764731
g1 x193.213286 y166.76339
g1 x193.261888 y166.704575
g1 x193.263441 y166.705704
g1 x193.261888 y166.704575
g1 x193.303083 y166.639845
g1 x193.304788 y166.640786
g1 x193.303083 y166.639845
g1 x193.334884 y166.572657
g1 x193.336801 y166.573418
g1 x193.334884 y166.572657
g1 x193.357208 y166.503849
g1 x193.359209 y166.504359
g1 x193.357208 y166.503849
g1 x193.371244 y166.428965
g1 x193.373048 y166.429191
g1 x193.371244 y166.428965
g1 x193.376144 y166.353383
g1 x193.378244 y166.353383
g1 x193.376144 y166.353383
g1 x193.371241 y166.277756
g1 x193.373043 y166.277529
g1 x193.371241 y166.277756
g1 x193.357208 y166.202849
g1 x193.359217 y166.202337
g1 x193.357208 y166.202849
g1 x193.334851 y166.133975
g1 x193.33675 y166.133221
g1 x193.334851 y166.133975
g1 x193.303083 y166.066783
g1 x193.304814 y166.065828
g1 x193.303083 y166.066783
g1 x193.262059 y166.002398
g1 x193.263598 y166.001278
g1 x193.262059 y166.002398
g1 x193.213054 y165.943095
g1 x193.214468 y165.94177
g1 x193.213054 y165.943095
g1 x193.159306 y165.892439
g1 x193.16063 y165.890839
g1 x193.159306 y165.892439
g1 x193.098504 y165.848385
g1 x193.099523 y165.846778
g1 x193.098504 y165.848385
g1 x193.032206 y165.811846
g1 x193.033066 y165.810022
g1 x193.032206 y165.811846
g1 x192.962276 y165.784173
g1 x192.962877 y165.782326
g1 x192.962276 y165.784173
g1 x192.890673 y165.765719
g1 x192.891056 y165.763707
g1 x192.890673 y165.765719
g1 x192.815986 y165.756383
g1 x192.816107 y165.754451
g1 x192.815986 y165.756383
g1 x192.740502 y165.756383
g0 z30
(Block-name: path4)
(Block-expand: 0)
(Block-enable: 0)

(End cutting path id: path4)


(Start cutting path id: path4)
(Change tool to Default tool)

G0 Z10
G0 X188.077244 Y168.265683

G1 Z-0.125 F100
G1 X187.880244 Y168.303683 Z-0.125 F400
G1 X187.689244 Y168.365683 Z-0.125
G1 X187.507244 Y168.451683 Z-0.125
G1 X187.338244 Y168.559283 Z-0.125
G1 X187.183244 Y168.687483 Z-0.125
G1 X187.045244 Y168.833983 Z-0.125
G1 X186.927244 Y168.996483 Z-0.125
G1 X186.830244 Y169.172483 Z-0.125
G1 X186.756244 Y169.359283 Z-0.125
G1 X186.706244 Y169.553983 Z-0.125
G1 X186.681244 Y169.753283 Z-0.125
G1 X186.681244 Y169.954283 Z-0.125
G1 X186.706244 Y170.153483 Z-0.125
G1 X186.756244 Y170.348183 Z-0.125
G1 X186.830244 Y170.534983 Z-0.125
G1 X186.927244 Y170.711083 Z-0.125
G1 X187.045244 Y170.873583 Z-0.125
G1 X187.183244 Y171.020083 Z-0.125
G1 X187.338244 Y171.148283 Z-0.125
G1 X187.507244 Y171.255783 Z-0.125
G1 X187.689244 Y171.341783 Z-0.125
G1 X187.880244 Y171.403783 Z-0.125
G1 X188.077244 Y171.441783 Z-0.125
G1 X188.278244 Y171.453783 Z-0.125
G1 X188.478244 Y171.441783 Z-0.125
G1 X188.676244 Y171.403783 Z-0.125
G1 X188.867244 Y171.341783 Z-0.125
G1 X189.049244 Y171.255783 Z-0.125
G1 X189.218244 Y171.148283 Z-0.125
G1 X189.373244 Y171.020083 Z-0.125
G1 X189.511244 Y170.873583 Z-0.125
G1 X189.629244 Y170.711083 Z-0.125
G1 X189.726244 Y170.534983 Z-0.125
G1 X189.800244 Y170.348183 Z-0.125
G1 X189.850244 Y170.153483 Z-0.125
G1 X189.875244 Y169.954283 Z-0.125
G1 X189.875244 Y169.753283 Z-0.125
G1 X189.850244 Y169.553983 Z-0.125
G1 X189.800244 Y169.359283 Z-0.125
G1 X189.726244 Y169.172483 Z-0.125
G1 X189.629244 Y168.996483 Z-0.125
G1 X189.511244 Y168.833983 Z-0.125
G1 X189.373244 Y168.687483 Z-0.125
G1 X189.218244 Y168.559283 Z-0.125
G1 X189.049244 Y168.451683 Z-0.125
G1 X188.867244 Y168.365683 Z-0.125
G1 X188.676244 Y168.303683 Z-0.125
G1 X188.478244 Y168.265683 Z-0.125
G1 X188.278244 Y168.253683 Z-0.125
G1 X188.077244 Y168.265683 Z-0.125
G0 Z10
(Block-name: path4 [in,cut])
(Block-expand: 0)
(Block-enable: 1)
g0 x188.202278 y169.259999
g1 z0 f300
g1 x188.20201 y169.257869 f650
g1 x188.202278 y169.259999
g1 x188.130269 y169.273889
g1 x188.129793 y169.272045
g1 x188.130269 y169.273889
g1 x188.058735 y169.297109
g1 x188.057984 y169.295216
g1 x188.058735 y169.297109
g1 x187.991299 y169.328975
g1 x187.990346 y169.327247
g1 x187.991299 y169.328975
g1 x187.927717 y169.369457
g1 x187.926583 y169.367898
g1 x187.927717 y169.369457
g1 x187.86851 y169.418426
g1 x187.867189 y169.417017
g1 x187.86851 y169.418426
g1 x187.816912 y169.473203
g1 x187.815345 y169.471905
g1 x187.816912 y169.473203
g1 x187.77299 y169.533688
g1 x187.771356 y169.53265
g1 x187.77299 y169.533688
g1 x187.736619 y169.599682
g1 x187.734805 y169.598827
g1 x187.736619 y169.599682
g1 x187.709149 y169.669024
g1 x187.707264 y169.668411
g1 x187.709149 y169.669024
g1 x187.69058 y169.741332
g1 x187.688609 y169.740956
g1 x187.69058 y169.741332
g1 x187.681244 y169.815758
g1 x187.679298 y169.815636
g1 x187.681244 y169.815758
g1 x187.681244 y169.891777
g1 x187.679296 y169.891899
g1 x187.681244 y169.891777
g1 x187.690572 y169.966104
g1 x187.688603 y169.966479
g1 x187.690572 y169.966104
g1 x187.709149 y170.038442
g1 x187.707264 y170.039055
g1 x187.709149 y170.038442
g1 x187.736663 y170.107896
g1 x187.734856 y170.108748
g1 x187.736663 y170.107896
g1 x187.773061 y170.173976
g1 x187.77142 y170.175017
g1 x187.773061 y170.173976
g1 x187.816912 y170.234363
g1 x187.815345 y170.235661
g1 x187.816912 y170.234363
g1 x187.86851 y170.28914
g1 x187.867189 y170.290549
g1 x187.86851 y170.28914
g1 x187.927554 y170.337975
g1 x187.926412 y170.339544
g1 x187.927554 y170.337975
g1 x187.991108 y170.378401
g1 x187.990161 y170.380117
g1 x187.991108 y170.378401
g1 x188.058735 y170.410357
g1 x188.057984 y170.41225
g1 x188.058735 y170.410357
g1 x188.130269 y170.433577
g1 x188.129793 y170.435421
g1 x188.130269 y170.433577
g1 x188.202278 y170.447467
g1 x188.20201 y170.449597
g1 x188.202278 y170.447467
g1 x188.278095 y170.451994
g1 x188.278095 y170.453783
g1 x188.278095 y170.451994
g1 x188.353535 y170.447467
g1 x188.353797 y170.449557
g1 x188.353535 y170.447467
g1 x188.426668 y170.433431
g1 x188.42715 y170.435304
g1 x188.426668 y170.433431
g1 x188.497753 y170.410357
g1 x188.498504 y170.41225
g1 x188.497753 y170.410357
g1 x188.56538 y170.378401
g1 x188.566327 y170.380117
g1 x188.56538 y170.378401
g1 x188.628934 y170.337975
g1 x188.630076 y170.339544
g1 x188.628934 y170.337975
g1 x188.687978 y170.28914
g1 x188.689299 y170.290549
g1 x188.687978 y170.28914
g1 x188.739576 y170.234363
g1 x188.741143 y170.235661
g1 x188.739576 y170.234363
g1 x188.783427 y170.173976
g1 x188.785068 y170.175017
g1 x188.783427 y170.173976
g1 x188.819825 y170.107896
g1 x188.821632 y170.108748
g1 x188.819825 y170.107896
g1 x188.847339 y170.038442
g1 x188.849224 y170.039055
g1 x188.847339 y170.038442
g1 x188.865916 y169.966104
g1 x188.867885 y169.966479
g1 x188.865916 y169.966104
g1 x188.875244 y169.891777
g1 x188.877192 y169.891899
g1 x188.875244 y169.891777
g1 x188.875244 y169.815758
g1 x188.87719 y169.815636
g1 x188.875244 y169.815758
g1 x188.865908 y169.741332
g1 x188.867879 y169.740956
g1 x188.865908 y169.741332
g1 x188.847339 y169.669024
g1 x188.849224 y169.668411
g1 x188.847339 y169.669024
g1 x188.819869 y169.599682
g1 x188.821683 y169.598827
g1 x188.819869 y169.599682
g1 x188.783498 y169.533688
g1 x188.785132 y169.53265
g1 x188.783498 y169.533688
g1 x188.739576 y169.473203
g1 x188.741143 y169.471905
g1 x188.739576 y169.473203
g1 x188.687978 y169.418426
g1 x188.689299 y169.417017
g1 x188.687978 y169.418426
g1 x188.628771 y169.369457
g1 x188.629905 y169.367898
g1 x188.628771 y169.369457
g1 x188.565189 y169.328975
g1 x188.566142 y169.327247
g1 x188.565189 y169.328975
g1 x188.497753 y169.297109
g1 x188.498504 y169.295216
g1 x188.497753 y169.297109
g1 x188.426668 y169.274035
g1 x188.42715 y169.272162
g1 x188.426668 y169.274035
g1 x188.353535 y169.259999
g1 x188.353797 y169.257909
g1 x188.353535 y169.259999
g1 x188.278095 y169.255472
g1 x188.278095 y169.253683
g1 x188.278095 y169.255472
g1 x188.202278 y169.259999
g1 z-1 f300
g1 x188.20201 y169.257869 f650
g1 x188.202278 y169.259999
g1 x188.130269 y169.273889
g1 x188.129793 y169.272045
g1 x188.130269 y169.273889
g1 x188.058735 y169.297109
g1 x188.057984 y169.295216
g1 x188.058735 y169.297109
g1 x187.991299 y169.328975
g1 x187.990346 y169.327247
g1 x187.991299 y169.328975
g1 x187.927717 y169.369457
g1 x187.926583 y169.367898
g1 x187.927717 y169.369457
g1 x187.86851 y169.418426
g1 x187.867189 y169.417017
g1 x187.86851 y169.418426
g1 x187.816912 y169.473203
g1 x187.815345 y169.471905
g1 x187.816912 y169.473203
g1 x187.77299 y169.533688
g1 x187.771356 y169.53265
g1 x187.77299 y169.533688
g1 x187.736619 y169.599682
g1 x187.734805 y169.598827
g1 x187.736619 y169.599682
g1 x187.709149 y169.669024
g1 x187.707264 y169.668411
g1 x187.709149 y169.669024
g1 x187.69058 y169.741332
g1 x187.688609 y169.740956
g1 x187.69058 y169.741332
g1 x187.681244 y169.815758
g1 x187.679298 y169.815636
g1 x187.681244 y169.815758
g1 x187.681244 y169.891777
g1 x187.679296 y169.891899
g1 x187.681244 y169.891777
g1 x187.690572 y169.966104
g1 x187.688603 y169.966479
g1 x187.690572 y169.966104
g1 x187.709149 y170.038442
g1 x187.707264 y170.039055
g1 x187.709149 y170.038442
g1 x187.736663 y170.107896
g1 x187.734856 y170.108748
g1 x187.736663 y170.107896
g1 x187.773061 y170.173976
g1 x187.77142 y170.175017
g1 x187.773061 y170.173976
g1 x187.816912 y170.234363
g1 x187.815345 y170.235661
g1 x187.816912 y170.234363
g1 x187.86851 y170.28914
g1 x187.867189 y170.290549
g1 x187.86851 y170.28914
g1 x187.927554 y170.337975
g1 x187.926412 y170.339544
g1 x187.927554 y170.337975
g1 x187.991108 y170.378401
g1 x187.990161 y170.380117
g1 x187.991108 y170.378401
g1 x188.058735 y170.410357
g1 x188.057984 y170.41225
g1 x188.058735 y170.410357
g1 x188.130269 y170.433577
g1 x188.129793 y170.435421
g1 x188.130269 y170.433577
g1 x188.202278 y170.447467
g1 x188.20201 y170.449597
g1 x188.202278 y170.447467
g1 x188.278095 y170.451994
g1 x188.278095 y170.453783
g1 x188.278095 y170.451994
g1 x188.353535 y170.447467
g1 x188.353797 y170.449557
g1 x188.353535 y170.447467
g1 x188.426668 y170.433431
g1 x188.42715 y170.435304
g1 x188.426668 y170.433431
g1 x188.497753 y170.410357
g1 x188.498504 y170.41225
g1 x188.497753 y170.410357
g1 x188.56538 y170.378401
g1 x188.566327 y170.380117
g1 x188.56538 y170.378401
g1 x188.628934 y170.337975
g1 x188.630076 y170.339544
g1 x188.628934 y170.337975
g1 x188.687978 y170.28914
g1 x188.689299 y170.290549
g1 x188.687978 y170.28914
g1 x188.739576 y170.234363
g1 x188.741143 y170.235661
g1 x188.739576 y170.234363
g1 x188.783427 y170.173976
g1 x188.785068 y170.175017
g1 x188.783427 y170.173976
g1 x188.819825 y170.107896
g1 x188.821632 y170.108748
g1 x188.819825 y170.107896
g1 x188.847339 y170.038442
g1 x188.849224 y170.039055
g1 x188.847339 y170.038442
g1 x188.865916 y169.966104
g1 x188.867885 y169.966479
g1 x188.865916 y169.966104
g1 x188.875244 y169.891777
g1 x188.877192 y169.891899
g1 x188.875244 y169.891777
g1 x188.875244 y169.815758
g1 x188.87719 y169.815636
g1 x188.875244 y169.815758
g1 x188.865908 y169.741332
g1 x188.867879 y169.740956
g1 x188.865908 y169.741332
g1 x188.847339 y169.669024
g1 x188.849224 y169.668411
g1 x188.847339 y169.669024
g1 x188.819869 y169.599682
g1 x188.821683 y169.598827
g1 x188.819869 y169.599682
g1 x188.783498 y169.533688
g1 x188.785132 y169.53265
g1 x188.783498 y169.533688
g1 x188.739576 y169.473203
g1 x188.741143 y169.471905
g1 x188.739576 y169.473203
g1 x188.687978 y169.418426
g1 x188.689299 y169.417017
g1 x188.687978 y169.418426
g1 x188.628771 y169.369457
g1 x188.629905 y169.367898
g1 x188.628771 y169.369457
g1 x188.565189 y169.328975
g1 x188.566142 y169.327247
g1 x188.565189 y169.328975
g1 x188.497753 y169.297109
g1 x188.498504 y169.295216
g1 x188.497753 y169.297109
g1 x188.426668 y169.274035
g1 x188.42715 y169.272162
g1 x188.426668 y169.274035
g1 x188.353535 y169.259999
g1 x188.353797 y169.257909
g1 x188.353535 y169.259999
g1 x188.278095 y169.255472
g1 x188.278095 y169.253683
g1 x188.278095 y169.255472
g1 x188.202278 y169.259999
g1 z-2 f300
g1 x188.20201 y169.257869 f650
g1 x188.202278 y169.259999
g1 x188.130269 y169.273889
g1 x188.129793 y169.272045
g1 x188.130269 y169.273889
g1 x188.058735 y169.297109
g1 x188.057984 y169.295216
g1 x188.058735 y169.297109
g1 x187.991299 y169.328975
g1 x187.990346 y169.327247
g1 x187.991299 y169.328975
g1 x187.927717 y169.369457
g1 x187.926583 y169.367898
g1 x187.927717 y169.369457
g1 x187.86851 y169.418426
g1 x187.867189 y169.417017
g1 x187.86851 y169.418426
g1 x187.816912 y169.473203
g1 x187.815345 y169.471905
g1 x187.816912 y169.473203
g1 x187.77299 y169.533688
g1 x187.771356 y169.53265
g1 x187.77299 y169.533688
g1 x187.736619 y169.599682
g1 x187.734805 y169.598827
g1 x187.736619 y169.599682
g1 x187.709149 y169.669024
g1 x187.707264 y169.668411
g1 x187.709149 y169.669024
g1 x187.69058 y169.741332
g1 x187.688609 y169.740956
g1 x187.69058 y169.741332
g1 x187.681244 y169.815758
g1 x187.679298 y169.815636
g1 x187.681244 y169.815758
g1 x187.681244 y169.891777
g1 x187.679296 y169.891899
g1 x187.681244 y169.891777
g1 x187.690572 y169.966104
g1 x187.688603 y169.966479
g1 x187.690572 y169.966104
g1 x187.709149 y170.038442
g1 x187.707264 y170.039055
g1 x187.709149 y170.038442
g1 x187.736663 y170.107896
g1 x187.734856 y170.108748
g1 x187.736663 y170.107896
g1 x187.773061 y170.173976
g1 x187.77142 y170.175017
g1 x187.773061 y170.173976
g1 x187.816912 y170.234363
g1 x187.815345 y170.235661
g1 x187.816912 y170.234363
g1 x187.86851 y170.28914
g1 x187.867189 y170.290549
g1 x187.86851 y170.28914
g1 x187.927554 y170.337975
g1 x187.926412 y170.339544
g1 x187.927554 y170.337975
g1 x187.991108 y170.378401
g1 x187.990161 y170.380117
g1 x187.991108 y170.378401
g1 x188.058735 y170.410357
g1 x188.057984 y170.41225
g1 x188.058735 y170.410357
g1 x188.130269 y170.433577
g1 x188.129793 y170.435421
g1 x188.130269 y170.433577
g1 x188.202278 y170.447467
g1 x188.20201 y170.449597
g1 x188.202278 y170.447467
g1 x188.278095 y170.451994
g1 x188.278095 y170.453783
g1 x188.278095 y170.451994
g1 x188.353535 y170.447467
g1 x188.353797 y170.449557
g1 x188.353535 y170.447467
g1 x188.426668 y170.433431
g1 x188.42715 y170.435304
g1 x188.426668 y170.433431
g1 x188.497753 y170.410357
g1 x188.498504 y170.41225
g1 x188.497753 y170.410357
g1 x188.56538 y170.378401
g1 x188.566327 y170.380117
g1 x188.56538 y170.378401
g1 x188.628934 y170.337975
g1 x188.630076 y170.339544
g1 x188.628934 y170.337975
g1 x188.687978 y170.28914
g1 x188.689299 y170.290549
g1 x188.687978 y170.28914
g1 x188.739576 y170.234363
g1 x188.741143 y170.235661
g1 x188.739576 y170.234363
g1 x188.783427 y170.173976
g1 x188.785068 y170.175017
g1 x188.783427 y170.173976
g1 x188.819825 y170.107896
g1 x188.821632 y170.108748
g1 x188.819825 y170.107896
g1 x188.847339 y170.038442
g1 x188.849224 y170.039055
g1 x188.847339 y170.038442
g1 x188.865916 y169.966104
g1 x188.867885 y169.966479
g1 x188.865916 y169.966104
g1 x188.875244 y169.891777
g1 x188.877192 y169.891899
g1 x188.875244 y169.891777
g1 x188.875244 y169.815758
g1 x188.87719 y169.815636
g1 x188.875244 y169.815758
g1 x188.865908 y169.741332
g1 x188.867879 y169.740956
g1 x188.865908 y169.741332
g1 x188.847339 y169.669024
g1 x188.849224 y169.668411
g1 x188.847339 y169.669024
g1 x188.819869 y169.599682
g1 x188.821683 y169.598827
g1 x188.819869 y169.599682
g1 x188.783498 y169.533688
g1 x188.785132 y169.53265
g1 x188.783498 y169.533688
g1 x188.739576 y169.473203
g1 x188.741143 y169.471905
g1 x188.739576 y169.473203
g1 x188.687978 y169.418426
g1 x188.689299 y169.417017
g1 x188.687978 y169.418426
g1 x188.628771 y169.369457
g1 x188.629905 y169.367898
g1 x188.628771 y169.369457
g1 x188.565189 y169.328975
g1 x188.566142 y169.327247
g1 x188.565189 y169.328975
g1 x188.497753 y169.297109
g1 x188.498504 y169.295216
g1 x188.497753 y169.297109
g1 x188.426668 y169.274035
g1 x188.42715 y169.272162
g1 x188.426668 y169.274035
g1 x188.353535 y169.259999
g1 x188.353797 y169.257909
g1 x188.353535 y169.259999
g1 x188.278095 y169.255472
g1 x188.278095 y169.253683
g1 x188.278095 y169.255472
g1 x188.202278 y169.259999
g1 z-3 f300
g1 x188.20201 y169.257869 f650
g1 x188.202278 y169.259999
g1 x188.130269 y169.273889
g1 x188.129793 y169.272045
g1 x188.130269 y169.273889
g1 x188.058735 y169.297109
g1 x188.057984 y169.295216
g1 x188.058735 y169.297109
g1 x187.991299 y169.328975
g1 x187.990346 y169.327247
g1 x187.991299 y169.328975
g1 x187.927717 y169.369457
g1 x187.926583 y169.367898
g1 x187.927717 y169.369457
g1 x187.86851 y169.418426
g1 x187.867189 y169.417017
g1 x187.86851 y169.418426
g1 x187.816912 y169.473203
g1 x187.815345 y169.471905
g1 x187.816912 y169.473203
g1 x187.77299 y169.533688
g1 x187.771356 y169.53265
g1 x187.77299 y169.533688
g1 x187.736619 y169.599682
g1 x187.734805 y169.598827
g1 x187.736619 y169.599682
g1 x187.709149 y169.669024
g1 x187.707264 y169.668411
g1 x187.709149 y169.669024
g1 x187.69058 y169.741332
g1 x187.688609 y169.740956
g1 x187.69058 y169.741332
g1 x187.681244 y169.815758
g1 x187.679298 y169.815636
g1 x187.681244 y169.815758
g1 x187.681244 y169.891777
g1 x187.679296 y169.891899
g1 x187.681244 y169.891777
g1 x187.690572 y169.966104
g1 x187.688603 y169.966479
g1 x187.690572 y169.966104
g1 x187.709149 y170.038442
g1 x187.707264 y170.039055
g1 x187.709149 y170.038442
g1 x187.736663 y170.107896
g1 x187.734856 y170.108748
g1 x187.736663 y170.107896
g1 x187.773061 y170.173976
g1 x187.77142 y170.175017
g1 x187.773061 y170.173976
g1 x187.816912 y170.234363
g1 x187.815345 y170.235661
g1 x187.816912 y170.234363
g1 x187.86851 y170.28914
g1 x187.867189 y170.290549
g1 x187.86851 y170.28914
g1 x187.927554 y170.337975
g1 x187.926412 y170.339544
g1 x187.927554 y170.337975
g1 x187.991108 y170.378401
g1 x187.990161 y170.380117
g1 x187.991108 y170.378401
g1 x188.058735 y170.410357
g1 x188.057984 y170.41225
g1 x188.058735 y170.410357
g1 x188.130269 y170.433577
g1 x188.129793 y170.435421
g1 x188.130269 y170.433577
g1 x188.202278 y170.447467
g1 x188.20201 y170.449597
g1 x188.202278 y170.447467
g1 x188.278095 y170.451994
g1 x188.278095 y170.453783
g1 x188.278095 y170.451994
g1 x188.353535 y170.447467
g1 x188.353797 y170.449557
g1 x188.353535 y170.447467
g1 x188.426668 y170.433431
g1 x188.42715 y170.435304
g1 x188.426668 y170.433431
g1 x188.497753 y170.410357
g1 x188.498504 y170.41225
g1 x188.497753 y170.410357
g1 x188.56538 y170.378401
g1 x188.566327 y170.380117
g1 x188.56538 y170.378401
g1 x188.628934 y170.337975
g1 x188.630076 y170.339544
g1 x188.628934 y170.337975
g1 x188.687978 y170.28914
g1 x188.689299 y170.290549
g1 x188.687978 y170.28914
g1 x188.739576 y170.234363
g1 x188.741143 y170.235661
g1 x188.739576 y170.234363
g1 x188.783427 y170.173976
g1 x188.785068 y170.175017
g1 x188.783427 y170.173976
g1 x188.819825 y170.107896
g1 x188.821632 y170.108748
g1 x188.819825 y170.107896
g1 x188.847339 y170.038442
g1 x188.849224 y170.039055
g1 x188.847339 y170.038442
g1 x188.865916 y169.966104
g1 x188.867885 y169.966479
g1 x188.865916 y169.966104
g1 x188.875244 y169.891777
g1 x188.877192 y169.891899
g1 x188.875244 y169.891777
g1 x188.875244 y169.815758
g1 x188.87719 y169.815636
g1 x188.875244 y169.815758
g1 x188.865908 y169.741332
g1 x188.867879 y169.740956
g1 x188.865908 y169.741332
g1 x188.847339 y169.669024
g1 x188.849224 y169.668411
g1 x188.847339 y169.669024
g1 x188.819869 y169.599682
g1 x188.821683 y169.598827
g1 x188.819869 y169.599682
g1 x188.783498 y169.533688
g1 x188.785132 y169.53265
g1 x188.783498 y169.533688
g1 x188.739576 y169.473203
g1 x188.741143 y169.471905
g1 x188.739576 y169.473203
g1 x188.687978 y169.418426
g1 x188.689299 y169.417017
g1 x188.687978 y169.418426
g1 x188.628771 y169.369457
g1 x188.629905 y169.367898
g1 x188.628771 y169.369457
g1 x188.565189 y169.328975
g1 x188.566142 y169.327247
g1 x188.565189 y169.328975
g1 x188.497753 y169.297109
g1 x188.498504 y169.295216
g1 x188.497753 y169.297109
g1 x188.426668 y169.274035
g1 x188.42715 y169.272162
g1 x188.426668 y169.274035
g1 x188.353535 y169.259999
g1 x188.353797 y169.257909
g1 x188.353535 y169.259999
g1 x188.278095 y169.255472
g1 x188.278095 y169.253683
g1 x188.278095 y169.255472
g1 x188.202278 y169.259999
g0 z30
(Block-name: path4)
(Block-expand: 0)
(Block-enable: 0)

(End cutting path id: path4)


(Start cutting path id: path4)
(Change tool to Default tool)

G0 Z10
G0 X174.177244 Y164.756383

G1 Z-0.125 F100
G1 X173.978244 Y164.781383 Z-0.125 F400
G1 X173.783244 Y164.831383 Z-0.125
G1 X173.597244 Y164.905383 Z-0.125
G1 X173.421244 Y165.002383 Z-0.125
G1 X173.258244 Y165.120483 Z-0.125
G1 X173.112244 Y165.258083 Z-0.125
G1 X172.983244 Y165.412983 Z-0.125
G1 X172.876244 Y165.582483 Z-0.125
G1 X172.790244 Y165.764383 Z-0.125
G1 X172.728244 Y165.955383 Z-0.125
G1 X172.690244 Y166.152883 Z-0.125
G1 X172.678244 Y166.353383 Z-0.125
G1 X172.690244 Y166.553883 Z-0.125
G1 X172.728244 Y166.751283 Z-0.125
G1 X172.790244 Y166.942383 Z-0.125
G1 X172.876244 Y167.124083 Z-0.125
G1 X172.983244 Y167.293783 Z-0.125
G1 X173.112244 Y167.448683 Z-0.125
G1 X173.258244 Y167.586083 Z-0.125
G1 X173.421244 Y167.704283 Z-0.125
G1 X173.597244 Y167.801283 Z-0.125
G1 X173.783244 Y167.875283 Z-0.125
G1 X173.978244 Y167.925283 Z-0.125
G1 X174.177244 Y167.950283 Z-0.125
G1 X174.378244 Y167.950283 Z-0.125
G1 X174.578244 Y167.925283 Z-0.125
G1 X174.772244 Y167.875283 Z-0.125
G1 X174.959244 Y167.801283 Z-0.125
G1 X175.135244 Y167.704283 Z-0.125
G1 X175.298244 Y167.586083 Z-0.125
G1 X175.444244 Y167.448683 Z-0.125
G1 X175.572244 Y167.293783 Z-0.125
G1 X175.680244 Y167.124083 Z-0.125
G1 X175.766244 Y166.942383 Z-0.125
G1 X175.828244 Y166.751283 Z-0.125
G1 X175.865244 Y166.553883 Z-0.125
G1 X175.878244 Y166.353383 Z-0.125
G1 X175.865244 Y166.152883 Z-0.125
G1 X175.828244 Y165.955383 Z-0.125
G1 X175.766244 Y165.764383 Z-0.125
G1 X175.680244 Y165.582483 Z-0.125
G1 X175.572244 Y165.412983 Z-0.125
G1 X175.444244 Y165.258083 Z-0.125
G1 X175.298244 Y165.120483 Z-0.125
G1 X175.135244 Y165.002383 Z-0.125
G1 X174.959244 Y164.905383 Z-0.125
G1 X174.772244 Y164.831383 Z-0.125
G1 X174.578244 Y164.781383 Z-0.125
G1 X174.378244 Y164.756383 Z-0.125
G1 X174.177244 Y164.756383 Z-0.125
G0 Z10
(Block-name: path4 [in,cut])
(Block-expand: 0)
(Block-enable: 1)
g0 x174.239812 y165.756383
g1 z0 f300
g1 x174.23969 y165.754431 f650
g1 x174.239812 y165.756383
g1 x174.165498 y165.765719
g1 x174.165127 y165.763765
g1 x174.165498 y165.765719
g1 x174.093528 y165.784173
g1 x174.092896 y165.782233
g1 x174.093528 y165.784173
g1 x174.02509 y165.811401
g1 x174.024254 y165.80963
g1 x174.02509 y165.811401
g1 x173.957984 y165.848385
g1 x173.956965 y165.846778
g1 x173.957984 y165.848385
g1 x173.897182 y165.892439
g1 x173.895858 y165.890839
g1 x173.897182 y165.892439
g1 x173.842037 y165.944411
g1 x173.840711 y165.943164
g1 x173.842037 y165.944411
g1 x173.79375 y166.002394
g1 x173.792003 y166.001123
g1 x173.79375 y166.002394
g1 x173.754307 y166.064874
g1 x173.752689 y166.063985
g1 x173.754307 y166.064874
g1 x173.721637 y166.133975
g1 x173.719738 y166.133221
g1 x173.721637 y166.133975
g1 x173.698523 y166.205183
g1 x173.696665 y166.204704
g1 x173.698523 y166.205183
g1 x173.68456 y166.277754
g1 x173.68245 y166.277489
g1 x173.68456 y166.277754
g1 x173.680033 y166.353383
g1 x173.678244 y166.353383
g1 x173.680033 y166.353383
g1 x173.684557 y166.428965
g1 x173.682444 y166.42923
g1 x173.684557 y166.428965
g1 x173.698523 y166.501514
g1 x173.696672 y166.501991
g1 x173.698523 y166.501514
g1 x173.721604 y166.572657
g1 x173.719687 y166.573418
g1 x173.721604 y166.572657
g1 x173.754308 y166.641753
g1 x173.752715 y166.642628
g1 x173.754308 y166.641753
g1 x173.793921 y166.704578
g1 x173.792159 y166.705858
g1 x173.793921 y166.704578
g1 x173.841804 y166.762075
g1 x173.840462 y166.763338
g1 x173.841804 y166.762075
g1 x173.897034 y166.814052
g1 x173.895733 y166.815624
g1 x173.897034 y166.814052
g1 x173.958161 y166.858378
g1 x173.957134 y166.859995
g1 x173.958161 y166.858378
g1 x174.02509 y166.895265
g1 x174.024254 y166.897036
g1 x174.02509 y166.895265
g1 x174.093528 y166.922493
g1 x174.092896 y166.924433
g1 x174.093528 y166.922493
g1 x174.165498 y166.940947
g1 x174.165127 y166.942901
g1 x174.165498 y166.940947
g1 x174.239812 y166.950283
g1 x174.23969 y166.952235
g1 x174.239812 y166.950283
g1 x174.315986 y166.950283
g1 x174.316107 y166.952215
g1 x174.315986 y166.950283
g1 x174.390673 y166.940947
g1 x174.391056 y166.942959
g1 x174.390673 y166.940947
g1 x174.462276 y166.922493
g1 x174.462877 y166.92434
g1 x174.462276 y166.922493
g1 x174.532206 y166.89482
g1 x174.533066 y166.896644
g1 x174.532206 y166.89482
g1 x174.598327 y166.858378
g1 x174.599354 y166.859995
g1 x174.598327 y166.858378
g1 x174.659454 y166.814052
g1 x174.660755 y166.815624
g1 x174.659454 y166.814052
g1 x174.713286 y166.76339
g1 x174.714717 y166.764731
g1 x174.713286 y166.76339
g1 x174.761888 y166.704575
g1 x174.763441 y166.705704
g1 x174.761888 y166.704575
g1 x174.803083 y166.639845
g1 x174.804788 y166.640786
g1 x174.803083 y166.639845
g1 x174.834884 y166.572657
g1 x174.836801 y166.573418
g1 x174.834884 y166.572657
g1 x174.857208 y166.503849
g1 x174.859209 y166.504359
g1 x174.857208 y166.503849
g1 x174.871244 y166.428965
g1 x174.873048 y166.429191
g1 x174.871244 y166.428965
g1 x174.876144 y166.353383
g1 x174.878244 y166.353383
g1 x174.876144 y166.353383
g1 x174.871241 y166.277756
g1 x174.873043 y166.277529
g1 x174.871241 y166.277756
g1 x174.857208 y166.202849
g1 x174.859217 y166.202337
g1 x174.857208 y166.202849
g1 x174.834851 y166.133975
g1 x174.83675 y166.133221
g1 x174.834851 y166.133975
g1 x174.803083 y166.066783
g1 x174.804814 y166.065828
g1 x174.803083 y166.066783
g1 x174.762059 y166.002398
g1 x174.763598 y166.001278
g1 x174.762059 y166.002398
g1 x174.713054 y165.943095
g1 x174.714468 y165.94177
g1 x174.713054 y165.943095
g1 x174.659306 y165.892439
g1 x174.66063 y165.890839
g1 x174.659306 y165.892439
g1 x174.598504 y165.848385
g1 x174.599523 y165.846778
g1 x174.598504 y165.848385
g1 x174.532206 y165.811846
g1 x174.533066 y165.810022
g1 x174.532206 y165.811846
g1 x174.462276 y165.784173
g1 x174.462877 y165.782326
g1 x174.462276 y165.784173
g1 x174.390673 y165.765719
g1 x174.391056 y165.763707
g1 x174.390673 y165.765719
g1 x174.315986 y165.756383
g1 x174.316107 y165.754451
g1 x174.315986 y165.756383
g1 x174.239812 y165.756383
g1 z-1 f300
g1 x174.23969 y165.754431 f650
g1 x174.239812 y165.756383
g1 x174.165498 y165.765719
g1 x174.165127 y165.763765
g1 x174.165498 y165.765719
g1 x174.093528 y165.784173
g1 x174.092896 y165.782233
g1 x174.093528 y165.784173
g1 x174.02509 y165.811401
g1 x174.024254 y165.80963
g1 x174.02509 y165.811401
g1 x173.957984 y165.848385
g1 x173.956965 y165.846778
g1 x173.957984 y165.848385
g1 x173.897182 y165.892439
g1 x173.895858 y165.890839
g1 x173.897182 y165.892439
g1 x173.842037 y165.944411
g1 x173.840711 y165.943164
g1 x173.842037 y165.944411
g1 x173.79375 y166.002394
g1 x173.792003 y166.001123
g1 x173.79375 y166.002394
g1 x173.754307 y166.064874
g1 x173.752689 y166.063985
g1 x173.754307 y166.064874
g1 x173.721637 y166.133975
g1 x173.719738 y166.133221
g1 x173.721637 y166.133975
g1 x173.698523 y166.205183
g1 x173.696665 y166.204704
g1 x173.698523 y166.205183
g1 x173.68456 y166.277754
g1 x173.68245 y166.277489
g1 x173.68456 y166.277754
g1 x173.680033 y166.353383
g1 x173.678244 y166.353383
g1 x173.680033 y166.353383
g1 x173.684557 y166.428965
g1 x173.682444 y166.42923
g1 x173.684557 y166.428965
g1 x173.698523 y166.501514
g1 x173.696672 y166.501991
g1 x173.698523 y166.501514
g1 x173.721604 y166.572657
g1 x173.719687 y166.573418
g1 x173.721604 y166.572657
g1 x173.754308 y166.641753
g1 x173.752715 y166.642628
g1 x173.754308 y166.641753
g1 x173.793921 y166.704578
g1 x173.792159 y166.705858
g1 x173.793921 y166.704578
g1 x173.841804 y166.762075
g1 x173.840462 y166.763338
g1 x173.841804 y166.762075
g1 x173.897034 y166.814052
g1 x173.895733 y166.815624
g1 x173.897034 y166.814052
g1 x173.958161 y166.858378
g1 x173.957134 y166.859995
g1 x173.958161 y166.858378
g1 x174.02509 y166.895265
g1 x174.024254 y166.897036
g1 x174.02509 y166.895265
g1 x174.093528 y166.922493
g1 x174.092896 y166.924433
g1 x174.093528 y166.922493
g1 x174.165498 y166.940947
g1 x174.165127 y166.942901
g1 x174.165498 y166.940947
g1 x174.239812 y166.950283
g1 x174.23969 y166.952235
g1 x174.239812 y166.950283
g1 x174.315986 y166.950283
g1 x174.316107 y166.952215
g1 x174.315986 y166.950283
g1 x174.390673 y166.940947
g1 x174.391056 y166.942959
g1 x174.390673 y166.940947
g1 x174.462276 y166.922493
g1 x174.462877 y166.92434
g1 x174.462276 y166.922493
g1 x174.532206 y166.89482
g1 x174.533066 y166.896644
g1 x174.532206 y166.89482
g1 x174.598327 y166.858378
g1 x174.599354 y166.859995
g1 x174.598327 y166.858378
g1 x174.659454 y166.814052
g1 x174.660755 y166.815624
g1 x174.659454 y166.814052
g1 x174.713286 y166.76339
g1 x174.714717 y166.764731
g1 x174.713286 y166.76339
g1 x174.761888 y166.704575
g1 x174.763441 y166.705704
g1 x174.761888 y166.704575
g1 x174.803083 y166.639845
g1 x174.804788 y166.640786
g1 x174.803083 y166.639845
g1 x174.834884 y166.572657
g1 x174.836801 y166.573418
g1 x174.834884 y166.572657
g1 x174.857208 y166.503849
g1 x174.859209 y166.504359
g1 x174.857208 y166.503849
g1 x174.871244 y166.428965
g1 x174.873048 y166.429191
g1 x174.871244 y166.428965
g1 x174.876144 y166.353383
g1 x174.878244 y166.353383
g1 x174.876144 y166.353383
g1 x174.871241 y166.277756
g1 x174.873043 y166.277529
g1 x174.871241 y166.277756
g1 x174.857208 y166.202849
g1 x174.859217 y166.202337
g1 x174.857208 y166.202849
g1 x174.834851 y166.133975
g1 x174.83675 y166.133221
g1 x174.834851 y166.133975
g1 x174.803083 y166.066783
g1 x174.804814 y166.065828
g1 x174.803083 y166.066783
g1 x174.762059 y166.002398
g1 x174.763598 y166.001278
g1 x174.762059 y166.002398
g1 x174.713054 y165.943095
g1 x174.714468 y165.94177
g1 x174.713054 y165.943095
g1 x174.659306 y165.892439
g1 x174.66063 y165.890839
g1 x174.659306 y165.892439
g1 x174.598504 y165.848385
g1 x174.599523 y165.846778
g1 x174.598504 y165.848385
g1 x174.532206 y165.811846
g1 x174.533066 y165.810022
g1 x174.532206 y165.811846
g1 x174.462276 y165.784173
g1 x174.462877 y165.782326
g1 x174.462276 y165.784173
g1 x174.390673 y165.765719
g1 x174.391056 y165.763707
g1 x174.390673 y165.765719
g1 x174.315986 y165.756383
g1 x174.316107 y165.754451
g1 x174.315986 y165.756383
g1 x174.239812 y165.756383
g1 z-2 f300
g1 x174.23969 y165.754431 f650
g1 x174.239812 y165.756383
g1 x174.165498 y165.765719
g1 x174.165127 y165.763765
g1 x174.165498 y165.765719
g1 x174.093528 y165.784173
g1 x174.092896 y165.782233
g1 x174.093528 y165.784173
g1 x174.02509 y165.811401
g1 x174.024254 y165.80963
g1 x174.02509 y165.811401
g1 x173.957984 y165.848385
g1 x173.956965 y165.846778
g1 x173.957984 y165.848385
g1 x173.897182 y165.892439
g1 x173.895858 y165.890839
g1 x173.897182 y165.892439
g1 x173.842037 y165.944411
g1 x173.840711 y165.943164
g1 x173.842037 y165.944411
g1 x173.79375 y166.002394
g1 x173.792003 y166.001123
g1 x173.79375 y166.002394
g1 x173.754307 y166.064874
g1 x173.752689 y166.063985
g1 x173.754307 y166.064874
g1 x173.721637 y166.133975
g1 x173.719738 y166.133221
g1 x173.721637 y166.133975
g1 x173.698523 y166.205183
g1 x173.696665 y166.204704
g1 x173.698523 y166.205183
g1 x173.68456 y166.277754
g1 x173.68245 y166.277489
g1 x173.68456 y166.277754
g1 x173.680033 y166.353383
g1 x173.678244 y166.353383
g1 x173.680033 y166.353383
g1 x173.684557 y166.428965
g1 x173.682444 y166.42923
g1 x173.684557 y166.428965
g1 x173.698523 y166.501514
g1 x173.696672 y166.501991
g1 x173.698523 y166.501514
g1 x173.721604 y166.572657
g1 x173.719687 y166.573418
g1 x173.721604 y166.572657
g1 x173.754308 y166.641753
g1 x173.752715 y166.642628
g1 x173.754308 y166.641753
g1 x173.793921 y166.704578
g1 x173.792159 y166.705858
g1 x173.793921 y166.704578
g1 x173.841804 y166.762075
g1 x173.840462 y166.763338
g1 x173.841804 y166.762075
g1 x173.897034 y166.814052
g1 x173.895733 y166.815624
g1 x173.897034 y166.814052
g1 x173.958161 y166.858378
g1 x173.957134 y166.859995
g1 x173.958161 y166.858378
g1 x174.02509 y166.895265
g1 x174.024254 y166.897036
g1 x174.02509 y166.895265
g1 x174.093528 y166.922493
g1 x174.092896 y166.924433
g1 x174.093528 y166.922493
g1 x174.165498 y166.940947
g1 x174.165127 y166.942901
g1 x174.165498 y166.940947
g1 x174.239812 y166.950283
g1 x174.23969 y166.952235
g1 x174.239812 y166.950283
g1 x174.315986 y166.950283
g1 x174.316107 y166.952215
g1 x174.315986 y166.950283
g1 x174.390673 y166.940947
g1 x174.391056 y166.942959
g1 x174.390673 y166.940947
g1 x174.462276 y166.922493
g1 x174.462877 y166.92434
g1 x174.462276 y166.922493
g1 x174.532206 y166.89482
g1 x174.533066 y166.896644
g1 x174.532206 y166.89482
g1 x174.598327 y166.858378
g1 x174.599354 y166.859995
g1 x174.598327 y166.858378
g1 x174.659454 y166.814052
g1 x174.660755 y166.815624
g1 x174.659454 y166.814052
g1 x174.713286 y166.76339
g1 x174.714717 y166.764731
g1 x174.713286 y166.76339
g1 x174.761888 y166.704575
g1 x174.763441 y166.705704
g1 x174.761888 y166.704575
g1 x174.803083 y166.639845
g1 x174.804788 y166.640786
g1 x174.803083 y166.639845
g1 x174.834884 y166.572657
g1 x174.836801 y166.573418
g1 x174.834884 y166.572657
g1 x174.857208 y166.503849
g1 x174.859209 y166.504359
g1 x174.857208 y166.503849
g1 x174.871244 y166.428965
g1 x174.873048 y166.429191
g1 x174.871244 y166.428965
g1 x174.876144 y166.353383
g1 x174.878244 y166.353383
g1 x174.876144 y166.353383
g1 x174.871241 y166.277756
g1 x174.873043 y166.277529
g1 x174.871241 y166.277756
g1 x174.857208 y166.202849
g1 x174.859217 y166.202337
g1 x174.857208 y166.202849
g1 x174.834851 y166.133975
g1 x174.83675 y166.133221
g1 x174.834851 y166.133975
g1 x174.803083 y166.066783
g1 x174.804814 y166.065828
g1 x174.803083 y166.066783
g1 x174.762059 y166.002398
g1 x174.763598 y166.001278
g1 x174.762059 y166.002398
g1 x174.713054 y165.943095
g1 x174.714468 y165.94177
g1 x174.713054 y165.943095
g1 x174.659306 y165.892439
g1 x174.66063 y165.890839
g1 x174.659306 y165.892439
g1 x174.598504 y165.848385
g1 x174.599523 y165.846778
g1 x174.598504 y165.848385
g1 x174.532206 y165.811846
g1 x174.533066 y165.810022
g1 x174.532206 y165.811846
g1 x174.462276 y165.784173
g1 x174.462877 y165.782326
g1 x174.462276 y165.784173
g1 x174.390673 y165.765719
g1 x174.391056 y165.763707
g1 x174.390673 y165.765719
g1 x174.315986 y165.756383
g1 x174.316107 y165.754451
g1 x174.315986 y165.756383
g1 x174.239812 y165.756383
g1 z-3 f300
g1 x174.23969 y165.754431 f650
g1 x174.239812 y165.756383
g1 x174.165498 y165.765719
g1 x174.165127 y165.763765
g1 x174.165498 y165.765719
g1 x174.093528 y165.784173
g1 x174.092896 y165.782233
g1 x174.093528 y165.784173
g1 x174.02509 y165.811401
g1 x174.024254 y165.80963
g1 x174.02509 y165.811401
g1 x173.957984 y165.848385
g1 x173.956965 y165.846778
g1 x173.957984 y165.848385
g1 x173.897182 y165.892439
g1 x173.895858 y165.890839
g1 x173.897182 y165.892439
g1 x173.842037 y165.944411
g1 x173.840711 y165.943164
g1 x173.842037 y165.944411
g1 x173.79375 y166.002394
g1 x173.792003 y166.001123
g1 x173.79375 y166.002394
g1 x173.754307 y166.064874
g1 x173.752689 y166.063985
g1 x173.754307 y166.064874
g1 x173.721637 y166.133975
g1 x173.719738 y166.133221
g1 x173.721637 y166.133975
g1 x173.698523 y166.205183
g1 x173.696665 y166.204704
g1 x173.698523 y166.205183
g1 x173.68456 y166.277754
g1 x173.68245 y166.277489
g1 x173.68456 y166.277754
g1 x173.680033 y166.353383
g1 x173.678244 y166.353383
g1 x173.680033 y166.353383
g1 x173.684557 y166.428965
g1 x173.682444 y166.42923
g1 x173.684557 y166.428965
g1 x173.698523 y166.501514
g1 x173.696672 y166.501991
g1 x173.698523 y166.501514
g1 x173.721604 y166.572657
g1 x173.719687 y166.573418
g1 x173.721604 y166.572657
g1 x173.754308 y166.641753
g1 x173.752715 y166.642628
g1 x173.754308 y166.641753
g1 x173.793921 y166.704578
g1 x173.792159 y166.705858
g1 x173.793921 y166.704578
g1 x173.841804 y166.762075
g1 x173.840462 y166.763338
g1 x173.841804 y166.762075
g1 x173.897034 y166.814052
g1 x173.895733 y166.815624
g1 x173.897034 y166.814052
g1 x173.958161 y166.858378
g1 x173.957134 y166.859995
g1 x173.958161 y166.858378
g1 x174.02509 y166.895265
g1 x174.024254 y166.897036
g1 x174.02509 y166.895265
g1 x174.093528 y166.922493
g1 x174.092896 y166.924433
g1 x174.093528 y166.922493
g1 x174.165498 y166.940947
g1 x174.165127 y166.942901
g1 x174.165498 y166.940947
g1 x174.239812 y166.950283
g1 x174.23969 y166.952235
g1 x174.239812 y166.950283
g1 x174.315986 y166.950283
g1 x174.316107 y166.952215
g1 x174.315986 y166.950283
g1 x174.390673 y166.940947
g1 x174.391056 y166.942959
g1 x174.390673 y166.940947
g1 x174.462276 y166.922493
g1 x174.462877 y166.92434
g1 x174.462276 y166.922493
g1 x174.532206 y166.89482
g1 x174.533066 y166.896644
g1 x174.532206 y166.89482
g1 x174.598327 y166.858378
g1 x174.599354 y166.859995
g1 x174.598327 y166.858378
g1 x174.659454 y166.814052
g1 x174.660755 y166.815624
g1 x174.659454 y166.814052
g1 x174.713286 y166.76339
g1 x174.714717 y166.764731
g1 x174.713286 y166.76339
g1 x174.761888 y166.704575
g1 x174.763441 y166.705704
g1 x174.761888 y166.704575
g1 x174.803083 y166.639845
g1 x174.804788 y166.640786
g1 x174.803083 y166.639845
g1 x174.834884 y166.572657
g1 x174.836801 y166.573418
g1 x174.834884 y166.572657
g1 x174.857208 y166.503849
g1 x174.859209 y166.504359
g1 x174.857208 y166.503849
g1 x174.871244 y166.428965
g1 x174.873048 y166.429191
g1 x174.871244 y166.428965
g1 x174.876144 y166.353383
g1 x174.878244 y166.353383
g1 x174.876144 y166.353383
g1 x174.871241 y166.277756
g1 x174.873043 y166.277529
g1 x174.871241 y166.277756
g1 x174.857208 y166.202849
g1 x174.859217 y166.202337
g1 x174.857208 y166.202849
g1 x174.834851 y166.133975
g1 x174.83675 y166.133221
g1 x174.834851 y166.133975
g1 x174.803083 y166.066783
g1 x174.804814 y166.065828
g1 x174.803083 y166.066783
g1 x174.762059 y166.002398
g1 x174.763598 y166.001278
g1 x174.762059 y166.002398
g1 x174.713054 y165.943095
g1 x174.714468 y165.94177
g1 x174.713054 y165.943095
g1 x174.659306 y165.892439
g1 x174.66063 y165.890839
g1 x174.659306 y165.892439
g1 x174.598504 y165.848385
g1 x174.599523 y165.846778
g1 x174.598504 y165.848385
g1 x174.532206 y165.811846
g1 x174.533066 y165.810022
g1 x174.532206 y165.811846
g1 x174.462276 y165.784173
g1 x174.462877 y165.782326
g1 x174.462276 y165.784173
g1 x174.390673 y165.765719
g1 x174.391056 y165.763707
g1 x174.390673 y165.765719
g1 x174.315986 y165.756383
g1 x174.316107 y165.754451
g1 x174.315986 y165.756383
g1 x174.239812 y165.756383
g0 z30
(Block-name: path4)
(Block-expand: 0)
(Block-enable: 0)

(End cutting path id: path4)


(Start cutting path id: path4)
(Change tool to Default tool)

G0 Z10
G0 X169.077244 Y168.265683

G1 Z-0.125 F100
G1 X168.880244 Y168.303683 Z-0.125 F400
G1 X168.689244 Y168.365683 Z-0.125
G1 X168.507244 Y168.451683 Z-0.125
G1 X168.337244 Y168.559283 Z-0.125
G1 X168.183244 Y168.687483 Z-0.125
G1 X168.045244 Y168.833983 Z-0.125
G1 X167.927244 Y168.996483 Z-0.125
G1 X167.830244 Y169.172483 Z-0.125
G1 X167.756244 Y169.359283 Z-0.125
G1 X167.706244 Y169.553983 Z-0.125
G1 X167.681244 Y169.753283 Z-0.125
G1 X167.681244 Y169.954283 Z-0.125
G1 X167.706244 Y170.153483 Z-0.125
G1 X167.756244 Y170.348183 Z-0.125
G1 X167.830244 Y170.534983 Z-0.125
G1 X167.927244 Y170.711083 Z-0.125
G1 X168.045244 Y170.873583 Z-0.125
G1 X168.183244 Y171.020083 Z-0.125
G1 X168.337244 Y171.148283 Z-0.125
G1 X168.507244 Y171.255783 Z-0.125
G1 X168.689244 Y171.341783 Z-0.125
G1 X168.880244 Y171.403783 Z-0.125
G1 X169.077244 Y171.441783 Z-0.125
G1 X169.278244 Y171.453783 Z-0.125
G1 X169.479244 Y171.441783 Z-0.125
G1 X169.676244 Y171.403783 Z-0.125
G1 X169.867244 Y171.341783 Z-0.125
G1 X170.049244 Y171.255783 Z-0.125
G1 X170.218244 Y171.148283 Z-0.125
G1 X170.373244 Y171.020083 Z-0.125
G1 X170.511244 Y170.873583 Z-0.125
G1 X170.629244 Y170.711083 Z-0.125
G1 X170.726244 Y170.534983 Z-0.125
G1 X170.800244 Y170.348183 Z-0.125
G1 X170.850244 Y170.153483 Z-0.125
G1 X170.875244 Y169.954283 Z-0.125
G1 X170.875244 Y169.753283 Z-0.125
G1 X170.850244 Y169.553983 Z-0.125
G1 X170.800244 Y169.359283 Z-0.125
G1 X170.726244 Y169.172483 Z-0.125
G1 X170.629244 Y168.996483 Z-0.125
G1 X170.511244 Y168.833983 Z-0.125
G1 X170.373244 Y168.687483 Z-0.125
G1 X170.218244 Y168.559283 Z-0.125
G1 X170.049244 Y168.451683 Z-0.125
G1 X169.867244 Y168.365683 Z-0.125
G1 X169.676244 Y168.303683 Z-0.125
G1 X169.479244 Y168.265683 Z-0.125
G1 X169.278244 Y168.253683 Z-0.125
G1 X169.077244 Y168.265683 Z-0.125
G0 Z10
(Block-name: path4 [in,cut])
(Block-expand: 0)
(Block-enable: 1)
g0 x169.202278 y169.259999
g1 z0 f300
g1 x169.20201 y169.257869 f650
g1 x169.202278 y169.259999
g1 x169.130269 y169.273889
g1 x169.129793 y169.272045
g1 x169.130269 y169.273889
g1 x169.058735 y169.297109
g1 x169.057984 y169.295216
g1 x169.058735 y169.297109
g1 x168.990088 y169.329547
g1 x168.989177 y169.327891
g1 x168.990088 y169.329547
g1 x168.927034 y169.369457
g1 x168.925789 y169.367747
g1 x168.927034 y169.369457
g1 x168.869605 y169.417264
g1 x168.868348 y169.415928
g1 x168.869605 y169.417264
g1 x168.816912 y169.473203
g1 x168.815345 y169.471905
g1 x168.816912 y169.473203
g1 x168.77299 y169.533688
g1 x168.771356 y169.53265
g1 x168.77299 y169.533688
g1 x168.736619 y169.599682
g1 x168.734805 y169.598827
g1 x168.736619 y169.599682
g1 x168.709149 y169.669024
g1 x168.707264 y169.668411
g1 x168.709149 y169.669024
g1 x168.69058 y169.741332
g1 x168.688609 y169.740956
g1 x168.69058 y169.741332
g1 x168.681244 y169.815758
g1 x168.679298 y169.815636
g1 x168.681244 y169.815758
g1 x168.681244 y169.891777
g1 x168.679296 y169.891899
g1 x168.681244 y169.891777
g1 x168.690572 y169.966104
g1 x168.688603 y169.966479
g1 x168.690572 y169.966104
g1 x168.709149 y170.038442
g1 x168.707264 y170.039055
g1 x168.709149 y170.038442
g1 x168.736663 y170.107896
g1 x168.734856 y170.108748
g1 x168.736663 y170.107896
g1 x168.773061 y170.173976
g1 x168.77142 y170.175017
g1 x168.773061 y170.173976
g1 x168.816912 y170.234363
g1 x168.815345 y170.235661
g1 x168.816912 y170.234363
g1 x168.869605 y170.290302
g1 x168.868348 y170.291638
g1 x168.869605 y170.290302
g1 x168.926871 y170.337975
g1 x168.925619 y170.339695
g1 x168.926871 y170.337975
g1 x168.989897 y170.377829
g1 x168.988993 y170.379474
g1 x168.989897 y170.377829
g1 x169.058735 y170.410357
g1 x169.057984 y170.41225
g1 x169.058735 y170.410357
g1 x169.130269 y170.433577
g1 x169.129793 y170.435421
g1 x169.130269 y170.433577
g1 x169.202278 y170.447467
g1 x169.20201 y170.449597
g1 x169.202278 y170.447467
g1 x169.278244 y170.452002
g1 x169.278244 y170.453783
g1 x169.278244 y170.452002
g1 x169.35421 y170.447467
g1 x169.354478 y170.449597
g1 x169.35421 y170.447467
g1 x169.426219 y170.433577
g1 x169.426695 y170.435421
g1 x169.426219 y170.433577
g1 x169.497753 y170.410357
g1 x169.498504 y170.41225
g1 x169.497753 y170.410357
g1 x169.56538 y170.378401
g1 x169.566327 y170.380117
g1 x169.56538 y170.378401
g1 x169.628934 y170.337975
g1 x169.630076 y170.339544
g1 x169.628934 y170.337975
g1 x169.687978 y170.28914
g1 x169.689299 y170.290549
g1 x169.687978 y170.28914
g1 x169.739576 y170.234363
g1 x169.741143 y170.235661
g1 x169.739576 y170.234363
g1 x169.783427 y170.173976
g1 x169.785068 y170.175017
g1 x169.783427 y170.173976
g1 x169.819825 y170.107896
g1 x169.821632 y170.108748
g1 x169.819825 y170.107896
g1 x169.847339 y170.038442
g1 x169.849224 y170.039055
g1 x169.847339 y170.038442
g1 x169.865916 y169.966104
g1 x169.867885 y169.966479
g1 x169.865916 y169.966104
g1 x169.875244 y169.891777
g1 x169.877192 y169.891899
g1 x169.875244 y169.891777
g1 x169.875244 y169.815758
g1 x169.87719 y169.815636
g1 x169.875244 y169.815758
g1 x169.865908 y169.741332
g1 x169.867879 y169.740956
g1 x169.865908 y169.741332
g1 x169.847339 y169.669024
g1 x169.849224 y169.668411
g1 x169.847339 y169.669024
g1 x169.819869 y169.599682
g1 x169.821683 y169.598827
g1 x169.819869 y169.599682
g1 x169.783498 y169.533688
g1 x169.785132 y169.53265
g1 x169.783498 y169.533688
g1 x169.739576 y169.473203
g1 x169.741143 y169.471905
g1 x169.739576 y169.473203
g1 x169.687978 y169.418426
g1 x169.689299 y169.417017
g1 x169.687978 y169.418426
g1 x169.628771 y169.369457
g1 x169.629905 y169.367898
g1 x169.628771 y169.369457
g1 x169.565189 y169.328975
g1 x169.566142 y169.327247
g1 x169.565189 y169.328975
g1 x169.497753 y169.297109
g1 x169.498504 y169.295216
g1 x169.497753 y169.297109
g1 x169.426219 y169.273889
g1 x169.426695 y169.272045
g1 x169.426219 y169.273889
g1 x169.35421 y169.259999
g1 x169.354478 y169.257869
g1 x169.35421 y169.259999
g1 x169.278244 y169.255464
g1 x169.278244 y169.253683
g1 x169.278244 y169.255464
g1 x169.202278 y169.259999
g1 z-1 f300
g1 x169.20201 y169.257869 f650
g1 x169.202278 y169.259999
g1 x169.130269 y169.273889
g1 x169.129793 y169.272045
g1 x169.130269 y169.273889
g1 x169.058735 y169.297109
g1 x169.057984 y169.295216
g1 x169.058735 y169.297109
g1 x168.990088 y169.329547
g1 x168.989177 y169.327891
g1 x168.990088 y169.329547
g1 x168.927034 y169.369457
g1 x168.925789 y169.367747
g1 x168.927034 y169.369457
g1 x168.869605 y169.417264
g1 x168.868348 y169.415928
g1 x168.869605 y169.417264
g1 x168.816912 y169.473203
g1 x168.815345 y169.471905
g1 x168.816912 y169.473203
g1 x168.77299 y169.533688
g1 x168.771356 y169.53265
g1 x168.77299 y169.533688
g1 x168.736619 y169.599682
g1 x168.734805 y169.598827
g1 x168.736619 y169.599682
g1 x168.709149 y169.669024
g1 x168.707264 y169.668411
g1 x168.709149 y169.669024
g1 x168.69058 y169.741332
g1 x168.688609 y169.740956
g1 x168.69058 y169.741332
g1 x168.681244 y169.815758
g1 x168.679298 y169.815636
g1 x168.681244 y169.815758
g1 x168.681244 y169.891777
g1 x168.679296 y169.891899
g1 x168.681244 y169.891777
g1 x168.690572 y169.966104
g1 x168.688603 y169.966479
g1 x168.690572 y169.966104
g1 x168.709149 y170.038442
g1 x168.707264 y170.039055
g1 x168.709149 y170.038442
g1 x168.736663 y170.107896
g1 x168.734856 y170.108748
g1 x168.736663 y170.107896
g1 x168.773061 y170.173976
g1 x168.77142 y170.175017
g1 x168.773061 y170.173976
g1 x168.816912 y170.234363
g1 x168.815345 y170.235661
g1 x168.816912 y170.234363
g1 x168.869605 y170.290302
g1 x168.868348 y170.291638
g1 x168.869605 y170.290302
g1 x168.926871 y170.337975
g1 x168.925619 y170.339695
g1 x168.926871 y170.337975
g1 x168.989897 y170.377829
g1 x168.988993 y170.379474
g1 x168.989897 y170.377829
g1 x169.058735 y170.410357
g1 x169.057984 y170.41225
g1 x169.058735 y170.410357
g1 x169.130269 y170.433577
g1 x169.129793 y170.435421
g1 x169.130269 y170.433577
g1 x169.202278 y170.447467
g1 x169.20201 y170.449597
g1 x169.202278 y170.447467
g1 x169.278244 y170.452002
g1 x169.278244 y170.453783
g1 x169.278244 y170.452002
g1 x169.35421 y170.447467
g1 x169.354478 y170.449597
g1 x169.35421 y170.447467
g1 x169.426219 y170.433577
g1 x169.426695 y170.435421
g1 x169.426219 y170.433577
g1 x169.497753 y170.410357
g1 x169.498504 y170.41225
g1 x169.497753 y170.410357
g1 x169.56538 y170.378401
g1 x169.566327 y170.380117
g1 x169.56538 y170.378401
g1 x169.628934 y170.337975
g1 x169.630076 y170.339544
g1 x169.628934 y170.337975
g1 x169.687978 y170.28914
g1 x169.689299 y170.290549
g1 x169.687978 y170.28914
g1 x169.739576 y170.234363
g1 x169.741143 y170.235661
g1 x169.739576 y170.234363
g1 x169.783427 y170.173976
g1 x169.785068 y170.175017
g1 x169.783427 y170.173976
g1 x169.819825 y170.107896
g1 x169.821632 y170.108748
g1 x169.819825 y170.107896
g1 x169.847339 y170.038442
g1 x169.849224 y170.039055
g1 x169.847339 y170.038442
g1 x169.865916 y169.966104
g1 x169.867885 y169.966479
g1 x169.865916 y169.966104
g1 x169.875244 y169.891777
g1 x169.877192 y169.891899
g1 x169.875244 y169.891777
g1 x169.875244 y169.815758
g1 x169.87719 y169.815636
g1 x169.875244 y169.815758
g1 x169.865908 y169.741332
g1 x169.867879 y169.740956
g1 x169.865908 y169.741332
g1 x169.847339 y169.669024
g1 x169.849224 y169.668411
g1 x169.847339 y169.669024
g1 x169.819869 y169.599682
g1 x169.821683 y169.598827
g1 x169.819869 y169.599682
g1 x169.783498 y169.533688
g1 x169.785132 y169.53265
g1 x169.783498 y169.533688
g1 x169.739576 y169.473203
g1 x169.741143 y169.471905
g1 x169.739576 y169.473203
g1 x169.687978 y169.418426
g1 x169.689299 y169.417017
g1 x169.687978 y169.418426
g1 x169.628771 y169.369457
g1 x169.629905 y169.367898
g1 x169.628771 y169.369457
g1 x169.565189 y169.328975
g1 x169.566142 y169.327247
g1 x169.565189 y169.328975
g1 x169.497753 y169.297109
g1 x169.498504 y169.295216
g1 x169.497753 y169.297109
g1 x169.426219 y169.273889
g1 x169.426695 y169.272045
g1 x169.426219 y169.273889
g1 x169.35421 y169.259999
g1 x169.354478 y169.257869
g1 x169.35421 y169.259999
g1 x169.278244 y169.255464
g1 x169.278244 y169.253683
g1 x169.278244 y169.255464
g1 x169.202278 y169.259999
g1 z-2 f300
g1 x169.20201 y169.257869 f650
g1 x169.202278 y169.259999
g1 x169.130269 y169.273889
g1 x169.129793 y169.272045
g1 x169.130269 y169.273889
g1 x169.058735 y169.297109
g1 x169.057984 y169.295216
g1 x169.058735 y169.297109
g1 x168.990088 y169.329547
g1 x168.989177 y169.327891
g1 x168.990088 y169.329547
g1 x168.927034 y169.369457
g1 x168.925789 y169.367747
g1 x168.927034 y169.369457
g1 x168.869605 y169.417264
g1 x168.868348 y169.415928
g1 x168.869605 y169.417264
g1 x168.816912 y169.473203
g1 x168.815345 y169.471905
g1 x168.816912 y169.473203
g1 x168.77299 y169.533688
g1 x168.771356 y169.53265
g1 x168.77299 y169.533688
g1 x168.736619 y169.599682
g1 x168.734805 y169.598827
g1 x168.736619 y169.599682
g1 x168.709149 y169.669024
g1 x168.707264 y169.668411
g1 x168.709149 y169.669024
g1 x168.69058 y169.741332
g1 x168.688609 y169.740956
g1 x168.69058 y169.741332
g1 x168.681244 y169.815758
g1 x168.679298 y169.815636
g1 x168.681244 y169.815758
g1 x168.681244 y169.891777
g1 x168.679296 y169.891899
g1 x168.681244 y169.891777
g1 x168.690572 y169.966104
g1 x168.688603 y169.966479
g1 x168.690572 y169.966104
g1 x168.709149 y170.038442
g1 x168.707264 y170.039055
g1 x168.709149 y170.038442
g1 x168.736663 y170.107896
g1 x168.734856 y170.108748
g1 x168.736663 y170.107896
g1 x168.773061 y170.173976
g1 x168.77142 y170.175017
g1 x168.773061 y170.173976
g1 x168.816912 y170.234363
g1 x168.815345 y170.235661
g1 x168.816912 y170.234363
g1 x168.869605 y170.290302
g1 x168.868348 y170.291638
g1 x168.869605 y170.290302
g1 x168.926871 y170.337975
g1 x168.925619 y170.339695
g1 x168.926871 y170.337975
g1 x168.989897 y170.377829
g1 x168.988993 y170.379474
g1 x168.989897 y170.377829
g1 x169.058735 y170.410357
g1 x169.057984 y170.41225
g1 x169.058735 y170.410357
g1 x169.130269 y170.433577
g1 x169.129793 y170.435421
g1 x169.130269 y170.433577
g1 x169.202278 y170.447467
g1 x169.20201 y170.449597
g1 x169.202278 y170.447467
g1 x169.278244 y170.452002
g1 x169.278244 y170.453783
g1 x169.278244 y170.452002
g1 x169.35421 y170.447467
g1 x169.354478 y170.449597
g1 x169.35421 y170.447467
g1 x169.426219 y170.433577
g1 x169.426695 y170.435421
g1 x169.426219 y170.433577
g1 x169.497753 y170.410357
g1 x169.498504 y170.41225
g1 x169.497753 y170.410357
g1 x169.56538 y170.378401
g1 x169.566327 y170.380117
g1 x169.56538 y170.378401
g1 x169.628934 y170.337975
g1 x169.630076 y170.339544
g1 x169.628934 y170.337975
g1 x169.687978 y170.28914
g1 x169.689299 y170.290549
g1 x169.687978 y170.28914
g1 x169.739576 y170.234363
g1 x169.741143 y170.235661
g1 x169.739576 y170.234363
g1 x169.783427 y170.173976
g1 x169.785068 y170.175017
g1 x169.783427 y170.173976
g1 x169.819825 y170.107896
g1 x169.821632 y170.108748
g1 x169.819825 y170.107896
g1 x169.847339 y170.038442
g1 x169.849224 y170.039055
g1 x169.847339 y170.038442
g1 x169.865916 y169.966104
g1 x169.867885 y169.966479
g1 x169.865916 y169.966104
g1 x169.875244 y169.891777
g1 x169.877192 y169.891899
g1 x169.875244 y169.891777
g1 x169.875244 y169.815758
g1 x169.87719 y169.815636
g1 x169.875244 y169.815758
g1 x169.865908 y169.741332
g1 x169.867879 y169.740956
g1 x169.865908 y169.741332
g1 x169.847339 y169.669024
g1 x169.849224 y169.668411
g1 x169.847339 y169.669024
g1 x169.819869 y169.599682
g1 x169.821683 y169.598827
g1 x169.819869 y169.599682
g1 x169.783498 y169.533688
g1 x169.785132 y169.53265
g1 x169.783498 y169.533688
g1 x169.739576 y169.473203
g1 x169.741143 y169.471905
g1 x169.739576 y169.473203
g1 x169.687978 y169.418426
g1 x169.689299 y169.417017
g1 x169.687978 y169.418426
g1 x169.628771 y169.369457
g1 x169.629905 y169.367898
g1 x169.628771 y169.369457
g1 x169.565189 y169.328975
g1 x169.566142 y169.327247
g1 x169.565189 y169.328975
g1 x169.497753 y169.297109
g1 x169.498504 y169.295216
g1 x169.497753 y169.297109
g1 x169.426219 y169.273889
g1 x169.426695 y169.272045
g1 x169.426219 y169.273889
g1 x169.35421 y169.259999
g1 x169.354478 y169.257869
g1 x169.35421 y169.259999
g1 x169.278244 y169.255464
g1 x169.278244 y169.253683
g1 x169.278244 y169.255464
g1 x169.202278 y169.259999
g1 z-3 f300
g1 x169.20201 y169.257869 f650
g1 x169.202278 y169.259999
g1 x169.130269 y169.273889
g1 x169.129793 y169.272045
g1 x169.130269 y169.273889
g1 x169.058735 y169.297109
g1 x169.057984 y169.295216
g1 x169.058735 y169.297109
g1 x168.990088 y169.329547
g1 x168.989177 y169.327891
g1 x168.990088 y169.329547
g1 x168.927034 y169.369457
g1 x168.925789 y169.367747
g1 x168.927034 y169.369457
g1 x168.869605 y169.417264
g1 x168.868348 y169.415928
g1 x168.869605 y169.417264
g1 x168.816912 y169.473203
g1 x168.815345 y169.471905
g1 x168.816912 y169.473203
g1 x168.77299 y169.533688
g1 x168.771356 y169.53265
g1 x168.77299 y169.533688
g1 x168.736619 y169.599682
g1 x168.734805 y169.598827
g1 x168.736619 y169.599682
g1 x168.709149 y169.669024
g1 x168.707264 y169.668411
g1 x168.709149 y169.669024
g1 x168.69058 y169.741332
g1 x168.688609 y169.740956
g1 x168.69058 y169.741332
g1 x168.681244 y169.815758
g1 x168.679298 y169.815636
g1 x168.681244 y169.815758
g1 x168.681244 y169.891777
g1 x168.679296 y169.891899
g1 x168.681244 y169.891777
g1 x168.690572 y169.966104
g1 x168.688603 y169.966479
g1 x168.690572 y169.966104
g1 x168.709149 y170.038442
g1 x168.707264 y170.039055
g1 x168.709149 y170.038442
g1 x168.736663 y170.107896
g1 x168.734856 y170.108748
g1 x168.736663 y170.107896
g1 x168.773061 y170.173976
g1 x168.77142 y170.175017
g1 x168.773061 y170.173976
g1 x168.816912 y170.234363
g1 x168.815345 y170.235661
g1 x168.816912 y170.234363
g1 x168.869605 y170.290302
g1 x168.868348 y170.291638
g1 x168.869605 y170.290302
g1 x168.926871 y170.337975
g1 x168.925619 y170.339695
g1 x168.926871 y170.337975
g1 x168.989897 y170.377829
g1 x168.988993 y170.379474
g1 x168.989897 y170.377829
g1 x169.058735 y170.410357
g1 x169.057984 y170.41225
g1 x169.058735 y170.410357
g1 x169.130269 y170.433577
g1 x169.129793 y170.435421
g1 x169.130269 y170.433577
g1 x169.202278 y170.447467
g1 x169.20201 y170.449597
g1 x169.202278 y170.447467
g1 x169.278244 y170.452002
g1 x169.278244 y170.453783
g1 x169.278244 y170.452002
g1 x169.35421 y170.447467
g1 x169.354478 y170.449597
g1 x169.35421 y170.447467
g1 x169.426219 y170.433577
g1 x169.426695 y170.435421
g1 x169.426219 y170.433577
g1 x169.497753 y170.410357
g1 x169.498504 y170.41225
g1 x169.497753 y170.410357
g1 x169.56538 y170.378401
g1 x169.566327 y170.380117
g1 x169.56538 y170.378401
g1 x169.628934 y170.337975
g1 x169.630076 y170.339544
g1 x169.628934 y170.337975
g1 x169.687978 y170.28914
g1 x169.689299 y170.290549
g1 x169.687978 y170.28914
g1 x169.739576 y170.234363
g1 x169.741143 y170.235661
g1 x169.739576 y170.234363
g1 x169.783427 y170.173976
g1 x169.785068 y170.175017
g1 x169.783427 y170.173976
g1 x169.819825 y170.107896
g1 x169.821632 y170.108748
g1 x169.819825 y170.107896
g1 x169.847339 y170.038442
g1 x169.849224 y170.039055
g1 x169.847339 y170.038442
g1 x169.865916 y169.966104
g1 x169.867885 y169.966479
g1 x169.865916 y169.966104
g1 x169.875244 y169.891777
g1 x169.877192 y169.891899
g1 x169.875244 y169.891777
g1 x169.875244 y169.815758
g1 x169.87719 y169.815636
g1 x169.875244 y169.815758
g1 x169.865908 y169.741332
g1 x169.867879 y169.740956
g1 x169.865908 y169.741332
g1 x169.847339 y169.669024
g1 x169.849224 y169.668411
g1 x169.847339 y169.669024
g1 x169.819869 y169.599682
g1 x169.821683 y169.598827
g1 x169.819869 y169.599682
g1 x169.783498 y169.533688
g1 x169.785132 y169.53265
g1 x169.783498 y169.533688
g1 x169.739576 y169.473203
g1 x169.741143 y169.471905
g1 x169.739576 y169.473203
g1 x169.687978 y169.418426
g1 x169.689299 y169.417017
g1 x169.687978 y169.418426
g1 x169.628771 y169.369457
g1 x169.629905 y169.367898
g1 x169.628771 y169.369457
g1 x169.565189 y169.328975
g1 x169.566142 y169.327247
g1 x169.565189 y169.328975
g1 x169.497753 y169.297109
g1 x169.498504 y169.295216
g1 x169.497753 y169.297109
g1 x169.426219 y169.273889
g1 x169.426695 y169.272045
g1 x169.426219 y169.273889
g1 x169.35421 y169.259999
g1 x169.354478 y169.257869
g1 x169.35421 y169.259999
g1 x169.278244 y169.255464
g1 x169.278244 y169.253683
g1 x169.278244 y169.255464
g1 x169.202278 y169.259999
g0 z30
(Block-name: path4)
(Block-expand: 0)
(Block-enable: 0)

(End cutting path id: path4)


(Start cutting path id: path4)
(Change tool to Default tool)

G0 Z10
G0 X142.677746 Y164.756383

G1 Z-0.125 F100
G1 X142.478346 Y164.781483 Z-0.125 F400
G1 X142.283746 Y164.831383 Z-0.125
G1 X142.096846 Y164.905383 Z-0.125
G1 X141.920946 Y165.002183 Z-0.125
G1 X141.758246 Y165.120283 Z-0.125
G1 X141.611746 Y165.257883 Z-0.125
G1 X141.483741 Y165.412783 Z-0.125
G1 X141.376041 Y165.582283 Z-0.125
G1 X141.290541 Y165.764183 Z-0.125
G1 X141.228441 Y165.955183 Z-0.125
G1 X141.190741 Y166.152683 Z-0.125
G1 X141.178141 Y166.353183 Z-0.125
G1 X141.190741 Y166.553683 Z-0.125
G1 X141.228441 Y166.751083 Z-0.125
G1 X141.290541 Y166.942183 Z-0.125
G1 X141.376041 Y167.123883 Z-0.125
G1 X141.483741 Y167.293583 Z-0.125
G1 X141.611746 Y167.448483 Z-0.125
G1 X141.758246 Y167.585883 Z-0.125
G1 X141.920946 Y167.704083 Z-0.125
G1 X142.096846 Y167.801083 Z-0.125
G1 X142.283746 Y167.875083 Z-0.125
G1 X142.478346 Y167.925083 Z-0.125
G1 X142.677746 Y167.950083 Z-0.125
G1 X142.878746 Y167.950083 Z-0.125
G1 X143.077946 Y167.925083 Z-0.125
G1 X143.272546 Y167.875083 Z-0.125
G1 X143.459446 Y167.801083 Z-0.125
G1 X143.635546 Y167.704083 Z-0.125
G1 X143.798046 Y167.585883 Z-0.125
G1 X143.944546 Y167.448483 Z-0.125
G1 X144.072546 Y167.293583 Z-0.125
G1 X144.180246 Y167.123883 Z-0.125
G1 X144.265846 Y166.942183 Z-0.125
G1 X144.327846 Y166.751083 Z-0.125
G1 X144.365546 Y166.553683 Z-0.125
G1 X144.378146 Y166.353183 Z-0.125
G1 X144.365546 Y166.152683 Z-0.125
G1 X144.327846 Y165.955183 Z-0.125
G1 X144.265846 Y165.764183 Z-0.125
G1 X144.180246 Y165.582283 Z-0.125
G1 X144.072546 Y165.412783 Z-0.125
G1 X143.944546 Y165.257883 Z-0.125
G1 X143.798046 Y165.120283 Z-0.125
G1 X143.635546 Y165.002183 Z-0.125
G1 X143.459446 Y164.905183 Z-0.125
G1 X143.272546 Y164.831183 Z-0.125
G1 X143.077946 Y164.781183 Z-0.125
G1 X142.878746 Y164.756183 Z-0.125
G1 X142.677746 Y164.756383 Z-0.125
G0 Z10
(Block-name: path4 [in,cut])
(Block-expand: 0)
(Block-enable: 1)
g0 x142.740933 y165.756321
g1 z0 f300
g1 x142.740811 y165.754392 f650
g1 x142.740933 y165.756321
g1 x142.665726 y165.765787
g1 x142.665355 y165.763841
g1 x142.665726 y165.765787
g1 x142.593231 y165.784377
g1 x142.592617 y165.782487
g1 x142.593231 y165.784377
g1 x142.523669 y165.811919
g1 x142.522821 y165.810118
g1 x142.523669 y165.811919
g1 x142.457814 y165.84816
g1 x142.456769 y165.846513
g1 x142.457814 y165.84816
g1 x142.396811 y165.89244
g1 x142.39554 y165.890904
g1 x142.396811 y165.89244
g1 x142.342383 y165.943561
g1 x142.340932 y165.942199
g1 x142.342383 y165.943561
g1 x142.294324 y166.001719
g1 x142.292752 y166.000577
g1 x142.294324 y166.001719
g1 x142.254078 y166.065059
g1 x142.252318 y166.064091
g1 x142.254078 y166.065059
g1 x142.222182 y166.132917
g1 x142.220362 y166.132196
g1 x142.222182 y166.132917
g1 x142.198902 y166.204517
g1 x142.196985 y166.204024
g1 x142.198902 y166.204517
g1 x142.18482 y166.27829
g1 x142.182853 y166.278041
g1 x142.18482 y166.27829
g1 x142.180114 y166.353183
g1 x142.178141 y166.353183
g1 x142.180114 y166.353183
g1 x142.184817 y166.42803
g1 x142.182847 y166.428279
g1 x142.184817 y166.42803
g1 x142.198902 y166.501781
g1 x142.196993 y166.502271
g1 x142.198902 y166.501781
g1 x142.222149 y166.573317
g1 x142.220312 y166.574044
g1 x142.222149 y166.573317
g1 x142.254078 y166.64117
g1 x142.252344 y166.642123
g1 x142.254078 y166.64117
g1 x142.294494 y166.704854
g1 x142.292909 y166.706005
g1 x142.294494 y166.704854
g1 x142.342151 y166.762524
g1 x142.340683 y166.763902
g1 x142.342151 y166.762524
g1 x142.396663 y166.81365
g1 x142.395415 y166.815159
g1 x142.396663 y166.81365
g1 x142.458345 y166.858461
g1 x142.457307 y166.860095
g1 x142.458345 y166.858461
g1 x142.524076 y166.894708
g1 x142.523216 y166.896534
g1 x142.524076 y166.894708
g1 x142.593456 y166.922178
g1 x142.592846 y166.924053
g1 x142.593456 y166.922178
g1 x142.665726 y166.940747
g1 x142.66535 y166.942724
g1 x142.665726 y166.940747
g1 x142.74019 y166.950083
g1 x142.740068 y166.952027
g1 x142.74019 y166.950083
g1 x142.81624 y166.950083
g1 x142.816362 y166.952031
g1 x142.81624 y166.950083
g1 x142.890506 y166.940763
g1 x142.890881 y166.942735
g1 x142.890506 y166.940763
g1 x142.962836 y166.922178
g1 x142.963446 y166.924053
g1 x142.962836 y166.922178
g1 x143.03244 y166.89462
g1 x143.033293 y166.896432
g1 x143.03244 y166.89462
g1 x143.098084 y166.858461
g1 x143.09914 y166.860123
g1 x143.098084 y166.858461
g1 x143.159414 y166.813851
g1 x143.160651 y166.815346
g1 x143.159414 y166.813851
g1 x143.214134 y166.76253
g1 x143.215602 y166.763909
g1 x143.214134 y166.76253
g1 x143.261787 y166.704862
g1 x143.263373 y166.706013
g1 x143.261787 y166.704862
g1 x143.302331 y166.640979
g1 x143.304051 y166.641926
g1 x143.302331 y166.640979
g1 x143.334207 y166.573317
g1 x143.336071 y166.574055
g1 x143.334207 y166.573317
g1 x143.35734 y166.502014
g1 x143.359235 y166.5025
g1 x143.35734 y166.502014
g1 x143.37147 y166.42803
g1 x143.37344 y166.428279
g1 x143.37147 y166.42803
g1 x143.376173 y166.353183
g1 x143.378146 y166.353183
g1 x143.376173 y166.353183
g1 x143.371467 y166.27829
g1 x143.373434 y166.278041
g1 x143.371467 y166.27829
g1 x143.35734 y166.204283
g1 x143.359243 y166.203795
g1 x143.35734 y166.204283
g1 x143.334174 y166.132916
g1 x143.336021 y166.132185
g1 x143.334174 y166.132916
g1 x143.302331 y166.06525
g1 x143.304078 y166.064288
g1 x143.302331 y166.06525
g1 x143.261958 y166.00171
g1 x143.263529 y166.000569
g1 x143.261958 y166.00171
g1 x143.213902 y165.943555
g1 x143.215354 y165.942192
g1 x143.213902 y165.943555
g1 x143.159267 y165.892239
g1 x143.160527 y165.890717
g1 x143.159267 y165.892239
g1 x143.098261 y165.847902
g1 x143.09931 y165.846251
g1 x143.098261 y165.847902
g1 x143.03244 y165.811646
g1 x143.033293 y165.809834
g1 x143.03244 y165.811646
g1 x142.962836 y165.784088
g1 x142.963446 y165.782213
g1 x142.962836 y165.784088
g1 x142.890506 y165.765503
g1 x142.890881 y165.763531
g1 x142.890506 y165.765503
g1 x142.816736 y165.756245
g1 x142.816858 y165.754266
g1 x142.816736 y165.756245
g1 x142.740933 y165.756321
g1 z-1 f300
g1 x142.740811 y165.754392 f650
g1 x142.740933 y165.756321
g1 x142.665726 y165.765787
g1 x142.665355 y165.763841
g1 x142.665726 y165.765787
g1 x142.593231 y165.784377
g1 x142.592617 y165.782487
g1 x142.593231 y165.784377
g1 x142.523669 y165.811919
g1 x142.522821 y165.810118
g1 x142.523669 y165.811919
g1 x142.457814 y165.84816
g1 x142.456769 y165.846513
g1 x142.457814 y165.84816
g1 x142.396811 y165.89244
g1 x142.39554 y165.890904
g1 x142.396811 y165.89244
g1 x142.342383 y165.943561
g1 x142.340932 y165.942199
g1 x142.342383 y165.943561
g1 x142.294324 y166.001719
g1 x142.292752 y166.000577
g1 x142.294324 y166.001719
g1 x142.254078 y166.065059
g1 x142.252318 y166.064091
g1 x142.254078 y166.065059
g1 x142.222182 y166.132917
g1 x142.220362 y166.132196
g1 x142.222182 y166.132917
g1 x142.198902 y166.204517
g1 x142.196985 y166.204024
g1 x142.198902 y166.204517
g1 x142.18482 y166.27829
g1 x142.182853 y166.278041
g1 x142.18482 y166.27829
g1 x142.180114 y166.353183
g1 x142.178141 y166.353183
g1 x142.180114 y166.353183
g1 x142.184817 y166.42803
g1 x142.182847 y166.428279
g1 x142.184817 y166.42803
g1 x142.198902 y166.501781
g1 x142.196993 y166.502271
g1 x142.198902 y166.501781
g1 x142.222149 y166.573317
g1 x142.220312 y166.574044
g1 x142.222149 y166.573317
g1 x142.254078 y166.64117
g1 x142.252344 y166.642123
g1 x142.254078 y166.64117
g1 x142.294494 y166.704854
g1 x142.292909 y166.706005
g1 x142.294494 y166.704854
g1 x142.342151 y166.762524
g1 x142.340683 y166.763902
g1 x142.342151 y166.762524
g1 x142.396663 y166.81365
g1 x142.395415 y166.815159
g1 x142.396663 y166.81365
g1 x142.458345 y166.858461
g1 x142.457307 y166.860095
g1 x142.458345 y166.858461
g1 x142.524076 y166.894708
g1 x142.523216 y166.896534
g1 x142.524076 y166.894708
g1 x142.593456 y166.922178
g1 x142.592846 y166.924053
g1 x142.593456 y166.922178
g1 x142.665726 y166.940747
g1 x142.66535 y166.942724
g1 x142.665726 y166.940747
g1 x142.74019 y166.950083
g1 x142.740068 y166.952027
g1 x142.74019 y166.950083
g1 x142.81624 y166.950083
g1 x142.816362 y166.952031
g1 x142.81624 y166.950083
g1 x142.890506 y166.940763
g1 x142.890881 y166.942735
g1 x142.890506 y166.940763
g1 x142.962836 y166.922178
g1 x142.963446 y166.924053
g1 x142.962836 y166.922178
g1 x143.03244 y166.89462
g1 x143.033293 y166.896432
g1 x143.03244 y166.89462
g1 x143.098084 y166.858461
g1 x143.09914 y166.860123
g1 x143.098084 y166.858461
g1 x143.159414 y166.813851
g1 x143.160651 y166.815346
g1 x143.159414 y166.813851
g1 x143.214134 y166.76253
g1 x143.215602 y166.763909
g1 x143.214134 y166.76253
g1 x143.261787 y166.704862
g1 x143.263373 y166.706013
g1 x143.261787 y166.704862
g1 x143.302331 y166.640979
g1 x143.304051 y166.641926
g1 x143.302331 y166.640979
g1 x143.334207 y166.573317
g1 x143.336071 y166.574055
g1 x143.334207 y166.573317
g1 x143.35734 y166.502014
g1 x143.359235 y166.5025
g1 x143.35734 y166.502014
g1 x143.37147 y166.42803
g1 x143.37344 y166.428279
g1 x143.37147 y166.42803
g1 x143.376173 y166.353183
g1 x143.378146 y166.353183
g1 x143.376173 y166.353183
g1 x143.371467 y166.27829
g1 x143.373434 y166.278041
g1 x143.371467 y166.27829
g1 x143.35734 y166.204283
g1 x143.359243 y166.203795
g1 x143.35734 y166.204283
g1 x143.334174 y166.132916
g1 x143.336021 y166.132185
g1 x143.334174 y166.132916
g1 x143.302331 y166.06525
g1 x143.304078 y166.064288
g1 x143.302331 y166.06525
g1 x143.261958 y166.00171
g1 x143.263529 y166.000569
g1 x143.261958 y166.00171
g1 x143.213902 y165.943555
g1 x143.215354 y165.942192
g1 x143.213902 y165.943555
g1 x143.159267 y165.892239
g1 x143.160527 y165.890717
g1 x143.159267 y165.892239
g1 x143.098261 y165.847902
g1 x143.09931 y165.846251
g1 x143.098261 y165.847902
g1 x143.03244 y165.811646
g1 x143.033293 y165.809834
g1 x143.03244 y165.811646
g1 x142.962836 y165.784088
g1 x142.963446 y165.782213
g1 x142.962836 y165.784088
g1 x142.890506 y165.765503
g1 x142.890881 y165.763531
g1 x142.890506 y165.765503
g1 x142.816736 y165.756245
g1 x142.816858 y165.754266
g1 x142.816736 y165.756245
g1 x142.740933 y165.756321
g1 z-2 f300
g1 x142.740811 y165.754392 f650
g1 x142.740933 y165.756321
g1 x142.665726 y165.765787
g1 x142.665355 y165.763841
g1 x142.665726 y165.765787
g1 x142.593231 y165.784377
g1 x142.592617 y165.782487
g1 x142.593231 y165.784377
g1 x142.523669 y165.811919
g1 x142.522821 y165.810118
g1 x142.523669 y165.811919
g1 x142.457814 y165.84816
g1 x142.456769 y165.846513
g1 x142.457814 y165.84816
g1 x142.396811 y165.89244
g1 x142.39554 y165.890904
g1 x142.396811 y165.89244
g1 x142.342383 y165.943561
g1 x142.340932 y165.942199
g1 x142.342383 y165.943561
g1 x142.294324 y166.001719
g1 x142.292752 y166.000577
g1 x142.294324 y166.001719
g1 x142.254078 y166.065059
g1 x142.252318 y166.064091
g1 x142.254078 y166.065059
g1 x142.222182 y166.132917
g1 x142.220362 y166.132196
g1 x142.222182 y166.132917
g1 x142.198902 y166.204517
g1 x142.196985 y166.204024
g1 x142.198902 y166.204517
g1 x142.18482 y166.27829
g1 x142.182853 y166.278041
g1 x142.18482 y166.27829
g1 x142.180114 y166.353183
g1 x142.178141 y166.353183
g1 x142.180114 y166.353183
g1 x142.184817 y166.42803
g1 x142.182847 y166.428279
g1 x142.184817 y166.42803
g1 x142.198902 y166.501781
g1 x142.196993 y166.502271
g1 x142.198902 y166.501781
g1 x142.222149 y166.573317
g1 x142.220312 y166.574044
g1 x142.222149 y166.573317
g1 x142.254078 y166.64117
g1 x142.252344 y166.642123
g1 x142.254078 y166.64117
g1 x142.294494 y166.704854
g1 x142.292909 y166.706005
g1 x142.294494 y166.704854
g1 x142.342151 y166.762524
g1 x142.340683 y166.763902
g1 x142.342151 y166.762524
g1 x142.396663 y166.81365
g1 x142.395415 y166.815159
g1 x142.396663 y166.81365
g1 x142.458345 y166.858461
g1 x142.457307 y166.860095
g1 x142.458345 y166.858461
g1 x142.524076 y166.894708
g1 x142.523216 y166.896534
g1 x142.524076 y166.894708
g1 x142.593456 y166.922178
g1 x142.592846 y166.924053
g1 x142.593456 y166.922178
g1 x142.665726 y166.940747
g1 x142.66535 y166.942724
g1 x142.665726 y166.940747
g1 x142.74019 y166.950083
g1 x142.740068 y166.952027
g1 x142.74019 y166.950083
g1 x142.81624 y166.950083
g1 x142.816362 y166.952031
g1 x142.81624 y166.950083
g1 x142.890506 y166.940763
g1 x142.890881 y166.942735
g1 x142.890506 y166.940763
g1 x142.962836 y166.922178
g1 x142.963446 y166.924053
g1 x142.962836 y166.922178
g1 x143.03244 y166.89462
g1 x143.033293 y166.896432
g1 x143.03244 y166.89462
g1 x143.098084 y166.858461
g1 x143.09914 y166.860123
g1 x143.098084 y166.858461
g1 x143.159414 y166.813851
g1 x143.160651 y166.815346
g1 x143.159414 y166.813851
g1 x143.214134 y166.76253
g1 x143.215602 y166.763909
g1 x143.214134 y166.76253
g1 x143.261787 y166.704862
g1 x143.263373 y166.706013
g1 x143.261787 y166.704862
g1 x143.302331 y166.640979
g1 x143.304051 y166.641926
g1 x143.302331 y166.640979
g1 x143.334207 y166.573317
g1 x143.336071 y166.574055
g1 x143.334207 y166.573317
g1 x143.35734 y166.502014
g1 x143.359235 y166.5025
g1 x143.35734 y166.502014
g1 x143.37147 y166.42803
g1 x143.37344 y166.428279
g1 x143.37147 y166.42803
g1 x143.376173 y166.353183
g1 x143.378146 y166.353183
g1 x143.376173 y166.353183
g1 x143.371467 y166.27829
g1 x143.373434 y166.278041
g1 x143.371467 y166.27829
g1 x143.35734 y166.204283
g1 x143.359243 y166.203795
g1 x143.35734 y166.204283
g1 x143.334174 y166.132916
g1 x143.336021 y166.132185
g1 x143.334174 y166.132916
g1 x143.302331 y166.06525
g1 x143.304078 y166.064288
g1 x143.302331 y166.06525
g1 x143.261958 y166.00171
g1 x143.263529 y166.000569
g1 x143.261958 y166.00171
g1 x143.213902 y165.943555
g1 x143.215354 y165.942192
g1 x143.213902 y165.943555
g1 x143.159267 y165.892239
g1 x143.160527 y165.890717
g1 x143.159267 y165.892239
g1 x143.098261 y165.847902
g1 x143.09931 y165.846251
g1 x143.098261 y165.847902
g1 x143.03244 y165.811646
g1 x143.033293 y165.809834
g1 x143.03244 y165.811646
g1 x142.962836 y165.784088
g1 x142.963446 y165.782213
g1 x142.962836 y165.784088
g1 x142.890506 y165.765503
g1 x142.890881 y165.763531
g1 x142.890506 y165.765503
g1 x142.816736 y165.756245
g1 x142.816858 y165.754266
g1 x142.816736 y165.756245
g1 x142.740933 y165.756321
g1 z-3 f300
g1 x142.740811 y165.754392 f650
g1 x142.740933 y165.756321
g1 x142.665726 y165.765787
g1 x142.665355 y165.763841
g1 x142.665726 y165.765787
g1 x142.593231 y165.784377
g1 x142.592617 y165.782487
g1 x142.593231 y165.784377
g1 x142.523669 y165.811919
g1 x142.522821 y165.810118
g1 x142.523669 y165.811919
g1 x142.457814 y165.84816
g1 x142.456769 y165.846513
g1 x142.457814 y165.84816
g1 x142.396811 y165.89244
g1 x142.39554 y165.890904
g1 x142.396811 y165.89244
g1 x142.342383 y165.943561
g1 x142.340932 y165.942199
g1 x142.342383 y165.943561
g1 x142.294324 y166.001719
g1 x142.292752 y166.000577
g1 x142.294324 y166.001719
g1 x142.254078 y166.065059
g1 x142.252318 y166.064091
g1 x142.254078 y166.065059
g1 x142.222182 y166.132917
g1 x142.220362 y166.132196
g1 x142.222182 y166.132917
g1 x142.198902 y166.204517
g1 x142.196985 y166.204024
g1 x142.198902 y166.204517
g1 x142.18482 y166.27829
g1 x142.182853 y166.278041
g1 x142.18482 y166.27829
g1 x142.180114 y166.353183
g1 x142.178141 y166.353183
g1 x142.180114 y166.353183
g1 x142.184817 y166.42803
g1 x142.182847 y166.428279
g1 x142.184817 y166.42803
g1 x142.198902 y166.501781
g1 x142.196993 y166.502271
g1 x142.198902 y166.501781
g1 x142.222149 y166.573317
g1 x142.220312 y166.574044
g1 x142.222149 y166.573317
g1 x142.254078 y166.64117
g1 x142.252344 y166.642123
g1 x142.254078 y166.64117
g1 x142.294494 y166.704854
g1 x142.292909 y166.706005
g1 x142.294494 y166.704854
g1 x142.342151 y166.762524
g1 x142.340683 y166.763902
g1 x142.342151 y166.762524
g1 x142.396663 y166.81365
g1 x142.395415 y166.815159
g1 x142.396663 y166.81365
g1 x142.458345 y166.858461
g1 x142.457307 y166.860095
g1 x142.458345 y166.858461
g1 x142.524076 y166.894708
g1 x142.523216 y166.896534
g1 x142.524076 y166.894708
g1 x142.593456 y166.922178
g1 x142.592846 y166.924053
g1 x142.593456 y166.922178
g1 x142.665726 y166.940747
g1 x142.66535 y166.942724
g1 x142.665726 y166.940747
g1 x142.74019 y166.950083
g1 x142.740068 y166.952027
g1 x142.74019 y166.950083
g1 x142.81624 y166.950083
g1 x142.816362 y166.952031
g1 x142.81624 y166.950083
g1 x142.890506 y166.940763
g1 x142.890881 y166.942735
g1 x142.890506 y166.940763
g1 x142.962836 y166.922178
g1 x142.963446 y166.924053
g1 x142.962836 y166.922178
g1 x143.03244 y166.89462
g1 x143.033293 y166.896432
g1 x143.03244 y166.89462
g1 x143.098084 y166.858461
g1 x143.09914 y166.860123
g1 x143.098084 y166.858461
g1 x143.159414 y166.813851
g1 x143.160651 y166.815346
g1 x143.159414 y166.813851
g1 x143.214134 y166.76253
g1 x143.215602 y166.763909
g1 x143.214134 y166.76253
g1 x143.261787 y166.704862
g1 x143.263373 y166.706013
g1 x143.261787 y166.704862
g1 x143.302331 y166.640979
g1 x143.304051 y166.641926
g1 x143.302331 y166.640979
g1 x143.334207 y166.573317
g1 x143.336071 y166.574055
g1 x143.334207 y166.573317
g1 x143.35734 y166.502014
g1 x143.359235 y166.5025
g1 x143.35734 y166.502014
g1 x143.37147 y166.42803
g1 x143.37344 y166.428279
g1 x143.37147 y166.42803
g1 x143.376173 y166.353183
g1 x143.378146 y166.353183
g1 x143.376173 y166.353183
g1 x143.371467 y166.27829
g1 x143.373434 y166.278041
g1 x143.371467 y166.27829
g1 x143.35734 y166.204283
g1 x143.359243 y166.203795
g1 x143.35734 y166.204283
g1 x143.334174 y166.132916
g1 x143.336021 y166.132185
g1 x143.334174 y166.132916
g1 x143.302331 y166.06525
g1 x143.304078 y166.064288
g1 x143.302331 y166.06525
g1 x143.261958 y166.00171
g1 x143.263529 y166.000569
g1 x143.261958 y166.00171
g1 x143.213902 y165.943555
g1 x143.215354 y165.942192
g1 x143.213902 y165.943555
g1 x143.159267 y165.892239
g1 x143.160527 y165.890717
g1 x143.159267 y165.892239
g1 x143.098261 y165.847902
g1 x143.09931 y165.846251
g1 x143.098261 y165.847902
g1 x143.03244 y165.811646
g1 x143.033293 y165.809834
g1 x143.03244 y165.811646
g1 x142.962836 y165.784088
g1 x142.963446 y165.782213
g1 x142.962836 y165.784088
g1 x142.890506 y165.765503
g1 x142.890881 y165.763531
g1 x142.890506 y165.765503
g1 x142.816736 y165.756245
g1 x142.816858 y165.754266
g1 x142.816736 y165.756245
g1 x142.740933 y165.756321
g0 z30
(Block-name: path4)
(Block-expand: 0)
(Block-enable: 0)

(End cutting path id: path4)


(Start cutting path id: path4)
(Change tool to Default tool)

G0 Z10
G0 X142.278146 Y169.353183

G1 Z-0.125 F100
G1 X142.278146 Y171.353183 Z-0.125 F400
G1 X147.278146 Y171.353183 Z-0.125
G1 X147.278146 Y169.353183 Z-0.125
G1 X142.278146 Y169.353183 Z-0.125
G0 Z10
(Block-name: path4 [in,cut])
(Block-expand: 0)
(Block-enable: 1)
g0 x143.278146 y170.353183
g1 z0 f300
g1 x146.278146 y170.353183 f650
g1 x143.278146 y170.353183
g1 z-1 f300
g1 x146.278146 y170.353183 f650
g1 x143.278146 y170.353183
g1 z-2 f300
g1 x146.278146 y170.353183 f650
g1 x143.278146 y170.353183
g1 z-3 f300
g1 x146.278146 y170.353183 f650
g1 x143.278146 y170.353183
g0 z30
(Block-name: path4)
(Block-expand: 0)
(Block-enable: 0)

(End cutting path id: path4)


(Start cutting path id: path4)
(Change tool to Default tool)

G0 Z10
G0 X127.278141 Y169.353183

G1 Z-0.125 F100
G1 X127.278141 Y171.353183 Z-0.125 F400
G1 X132.278141 Y171.353183 Z-0.125
G1 X132.278141 Y169.353183 Z-0.125
G1 X127.278141 Y169.353183 Z-0.125
G0 Z10
(Block-name: path4 [in,cut])
(Block-expand: 0)
(Block-enable: 1)
g0 x128.278141 y170.353183
g1 z0 f300
g1 x131.278141 y170.353183 f650
g1 x128.278141 y170.353183
g1 z-1 f300
g1 x131.278141 y170.353183 f650
g1 x128.278141 y170.353183
g1 z-2 f300
g1 x131.278141 y170.353183 f650
g1 x128.278141 y170.353183
g1 z-3 f300
g1 x131.278141 y170.353183 f650
g1 x128.278141 y170.353183
g0 z30
(Block-name: path4)
(Block-expand: 0)
(Block-enable: 0)

(End cutting path id: path4)


(Start cutting path id: path4)
(Change tool to Default tool)

G0 Z10
G0 X117.677741 Y164.756383

G1 Z-0.125 F100
G1 X117.478341 Y164.781383 Z-0.125 F400
G1 X117.283741 Y164.831383 Z-0.125
G1 X117.096841 Y164.905383 Z-0.125
G1 X116.920941 Y165.002183 Z-0.125
G1 X116.758241 Y165.120283 Z-0.125
G1 X116.611741 Y165.257883 Z-0.125
G1 X116.483741 Y165.412783 Z-0.125
G1 X116.376041 Y165.582283 Z-0.125
G1 X116.290541 Y165.764183 Z-0.125
G1 X116.228441 Y165.955183 Z-0.125
G1 X116.190741 Y166.152683 Z-0.125
G1 X116.178141 Y166.353183 Z-0.125
G1 X116.190741 Y166.553683 Z-0.125
G1 X116.228441 Y166.751083 Z-0.125
G1 X116.290541 Y166.942183 Z-0.125
G1 X116.376041 Y167.123883 Z-0.125
G1 X116.483741 Y167.293583 Z-0.125
G1 X116.611741 Y167.448483 Z-0.125
G1 X116.758241 Y167.585883 Z-0.125
G1 X116.920941 Y167.704083 Z-0.125
G1 X117.096841 Y167.801083 Z-0.125
G1 X117.283741 Y167.875083 Z-0.125
G1 X117.478341 Y167.925083 Z-0.125
G1 X117.677741 Y167.950083 Z-0.125
G1 X117.878741 Y167.950083 Z-0.125
G1 X118.077941 Y167.925083 Z-0.125
G1 X118.272541 Y167.875083 Z-0.125
G1 X118.459441 Y167.801083 Z-0.125
G1 X118.635541 Y167.704083 Z-0.125
G1 X118.798041 Y167.585883 Z-0.125
G1 X118.944541 Y167.448483 Z-0.125
G1 X119.072541 Y167.293583 Z-0.125
G1 X119.180241 Y167.123883 Z-0.125
G1 X119.265841 Y166.942183 Z-0.125
G1 X119.327841 Y166.751083 Z-0.125
G1 X119.365541 Y166.553683 Z-0.125
G1 X119.378141 Y166.353183 Z-0.125
G1 X119.365541 Y166.152683 Z-0.125
G1 X119.327841 Y165.955183 Z-0.125
G1 X119.265841 Y165.764183 Z-0.125
G1 X119.180241 Y165.582283 Z-0.125
G1 X119.072541 Y165.412783 Z-0.125
G1 X118.944541 Y165.257883 Z-0.125
G1 X118.798041 Y165.120283 Z-0.125
G1 X118.635541 Y165.002183 Z-0.125
G1 X118.459441 Y164.905183 Z-0.125
G1 X118.272541 Y164.831183 Z-0.125
G1 X118.077941 Y164.781183 Z-0.125
G1 X117.878741 Y164.756183 Z-0.125
G1 X117.677741 Y164.756383 Z-0.125
G0 Z10
(Block-name: path4 [in,cut])
(Block-expand: 0)
(Block-enable: 1)
g0 x117.74068 y165.756321
g1 z0 f300
g1 x117.74056 y165.754408 f650
g1 x117.74068 y165.756321
g1 x117.665721 y165.765719
g1 x117.665345 y165.763742
g1 x117.665721 y165.765719
g1 x117.593451 y165.784288
g1 x117.592841 y165.782413
g1 x117.593451 y165.784288
g1 x117.523664 y165.811919
g1 x117.522816 y165.810118
g1 x117.523664 y165.811919
g1 x117.457809 y165.84816
g1 x117.456764 y165.846513
g1 x117.457809 y165.84816
g1 x117.396806 y165.89244
g1 x117.395535 y165.890904
g1 x117.396806 y165.89244
g1 x117.342385 y165.943555
g1 x117.340933 y165.942192
g1 x117.342385 y165.943555
g1 x117.294329 y166.00171
g1 x117.292758 y166.000569
g1 x117.294329 y166.00171
g1 x117.254078 y166.065059
g1 x117.252318 y166.064091
g1 x117.254078 y166.065059
g1 x117.222182 y166.132917
g1 x117.220362 y166.132196
g1 x117.222182 y166.132917
g1 x117.198902 y166.204517
g1 x117.196985 y166.204024
g1 x117.198902 y166.204517
g1 x117.18482 y166.27829
g1 x117.182853 y166.278041
g1 x117.18482 y166.27829
g1 x117.180114 y166.353183
g1 x117.178141 y166.353183
g1 x117.180114 y166.353183
g1 x117.184817 y166.42803
g1 x117.182847 y166.428279
g1 x117.184817 y166.42803
g1 x117.198902 y166.501781
g1 x117.196993 y166.502271
g1 x117.198902 y166.501781
g1 x117.222149 y166.573317
g1 x117.220312 y166.574044
g1 x117.222149 y166.573317
g1 x117.254078 y166.64117
g1 x117.252344 y166.642123
g1 x117.254078 y166.64117
g1 x117.2945 y166.704862
g1 x117.292914 y166.706013
g1 x117.2945 y166.704862
g1 x117.342153 y166.76253
g1 x117.340685 y166.763909
g1 x117.342153 y166.76253
g1 x117.396658 y166.81365
g1 x117.39541 y166.815159
g1 x117.396658 y166.81365
g1 x117.45834 y166.858461
g1 x117.457302 y166.860095
g1 x117.45834 y166.858461
g1 x117.524071 y166.894708
g1 x117.523211 y166.896534
g1 x117.524071 y166.894708
g1 x117.593451 y166.922178
g1 x117.592841 y166.924053
g1 x117.593451 y166.922178
g1 x117.665721 y166.940747
g1 x117.665345 y166.942724
g1 x117.665721 y166.940747
g1 x117.740185 y166.950083
g1 x117.740063 y166.952027
g1 x117.740185 y166.950083
g1 x117.816235 y166.950083
g1 x117.816357 y166.952031
g1 x117.816235 y166.950083
g1 x117.890501 y166.940763
g1 x117.890876 y166.942735
g1 x117.890501 y166.940763
g1 x117.962831 y166.922178
g1 x117.963441 y166.924053
g1 x117.962831 y166.922178
g1 x118.032435 y166.89462
g1 x118.033288 y166.896432
g1 x118.032435 y166.89462
g1 x118.098079 y166.858461
g1 x118.099135 y166.860123
g1 x118.098079 y166.858461
g1 x118.159409 y166.813851
g1 x118.160646 y166.815346
g1 x118.159409 y166.813851
g1 x118.214129 y166.76253
g1 x118.215597 y166.763909
g1 x118.214129 y166.76253
g1 x118.261782 y166.704862
g1 x118.263368 y166.706013
g1 x118.261782 y166.704862
g1 x118.302326 y166.640979
g1 x118.304046 y166.641926
g1 x118.302326 y166.640979
g1 x118.334202 y166.573317
g1 x118.336066 y166.574055
g1 x118.334202 y166.573317
g1 x118.357335 y166.502014
g1 x118.35923 y166.5025
g1 x118.357335 y166.502014
g1 x118.371465 y166.42803
g1 x118.373435 y166.428279
g1 x118.371465 y166.42803
g1 x118.376168 y166.353183
g1 x118.378141 y166.353183
g1 x118.376168 y166.353183
g1 x118.371462 y166.27829
g1 x118.373429 y166.278041
g1 x118.371462 y166.27829
g1 x118.357335 y166.204283
g1 x118.359238 y166.203795
g1 x118.357335 y166.204283
g1 x118.334169 y166.132916
g1 x118.336016 y166.132185
g1 x118.334169 y166.132916
g1 x118.302326 y166.06525
g1 x118.304073 y166.064288
g1 x118.302326 y166.06525
g1 x118.261953 y166.00171
g1 x118.263524 y166.000569
g1 x118.261953 y166.00171
g1 x118.213897 y165.943555
g1 x118.215349 y165.942192
g1 x118.213897 y165.943555
g1 x118.159262 y165.892239
g1 x118.160522 y165.890717
g1 x118.159262 y165.892239
g1 x118.098256 y165.847902
g1 x118.099305 y165.846251
g1 x118.098256 y165.847902
g1 x118.032435 y165.811646
g1 x118.033288 y165.809834
g1 x118.032435 y165.811646
g1 x117.962831 y165.784088
g1 x117.963441 y165.782213
g1 x117.962831 y165.784088
g1 x117.890501 y165.765503
g1 x117.890876 y165.763531
g1 x117.890501 y165.765503
g1 x117.816731 y165.756245
g1 x117.816853 y165.754266
g1 x117.816731 y165.756245
g1 x117.74068 y165.756321
g1 z-1 f300
g1 x117.74056 y165.754408 f650
g1 x117.74068 y165.756321
g1 x117.665721 y165.765719
g1 x117.665345 y165.763742
g1 x117.665721 y165.765719
g1 x117.593451 y165.784288
g1 x117.592841 y165.782413
g1 x117.593451 y165.784288
g1 x117.523664 y165.811919
g1 x117.522816 y165.810118
g1 x117.523664 y165.811919
g1 x117.457809 y165.84816
g1 x117.456764 y165.846513
g1 x117.457809 y165.84816
g1 x117.396806 y165.89244
g1 x117.395535 y165.890904
g1 x117.396806 y165.89244
g1 x117.342385 y165.943555
g1 x117.340933 y165.942192
g1 x117.342385 y165.943555
g1 x117.294329 y166.00171
g1 x117.292758 y166.000569
g1 x117.294329 y166.00171
g1 x117.254078 y166.065059
g1 x117.252318 y166.064091
g1 x117.254078 y166.065059
g1 x117.222182 y166.132917
g1 x117.220362 y166.132196
g1 x117.222182 y166.132917
g1 x117.198902 y166.204517
g1 x117.196985 y166.204024
g1 x117.198902 y166.204517
g1 x117.18482 y166.27829
g1 x117.182853 y166.278041
g1 x117.18482 y166.27829
g1 x117.180114 y166.353183
g1 x117.178141 y166.353183
g1 x117.180114 y166.353183
g1 x117.184817 y166.42803
